(GCode created using the HeeksCNC Mach3 post processor)
(/home/turboss/Test/Fin_Ball_30_Parallel.tap)
G21
(G-code generated with BlenderCAM and NC library)
G17 G90
(Tool change - D = 1.5 mm  type BALL flutes 2)
G43H1
T1M06
S12000 M03 G00 X0 Y0 Z9.999
G00 X-17.1 Y17.199
G01 Z-0.587 F600
G01 Y16.599 F2000
G01 Y15.999
G01 Y15.399
G01 Y14.799
G01 Y14.199
G01 Y13.599
G01 Y12.999
G01 Y12.399
G01 Y11.799
G01 Y11.199
G01 Y10.599
G01 Y9.999
G01 Y9.399
G01 Y8.799
G01 Y8.199
G01 Y7.599
G01 Y5.999
G01 Y4.399
G01 Y1.399
G01 Y-0.2
G01 Y-3.2
G01 Y-3.8
G01 Y-4.6
G01 Y-6.2
G01 Y-7.8
G01 Y-8.4
G01 Y-9
G01 Y-9.6
G01 Y-10.2
G01 Y-10.8
G01 Y-11.4
G01 Y-12
G01 Y-12.6
G01 Y-13.2
G01 Y-13.8
G01 Y-14.4
G01 Y-15
G01 Y-15.6
G01 Y-16.2
G01 Y-16.8
G01 Y-17.2
G01 X-16.95
G01 Y-16.6
G01 Y-16
G01 Y-15.4
G01 Y-14.8
G01 Y-14.2
G01 Y-13.6
G01 Y-13
G01 Y-12.4
G01 Y-11.8
G01 Y-11.2
G01 Y-10.6
G01 Y-10
G01 Y-9.4
G01 Y-8.8
G01 Y-8.2
G01 Y-6.4
G01 Y-4.8
G01 Y-4
G01 Y-3.4
G01 Y-2.8
G01 Y-2.2
G01 Y-0.6
G01 Y0.999
G01 Y2.399
G01 Y2.999
G01 Y3.599
G01 Y4.399
G01 Y5.999
G01 Y7.599
G01 Y8.199
G01 Y8.799
G01 Y9.399
G01 Y9.999
G01 Y10.599
G01 Y11.199
G01 Y11.799
G01 Y12.399
G01 Y12.999
G01 Y13.599
G01 Y14.199
G01 Y14.799
G01 Y15.399
G01 Y15.999
G01 Y16.599
G01 Y17.199
G01 X-16.8
G01 Y16.599
G01 Y15.999
G01 Y15.399
G01 Y14.799
G01 Y14.199
G01 Y13.599
G01 Y12.999
G01 Y12.399
G01 Y11.799
G01 Y11.199
G01 Y10.599
G01 Y9.999
G01 Y9.399
G01 Y8.799
G01 Y8.199
G01 Y7.599
G01 Y5.999
G01 Y4.399
G01 Y1.399
G01 Y-0.2
G01 Y-3.2
G01 Y-3.8
G01 Y-4.6
G01 Y-6.2
G01 Y-7.8
G01 Y-8.4
G01 Y-9
G01 Y-9.6
G01 Y-10.2
G01 Y-10.8
G01 Y-11.4
G01 Y-12
G01 Y-12.6
G01 Y-13.2
G01 Y-13.8
G01 Y-14.4
G01 Y-15
G01 Y-15.6
G01 Y-16.2
G01 Y-16.8
G01 Y-17.2
G01 X-16.65
G01 Y-16.6
G01 Y-16
G01 Y-15.4
G01 Y-14.8
G01 Y-14.2
G01 Y-13.6
G01 Y-13
G01 Y-12.4
G01 Y-11.8
G01 Y-11.2
G01 Y-10.6
G01 Y-10
G01 Y-9.4
G01 Y-8.8
G01 Y-8.2
G01 Y-6.4
G01 Y-4.8
G01 Y-4
G01 Y-3.4
G01 Y-2.8
G01 Y-2.2
G01 Y-0.6
G01 Y0.999
G01 Y2.399
G01 Y2.999
G01 Y3.599
G01 Y4.399
G01 Y5.999
G01 Y7.599
G01 Y8.199
G01 Y8.799
G01 Y9.399
G01 Y9.999
G01 Y10.599
G01 Y11.199
G01 Y11.799
G01 Y12.399
G01 Y12.999
G01 Y13.599
G01 Y14.199
G01 Y14.799
G01 Y15.399
G01 Y15.999
G01 Y16.599
G01 Y17.199
G01 X-16.499
G01 Y16.599
G01 Y15.999
G01 Y15.399
G01 Y14.799
G01 Y14.199
G01 Y13.599
G01 Y12.999
G01 Y12.399
G01 Y11.799
G01 Y11.199
G01 Y10.599
G01 Y9.999
G01 Y9.399
G01 Y8.799
G01 Y8.199
G01 Y7.599
G01 Y5.999
G01 Y4.399
G01 Y1.399
G01 Y-0.2
G01 Y-3.2
G01 Y-3.8
G01 Y-4.6
G01 Y-6.2
G01 Y-7.8
G01 Y-8.4
G01 Y-9
G01 Y-9.6
G01 Y-10.2
G01 Y-10.8
G01 Y-11.4
G01 Y-12
G01 Y-12.6
G01 Y-13.2
G01 Y-13.8
G01 Y-14.4
G01 Y-15
G01 Y-15.6
G01 Y-16.2
G01 Y-16.8
G01 Y-17.2
G01 X-16.35
G01 Y-16.6
G01 Y-16
G01 Y-15.4
G01 Y-14.8
G01 Y-14.2
G01 Y-13.6
G01 Y-13
G01 Y-12.4
G01 Y-11.8
G01 Y-11.2
G01 Y-10.6
G01 Y-10
G01 Y-9.4
G01 Y-8.8
G01 Y-8.2
G01 Y-6.4
G01 Y-4.8
G01 Y-4
G01 Y-3.4
G01 Y-2.8
G01 Y-2.2
G01 Y-0.6
G01 Y0.999
G01 Y2.399
G01 Y2.999
G01 Y3.599
G01 Y4.399
G01 Y5.999
G01 Y7.599
G01 Y8.199
G01 Y8.799
G01 Y9.399
G01 Y9.999
G01 Y10.599
G01 Y11.199
G01 Y11.799
G01 Y12.399
G01 Y12.999
G01 Y13.599
G01 Y14.199
G01 Y14.799
G01 Y15.399
G01 Y15.999
G01 Y16.599
G01 Y17.199
G01 X-16.2
G01 Y16.599
G01 Y15.999
G01 Y15.399
G01 Y14.799
G01 Y14.199
G01 Y13.599
G01 Y12.999
G01 Y12.399
G01 Y11.799
G01 Y11.199
G01 Y10.599
G01 Y9.999
G01 Y9.399
G01 Y8.799
G01 Y8.199
G01 Y7.599
G01 Y5.999
G01 Y4.399
G01 Y1.399
G01 Y-0.2
G01 Y-3.2
G01 Y-3.8
G01 Y-4.6
G01 Y-6.2
G01 Y-7.8
G01 Y-8.4
G01 Y-9
G01 Y-9.6
G01 Y-10.2
G01 Y-10.8
G01 Y-11.4
G01 Y-12
G01 Y-12.6
G01 Y-13.2
G01 Y-13.8
G01 Y-14.4
G01 Y-15
G01 Y-15.6
G01 Y-16.2
G01 Y-16.8
G01 Y-17.2
G01 X-16.05
G01 Y-16.6
G01 Y-16
G01 Y-15.4
G01 Y-14.8
G01 Y-14.2
G01 Y-13.6
G01 Y-13
G01 Y-12.4
G01 Y-11.8
G01 Y-11.2
G01 Y-10.6
G01 Y-10
G01 Y-9.4
G01 Y-8.8
G01 Y-8.2
G01 Y-6.4
G01 Y-4.8
G01 Y-4
G01 Y-3.4
G01 Y-2.8
G01 Y-2.2
G01 Y-0.6
G01 Y0.999
G01 Y2.399
G01 Y2.999
G01 Y3.599
G01 Y4.399
G01 Y5.999
G01 Y7.599
G01 Y8.199
G01 Y8.799
G01 Y9.399
G01 Y9.999
G01 Y10.599
G01 Y11.199
G01 Y11.799
G01 Y12.399
G01 Y12.999
G01 Y13.599
G01 Y14.199
G01 Y14.799
G01 Y15.399
G01 Y15.999
G01 Y16.599
G01 Y17.199
G01 X-15.9
G01 Y16.599
G01 Y15.999
G01 Y15.399
G01 Y14.799
G01 Y14.199
G01 Y13.599
G01 Y12.999
G01 Y12.399
G01 Y11.799
G01 Y11.199
G01 Y10.599
G01 Y9.999
G01 Y9.399
G01 Y8.799
G01 Y8.199
G01 Y7.599
G01 Y5.999
G01 Y4.399
G01 Y1.399
G01 Y-0.2
G01 Y-3.2
G01 Y-3.8
G01 Y-4.6
G01 Y-6.2
G01 Y-7.8
G01 Y-8.4
G01 Y-9
G01 Y-9.6
G01 Y-10.2
G01 Y-10.8
G01 Y-11.4
G01 Y-12
G01 Y-12.6
G01 Y-13.2
G01 Y-13.8
G01 Y-14.4
G01 Y-15
G01 Y-15.6
G01 Y-16.2
G01 Y-16.8
G01 Y-17.2
G01 X-15.75
G01 Y-16.6
G01 Y-16
G01 Y-15.4
G01 Y-14.8
G01 Y-14.2
G01 Y-13.6
G01 Y-13
G01 Y-12.4
G01 Y-11.8
G01 Y-11.2
G01 Y-10.6
G01 Y-10
G01 Y-9.4
G01 Y-8.8
G01 Y-8.2
G01 Y-6.4
G01 Y-4.8
G01 Y-4
G01 Y-3.4
G01 Y-2.8
G01 Y-2.2
G01 Y-0.6
G01 Y0.999
G01 Y2.399
G01 Y2.999
G01 Y3.599
G01 Y4.399
G01 Y5.999
G01 Y7.599
G01 Y8.199
G01 Y8.799
G01 Y9.399
G01 Y9.999
G01 Y10.599
G01 Y11.199
G01 Y11.799
G01 Y12.399
G01 Y12.999
G01 Y13.599
G01 Y14.199
G01 Y14.799
G01 Y15.399
G01 Y15.999
G01 Y16.599
G01 Y17.199
G01 X-15.6
G01 Y16.599
G01 Y15.999
G01 Y15.399
G01 Y14.799
G01 Y14.199
G01 Y13.599
G01 Y12.999
G01 Y12.399
G01 Y11.799
G01 Y11.199
G01 Y10.599
G01 Y9.999
G01 Y9.399
G01 Y8.799
G01 Y8.199
G01 Y7.599
G01 Y5.999
G01 Y4.399
G01 Y1.399
G01 Y-0.2
G01 Y-3.2
G01 Y-3.8
G01 Y-4.6
G01 Y-6.2
G01 Y-7.8
G01 Y-8.4
G01 Y-9
G01 Y-9.6
G01 Y-10.2
G01 Y-10.8
G01 Y-11.4
G01 Y-12
G01 Y-12.6
G01 Y-13.2
G01 Y-13.8
G01 Y-14.4
G01 Y-15
G01 Y-15.6
G01 Y-16.2
G01 Y-16.8
G01 Y-17.2
G01 X-15.45
G01 Y-16.6
G01 Y-16
G01 Y-15.4
G01 Y-14.8
G01 Y-14.2
G01 Y-13.6
G01 Y-13
G01 Y-12.4
G01 Y-11.8
G01 Y-11.2
G01 Y-10.6
G01 Y-10
G01 Y-9.4
G01 Y-8.8
G01 Y-8.2
G01 Y-6.4
G01 Y-4.8
G01 Y-4
G01 Y-3.4
G01 Y-2.8
G01 Y-2.2
G01 Y-0.6
G01 Y0.999
G01 Y2.399
G01 Y2.999
G01 Y3.599
G01 Y4.399
G01 Y5.999
G01 Y7.599
G01 Y8.199
G01 Y8.799
G01 Y9.399
G01 Y9.999
G01 Y10.599
G01 Y11.199
G01 Y11.799
G01 Y12.399
G01 Y12.999
G01 Y13.599
G01 Y14.199
G01 Y14.799
G01 Y15.399
G01 Y15.999
G01 Y16.599
G01 Y17.199
G01 X-15.3
G01 Y16.599
G01 Y15.999
G01 Y15.399
G01 Y14.799
G01 Y14.199
G01 Y13.599
G01 Y12.999
G01 Y12.399
G01 Y11.799
G01 Y11.199
G01 Y10.599
G01 Y9.999
G01 Y9.399
G01 Y8.799
G01 Y8.199
G01 Y7.599
G01 Y5.999
G01 Y4.399
G01 Y1.399
G01 Y-0.2
G01 Y-3.2
G01 Y-3.8
G01 Y-4.6
G01 Y-6.2
G01 Y-7.8
G01 Y-8.4
G01 Y-9
G01 Y-9.6
G01 Y-10.2
G01 Y-10.8
G01 Y-11.4
G01 Y-12
G01 Y-12.6
G01 Y-13.2
G01 Y-13.8
G01 Y-14.4
G01 Y-15
G01 Y-15.6
G01 Y-16.2
G01 Y-16.8
G01 Y-17.2
G01 X-15.15
G01 Y-16.6
G01 Y-16
G01 Y-15.4
G01 Y-14.8
G01 Y-14.2
G01 Y-13.6
G01 Y-13
G01 Y-12.4
G01 Y-11.8
G01 Y-11.2
G01 Y-10.6
G01 Y-10
G01 Y-9.4
G01 Y-8.8
G01 Y-8.2
G01 Y-6.4
G01 Y-4.8
G01 Y-4
G01 Y-3.4
G01 Y-2.8
G01 Y-2.2
G01 Y-0.6
G01 Y0.999
G01 Y2.399
G01 Y2.999
G01 Y3.599
G01 Y4.399
G01 Y5.999
G01 Y7.599
G01 Y8.199
G01 Y8.799
G01 Y9.399
G01 Y9.999
G01 Y10.599
G01 Y11.199
G01 Y11.799
G01 Y12.399
G01 Y12.999
G01 Y13.599
G01 Y14.199
G01 Y14.799
G01 Y15.399
G01 Y15.999
G01 Y16.599
G01 Y17.199
G01 X-15
G01 Y16.599
G01 Y15.999
G01 Y15.399
G01 Y15.199
G01 Y14.999 Z-0.587
G01 Y14.399
G01 Y13.799
G01 Y13.199
G01 Y12.599
G01 Y11.999
G01 Y11.399
G01 Y10.799
G01 Y10.199
G01 Y9.599
G01 Y8.999
G01 Y8.399
G01 Y7.799
G01 Y6.199
G01 Y4.599
G01 Y3.799
G01 Y3.199
G01 Y2.599
G01 Y1.999
G01 Y-1.4
G01 Y-2.6
G01 Y-3.2
G01 Y-3.8
G01 Y-4.6
G01 Y-6.2
G01 Y-7.8
G01 Y-8.4
G01 Y-9
G01 Y-9.6
G01 Y-10.2
G01 Y-10.8
G01 Y-11.4
G01 Y-12
G01 Y-12.6
G01 Y-13.2
G01 Y-13.8
G01 Y-14.4
G01 Y-15
G01 Y-15.2 Z-0.587
G01 Y-15.8
G01 Y-16.4
G01 Y-17
G01 Y-17.2
G01 X-14.85
G01 Y-16.6
G01 Y-16
G01 Y-15.4
G01 Y-15.2
G01 Y-15 Z-0.587
G01 Y-14.4
G01 Y-13.8
G01 Y-13.2
G01 Y-12.6
G01 Y-12
G01 Y-11.4
G01 Y-10.8
G01 Y-10.2
G01 Y-9.6
G01 Y-9
G01 Y-8.4
G01 Y-7.8
G01 Y-6.2
G01 Y-4.6
G01 Y-1.6
G01 Y1.799
G01 Y2.399
G01 Y2.999
G01 Y3.599
G01 Y4.399
G01 Y5.999
G01 Y7.599
G01 Y8.199
G01 Y8.799
G01 Y9.399
G01 Y9.999
G01 Y10.599
G01 Y11.199
G01 Y11.399 Z-0.587
G01 Y11.599 Z-0.587
G01 Y12.199
G01 Y12.799
G01 Y13.399
G01 Y13.999
G01 Y14.599
G01 Y14.999
G01 Y15.199 Z-0.587
G01 Y15.799
G01 Y16.399
G01 Y16.999
G01 Y17.199
G01 X-14.7
G01 Y16.599
G01 Y15.999
G01 Y15.399
G01 Y15.199
G01 Y14.999 Z-0.587
G01 Y14.399
G01 Y13.799
G01 Y13.199
G01 Y12.599
G01 Y11.999
G01 Y11.399
G01 Y10.799
G01 Y10.199
G01 Y9.599
G01 Y8.999
G01 Y8.399
G01 Y7.799
G01 Y6.199
G01 Y4.599
G01 Y3.799
G01 Y3.199
G01 Y2.599
G01 Y1.999
G01 Y-1.4
G01 Y-2.6
G01 Y-3.2
G01 Y-3.8
G01 Y-4.6
G01 Y-6.2
G01 Y-7.8
G01 Y-8.4
G01 Y-9
G01 Y-9.6
G01 Y-10.2
G01 Y-10.8
G01 Y-11.4
G01 Y-12
G01 Y-12.6
G01 Y-13.2
G01 Y-13.8
G01 Y-14.4
G01 Y-15
G01 Y-15.2 Z-0.587
G01 Y-15.8
G01 Y-16.4
G01 Y-17
G01 Y-17.2
G01 X-14.55
G01 Y-16.6
G01 Y-16
G01 Y-15.4
G01 Y-15.2
G01 Y-15 Z-0.587
G01 Y-14.4
G01 Y-13.8
G01 Y-13.2
G01 Y-12.6
G01 Y-12
G01 Y-11.4
G01 Y-10.8
G01 Y-10.2
G01 Y-9.6
G01 Y-9
G01 Y-8.4
G01 Y-7.8
G01 Y-6.2
G01 Y-4.6
G01 Y-1.6
G01 Y1.799
G01 Y2.399
G01 Y2.999
G01 Y3.599
G01 Y4.399
G01 Y5.999
G01 Y7.599
G01 Y8.199
G01 Y8.799
G01 Y9.399
G01 Y9.999
G01 Y10.599
G01 Y11.199
G01 Y11.799
G01 Y12.399
G01 Y12.999
G01 Y13.599
G01 Y14.199
G01 Y14.799
G01 Y14.999
G01 Y15.199 Z-0.587
G01 Y15.799
G01 Y16.399
G01 Y16.999
G01 Y17.199
G01 X-14.4
G01 Y16.599
G01 Y15.999
G01 Y15.399
G01 Y15.199
G01 Y14.999 Z-0.587
G01 Y14.399
G01 Y13.799
G01 Y13.199
G01 Y12.599
G01 Y11.999
G01 Y11.399
G01 Y10.799
G01 Y10.199
G01 Y9.599
G01 Y8.999
G01 Y8.399
G01 Y7.799
G01 Y6.199
G01 Y4.599
G01 Y3.799
G01 Y3.199
G01 Y2.599
G01 Y1.999
G01 Y-1.4
G01 Y-2.6
G01 Y-3.2
G01 Y-3.8
G01 Y-4.6
G01 Y-6.2
G01 Y-7.8
G01 Y-8.4
G01 Y-9
G01 Y-9.6
G01 Y-10.2
G01 Y-10.8
G01 Y-11.4
G01 Y-12
G01 Y-12.6
G01 Y-13.2
G01 Y-13.8
G01 Y-14.4
G01 Y-15
G01 Y-15.2 Z-0.587
G01 Y-15.8
G01 Y-16.4
G01 Y-17
G01 Y-17.2
G01 X-14.25
G01 Y-16.6
G01 Y-16
G01 Y-15.4
G01 Y-15.2
G01 Y-15 Z-0.587
G01 Y-14.4
G01 Y-13.8
G01 Y-13.2
G01 Y-12.6
G01 Y-12
G01 Y-11.4
G01 Y-10.8
G01 Y-10.2
G01 Y-9.6
G01 Y-9
G01 Y-8.4
G01 Y-7.8
G01 Y-6.2
G01 Y-4.6
G01 Y-1.6
G01 Y1.799
G01 Y2.399
G01 Y2.999
G01 Y3.599
G01 Y4.399
G01 Y5.999
G01 Y7.599
G01 Y8.199
G01 Y8.799
G01 Y9.399
G01 Y9.999
G01 Y10.599
G01 Y11.199
G01 Y11.799
G01 Y12.399
G01 Y12.999
G01 Y13.599
G01 Y13.799 Z-0.587
G01 Y13.999 Z-0.587
G01 Y14.599
G01 Y14.999
G01 Y15.199 Z-0.587
G01 Y15.799
G01 Y16.399
G01 Y16.999
G01 Y17.199
G01 X-14.1
G01 Y16.599
G01 Y15.999
G01 Y15.399
G01 Y15.199
G01 Y14.999 Z-0.587
G01 Y14.399
G01 Y13.799
G01 Y13.199
G01 Y12.599
G01 Y11.999
G01 Y11.399
G01 Y10.799
G01 Y10.199
G01 Y9.599
G01 Y8.999
G01 Y8.399
G01 Y7.799
G01 Y6.199
G01 Y4.599
G01 Y3.799
G01 Y3.199
G01 Y2.599
G01 Y1.999
G01 Y-1.4
G01 Y-2.6
G01 Y-3.2
G01 Y-3.8
G01 Y-4.6
G01 Y-6.2
G01 Y-7.8
G01 Y-8.4
G01 Y-9
G01 Y-9.6
G01 Y-10.2
G01 Y-10.8
G01 Y-11.4
G01 Y-12
G01 Y-12.6
G01 Y-13.2
G01 Y-13.8
G01 Y-14.4
G01 Y-15
G01 Y-15.2 Z-0.587
G01 Y-15.8
G01 Y-16.4
G01 Y-17
G01 Y-17.2
G01 X-13.95
G01 Y-16.6
G01 Y-16
G01 Y-15.4
G01 Y-15.2
G01 Y-15 Z-0.587
G01 Y-14.4
G01 Y-13.8
G01 Y-13.2
G01 Y-12.6
G01 Y-12
G01 Y-11.4
G01 Y-10.8
G01 Y-10.2
G01 Y-9.6
G01 Y-9
G01 Y-8.4
G01 Y-7.8
G01 Y-6.2
G01 Y-4.6
G01 Y-1.6
G01 Y1.799
G01 Y2.399
G01 Y2.999
G01 Y3.599
G01 Y4.399
G01 Y5.999
G01 Y7.599
G01 Y8.199
G01 Y8.799
G01 Y9.399
G01 Y9.999
G01 Y10.599
G01 Y11.199
G01 Y11.799
G01 Y12.399
G01 Y12.999
G01 Y13.599
G01 Y14.199
G01 Y14.799
G01 Y14.999
G01 Y15.199 Z-0.587
G01 Y15.799
G01 Y16.399
G01 Y16.999
G01 Y17.199
G01 X-13.8
G01 Y16.599
G01 Y15.999
G01 Y15.399
G01 Y15.199
G01 Y14.999 Z-0.587
G01 Y14.399
G01 Y13.799
G01 Y13.199
G01 Y12.599
G01 Y11.999
G01 Y11.399
G01 Y10.799
G01 Y10.199
G01 Y9.599
G01 Y8.999
G01 Y8.399
G01 Y7.799
G01 Y6.199
G01 Y4.599
G01 Y3.799
G01 Y3.199
G01 Y2.599
G01 Y1.999
G01 Y-1.4
G01 Y-2.6
G01 Y-3.2
G01 Y-3.8
G01 Y-4.6
G01 Y-6.2
G01 Y-7.8
G01 Y-8.4
G01 Y-9
G01 Y-9.6
G01 Y-10.2
G01 Y-10.8
G01 Y-11.4
G01 Y-12
G01 Y-12.6
G01 Y-13.2
G01 Y-13.8
G01 Y-14.4
G01 Y-15
G01 Y-15.2 Z-0.587
G01 Y-15.8
G01 Y-16.4
G01 Y-17
G01 Y-17.2
G01 X-13.65
G01 Y-16.6
G01 Y-16
G01 Y-15.4
G01 Y-15.2
G01 Y-15 Z-0.587
G01 Y-14.4
G01 Y-13.8
G01 Y-13.2
G01 Y-12.6
G01 Y-12
G01 Y-11.4
G01 Y-10.8
G01 Y-10.2
G01 Y-9.6
G01 Y-9.2
G01 Y-9 Z-0.587
G01 Y-8.8 Z-0.587
G01 Y-8.2
G01 Y-6.4
G01 Y-4.8
G01 Y-4
G01 Y-3.4
G01 Y-2.8
G01 Y-2.2
G01 Y-0.6
G01 Y0.999
G01 Y2.399
G01 Y2.999
G01 Y3.599
G01 Y4.399
G01 Y5.999
G01 Y7.599
G01 Y8.199
G01 Y8.799
G01 Y9.399
G01 Y9.999
G01 Y10.599
G01 Y11.199
G01 Y11.799
G01 Y12.399
G01 Y12.999
G01 Y13.599
G01 Y14.199
G01 Y14.799
G01 Y14.999
G01 Y15.199 Z-0.587
G01 Y15.799
G01 Y16.399
G01 Y16.999
G01 Y17.199
G01 X-13.5
G01 Y16.599
G01 Y15.999
G01 Y15.399
G01 Y15.199
G01 Y14.999 Z-0.587
G01 Y14.399
G01 Y13.799
G01 Y13.199
G01 Y12.599
G01 Y11.999
G01 Y11.399
G01 Y10.799
G01 Y10.199
G01 Y9.599
G01 Y8.999
G01 Y8.399
G01 Y7.799
G01 Y6.199
G01 Y4.599
G01 Y3.799
G01 Y3.199
G01 Y2.599
G01 Y1.999
G01 Y-1.4
G01 Y-2.6
G01 Y-3.2
G01 Y-3.8
G01 Y-4.6
G01 Y-6.2
G01 Y-7.8
G01 Y-8.4
G01 Y-9
G01 Y-9.6
G01 Y-10.2
G01 Y-10.8
G01 Y-11.4
G01 Y-12
G01 Y-12.6
G01 Y-13.2
G01 Y-13.8
G01 Y-14.4
G01 Y-15
G01 Y-15.2 Z-0.587
G01 Y-15.8
G01 Y-16.4
G01 Y-17
G01 Y-17.2
G01 X-13.35
G01 Y-16.6
G01 Y-16
G01 Y-15.4
G01 Y-15.2
G01 Y-15 Z-0.587
G01 Y-14.4
G01 Y-13.8
G01 Y-13.2
G01 Y-12.6
G01 Y-12
G01 Y-11.4
G01 Y-10.8
G01 Y-10.2
G01 Y-9.6
G01 Y-9
G01 Y-8.4
G01 Y-7.8
G01 Y-6.2
G01 Y-4.6
G01 Y-1.6
G01 Y1.799
G01 Y2.399
G01 Y2.999
G01 Y3.599
G01 Y4.399
G01 Y5.999
G01 Y7.599
G01 Y8.199
G01 Y8.799
G01 Y9.399
G01 Y9.999
G01 Y10.599
G01 Y11.199
G01 Y11.799
G01 Y12.399
G01 Y12.999
G01 Y13.599
G01 Y14.199
G01 Y14.799
G01 Y14.999
G01 Y15.199 Z-0.587
G01 Y15.799
G01 Y16.399
G01 Y16.999
G01 Y17.199
G01 X-13.2
G01 Y16.599
G01 Y15.999
G01 Y15.399
G01 Y15.199
G01 Y14.999 Z-0.587
G01 Y14.399
G01 Y13.799
G01 Y13.199
G01 Y12.599
G01 Y11.999
G01 Y11.399
G01 Y10.799
G01 Y10.199
G01 Y9.599
G01 Y8.999
G01 Y8.399
G01 Y7.799
G01 Y6.199
G01 Y4.599
G01 Y3.799
G01 Y3.199
G01 Y2.599
G01 Y1.999
G01 Y-1.4
G01 Y-2.6
G01 Y-3.2
G01 Y-3.8
G01 Y-4.6
G01 Y-6.2
G01 Y-7.8
G01 Y-8.4
G01 Y-9
G01 Y-9.6
G01 Y-10.2
G01 Y-10.8
G01 Y-11 Z-0.587
G01 Y-11.2 Z-0.587
G01 Y-11.4 Z-0.587
G01 Y-11.6 Z-0.587
G01 Y-12.2
G01 Y-12.8
G01 Y-13.4
G01 Y-14
G01 Y-14.6
G01 Y-15
G01 Y-15.2 Z-0.587
G01 Y-15.8
G01 Y-16.4
G01 Y-17
G01 Y-17.2
G01 X-13.05
G01 Y-16.6
G01 Y-16
G01 Y-15.4
G01 Y-15.2
G01 Y-15 Z-0.587
G01 Y-14.4
G01 Y-14.2
G01 Y-14 Z-0.587
G01 Y-13.8 Z-0.587
G01 Y-13.2
G01 Y-12.6
G01 Y-12
G01 Y-11.4
G01 Y-10.8
G01 Y-10.2
G01 Y-9.6
G01 Y-9
G01 Y-8.4
G01 Y-7.8
G01 Y-6.2
G01 Y-4.6
G01 Y-1.6
G01 Y1.799
G01 Y2.399
G01 Y2.999
G01 Y3.599
G01 Y4.399
G01 Y5.999
G01 Y7.599
G01 Y8.199
G01 Y8.799
G01 Y9.399
G01 Y9.999
G01 Y10.599
G01 Y11.199
G01 Y11.799
G01 Y12.399
G01 Y12.999
G01 Y13.599
G01 Y14.199
G01 Y14.799
G01 Y14.999
G01 Y15.199 Z-0.587
G01 Y15.799
G01 Y16.399
G01 Y16.999
G01 Y17.199
G01 X-12.9
G01 Y16.599
G01 Y15.999
G01 Y15.399
G01 Y15.199
G01 Y14.999 Z-0.587
G01 Y14.399
G01 Y13.799
G01 Y13.199
G01 Y12.599
G01 Y11.999
G01 Y11.399
G01 Y10.799
G01 Y10.199
G01 Y9.599
G01 Y8.999
G01 Y8.399
G01 Y7.799
G01 Y6.199
G01 Y4.599
G01 Y3.799
G01 Y3.199
G01 Y2.599
G01 Y1.999
G01 Y-1.4
G01 Y-2.6
G01 Y-3.2
G01 Y-3.8
G01 Y-4.6
G01 Y-6.2
G01 Y-7.8
G01 Y-8.4
G01 Y-9
G01 Y-9.6
G01 Y-10.2
G01 Y-10.8
G01 Y-11.4
G01 Y-12
G01 Y-12.6
G01 Y-13.2
G01 Y-13.8
G01 Y-14.4
G01 Y-15
G01 Y-15.2 Z-0.587
G01 Y-15.8
G01 Y-16.4
G01 Y-17
G01 Y-17.2
G01 X-12.75
G01 Y-16.6
G01 Y-16
G01 Y-15.4
G01 Y-15.2
G01 Y-15 Z-0.587
G01 Y-14.4
G01 Y-13.8
G01 Y-13.2
G01 Y-12.6
G01 Y-12
G01 Y-11.4
G01 Y-10.8
G01 Y-10.2
G01 Y-9.6
G01 Y-9
G01 Y-8.4
G01 Y-7.8
G01 Y-6.2
G01 Y-4.6
G01 Y-1.6
G01 Y1.799
G01 Y2.399
G01 Y2.999
G01 Y3.599
G01 Y4.399
G01 Y5.999
G01 Y7.599
G01 Y8.199
G01 Y8.799
G01 Y9.399
G01 Y9.999
G01 Y10.599
G01 Y11.199
G01 Y11.799
G01 Y12.399
G01 Y12.999
G01 Y13.599
G01 Y14.199
G01 Y14.799
G01 Y14.999
G01 Y15.199 Z-0.587
G01 Y15.799
G01 Y16.399
G01 Y16.999
G01 Y17.199
G01 X-12.6
G01 Y16.599
G01 Y15.999
G01 Y15.399
G01 Y15.199
G01 Y14.999 Z-0.587
G01 Y14.399
G01 Y13.799
G01 Y13.199
G01 Y12.599
G01 Y11.999
G01 Y11.399
G01 Y10.799
G01 Y10.199
G01 Y9.599
G01 Y8.999
G01 Y8.399
G01 Y7.799
G01 Y6.199
G01 Y4.599
G01 Y3.799
G01 Y3.199
G01 Y2.599
G01 Y1.999
G01 Y-1.4
G01 Y-2.6
G01 Y-3.2
G01 Y-3.8
G01 Y-4.6
G01 Y-6.2
G01 Y-7.8
G01 Y-8.4
G01 Y-9
G01 Y-9.6
G01 Y-10.2
G01 Y-10.8
G01 Y-11.4
G01 Y-12
G01 Y-12.6
G01 Y-13.2
G01 Y-13.8
G01 Y-14.4
G01 Y-15
G01 Y-15.2 Z-0.587
G01 Y-15.8
G01 Y-16.4
G01 Y-17
G01 Y-17.2
G01 X-12.45
G01 Y-16.6
G01 Y-16
G01 Y-15.4
G01 Y-15.2
G01 Y-15 Z-0.587
G01 Y-14.4
G01 Y-13.8
G01 Y-13.2
G01 Y-12.6
G01 Y-12
G01 Y-11.4
G01 Y-10.8
G01 Y-10.2
G01 Y-9.6
G01 Y-9
G01 Y-8.4
G01 Y-7.8
G01 Y-6.2
G01 Y-4.6
G01 Y-1.6
G01 Y1.799
G01 Y2.399
G01 Y2.999
G01 Y3.599
G01 Y4.399
G01 Y5.999
G01 Y7.599
G01 Y8.199
G01 Y8.799
G01 Y9.399
G01 Y9.999
G01 Y10.599
G01 Y11.199
G01 Y11.799
G01 Y12.399
G01 Y12.999
G01 Y13.599
G01 Y14.199
G01 Y14.799
G01 Y14.999
G01 Y15.199 Z-0.587
G01 Y15.799
G01 Y16.399
G01 Y16.999
G01 Y17.199
G01 X-12.3
G01 Y16.599
G01 Y15.999
G01 Y15.399
G01 Y15.199
G01 Y14.999 Z-0.587
G01 Y14.399
G01 Y13.799
G01 Y13.199
G01 Y12.599
G01 Y11.999
G01 Y11.399
G01 Y10.799
G01 Y10.199
G01 Y9.599
G01 Y8.999
G01 Y8.399
G01 Y7.799
G01 Y6.199
G01 Y4.599
G01 Y3.799
G01 Y3.199
G01 Y2.599
G01 Y1.999
G01 Y-1.4
G01 Y-2.6
G01 Y-3.2
G01 Y-3.8
G01 Y-4.6
G01 Y-6.2
G01 Y-7.8
G01 Y-8.4
G01 Y-9
G01 Y-9.4
G01 Y-9.6 Z-0.587
G01 Y-9.8 Z-0.587
G01 Y-10.4
G01 Y-11
G01 Y-11.6
G01 Y-12.2
G01 Y-12.8
G01 Y-13.4
G01 Y-14
G01 Y-14.6
G01 Y-15
G01 Y-15.2 Z-0.587
G01 Y-15.8
G01 Y-16.4
G01 Y-17
G01 Y-17.2
G01 X-12.15
G01 Y-16.6
G01 Y-16
G01 Y-15.4
G01 Y-15.2
G01 Y-15 Z-0.587
G01 Y-14.4
G01 Y-14.2
G01 Y-14 Z-0.587
G01 Y-13.8 Z-0.587
G01 Y-13.2
G01 Y-12.6
G01 Y-12
G01 Y-11.4
G01 Y-10.8
G01 Y-10.2
G01 Y-9.6
G01 Y-9
G01 Y-8.6
G01 Y-8.4 Z-0.587
G01 Y-8.2 Z-0.587
G01 Y-6.4
G01 Y-4.8
G01 Y-4
G01 Y-3.4
G01 Y-2.8
G01 Y-2.2
G01 Y-0.6
G01 Y0.999
G01 Y2.399
G01 Y2.999
G01 Y3.599
G01 Y4.399
G01 Y5.999
G01 Y7.599
G01 Y8.199
G01 Y8.799
G01 Y9.399
G01 Y9.999
G01 Y10.599
G01 Y11.199
G01 Y11.799
G01 Y12.399
G01 Y12.999
G01 Y13.599
G01 Y14.199
G01 Y14.799
G01 Y14.999
G01 Y15.199 Z-0.587
G01 Y15.799
G01 Y16.399
G01 Y16.999
G01 Y17.199
G01 X-12
G01 Y16.599
G01 Y15.999
G01 Y15.399
G01 Y15.199
G01 Y14.999 Z-0.587
G01 Y14.399
G01 Y13.799
G01 Y13.199
G01 Y12.599
G01 Y11.999
G01 Y11.399
G01 Y10.799
G01 Y10.199
G01 Y9.599
G01 Y8.999
G01 Y8.399
G01 Y7.799
G01 Y6.199
G01 Y4.599
G01 Y3.799
G01 Y3.199
G01 Y2.599
G01 Y1.999
G01 Y-1.4
G01 Y-2.6
G01 Y-3.2
G01 Y-3.8
G01 Y-4.6
G01 Y-6.2
G01 Y-7.8
G01 Y-8.4
G01 Y-9
G01 Y-9.6
G01 Y-10.2
G01 Y-10.8
G01 Y-11.4
G01 Y-12
G01 Y-12.6
G01 Y-13.2
G01 Y-13.8
G01 Y-14.4
G01 Y-15
G01 Y-15.2 Z-0.587
G01 Y-15.8
G01 Y-16.4
G01 Y-17
G01 Y-17.2
G01 X-11.85
G01 Y-16.6
G01 Y-16
G01 Y-15.4
G01 Y-15.2
G01 Y-15 Z-0.587
G01 Y-14.4
G01 Y-13.8
G01 Y-13.2
G01 Y-12.6
G01 Y-12
G01 Y-11.4
G01 Y-10.8
G01 Y-10.2
G01 Y-9.6
G01 Y-9
G01 Y-8.4
G01 Y-7.8
G01 Y-6.2
G01 Y-4.6
G01 Y-1.6
G01 Y1.799
G01 Y2.399
G01 Y2.999
G01 Y3.599
G01 Y4.399
G01 Y5.999
G01 Y7.599
G01 Y8.199
G01 Y8.799
G01 Y9.399
G01 Y9.999
G01 Y10.599
G01 Y11.199
G01 Y11.799
G01 Y12.399
G01 Y12.999
G01 Y13.599
G01 Y14.199
G01 Y14.799
G01 Y14.999
G01 Y15.199 Z-0.587
G01 Y15.799
G01 Y16.399
G01 Y16.999
G01 Y17.199
G01 X-11.7
G01 Y16.599
G01 Y15.999
G01 Y15.399
G01 Y15.199
G01 Y14.999 Z-0.587
G01 Y14.399
G01 Y13.799
G01 Y13.199
G01 Y12.599
G01 Y11.999
G01 Y11.399
G01 Y10.799
G01 Y10.199
G01 Y9.599
G01 Y8.999
G01 Y8.399
G01 Y7.799
G01 Y6.199
G01 Y4.599
G01 Y3.799
G01 Y3.199
G01 Y2.599
G01 Y1.999
G01 Y-1.4
G01 Y-2.6
G01 Y-3.2
G01 Y-3.8
G01 Y-4.6
G01 Y-6.2
G01 Y-7.8
G01 Y-8.4
G01 Y-9
G01 Y-9.6
G01 Y-10.2
G01 Y-10.8
G01 Y-11.4
G01 Y-12
G01 Y-12.6
G01 Y-13.2
G01 Y-13.8
G01 Y-14.4
G01 Y-15
G01 Y-15.2 Z-0.587
G01 Y-15.8
G01 Y-16.4
G01 Y-17
G01 Y-17.2
G01 X-11.55
G01 Y-16.6
G01 Y-16
G01 Y-15.4
G01 Y-15.2
G01 Y-15 Z-0.587
G01 Y-14.4
G01 Y-13.8
G01 Y-13.2
G01 Y-12.6
G01 Y-12
G01 Y-11.4
G01 Y-10.8
G01 Y-10.2
G01 Y-9.6
G01 Y-9
G01 Y-8.4
G01 Y-7.8
G01 Y-6.2
G01 Y-4.6
G01 Y-1.6
G01 Y1.799
G01 Y2.399
G01 Y2.999
G01 Y3.599
G01 Y4.399
G01 Y5.999
G01 Y7.599
G01 Y8.199
G01 Y8.799
G01 Y9.399
G01 Y9.999
G01 Y10.599
G01 Y11.199
G01 Y11.799
G01 Y12.399
G01 Y12.999
G01 Y13.599
G01 Y14.199
G01 Y14.799
G01 Y14.999
G01 Y15.199 Z-0.587
G01 Y15.799
G01 Y16.399
G01 Y16.999
G01 Y17.199
G01 X-11.4
G01 Y16.599
G01 Y15.999
G01 Y15.399
G01 Y15.199
G01 Y14.999 Z-0.587
G01 Y14.399
G01 Y13.799
G01 Y13.199
G01 Y12.599
G01 Y11.999
G01 Y11.399
G01 Y10.799
G01 Y10.199
G01 Y9.599
G01 Y8.999
G01 Y8.399
G01 Y7.799
G01 Y6.199
G01 Y4.599
G01 Y3.799
G01 Y3.199
G01 Y2.599
G01 Y1.999
G01 Y-1.4
G01 Y-2.6
G01 Y-3.2
G01 Y-3.8
G01 Y-4.6
G01 Y-6.2
G01 Y-7.8
G01 Y-8.4
G01 Y-9
G01 Y-9.6
G01 Y-10.2
G01 Y-10.8
G01 Y-11.4
G01 Y-12
G01 Y-12.2
G01 Y-12.4 Z-0.587
G01 Y-12.6 Z-0.587
G01 Y-13.2
G01 Y-13.8
G01 Y-14 Z-0.587
G01 Y-14.2 Z-0.587
G01 Y-14.8
G01 Y-15
G01 Y-15.2 Z-0.587
G01 Y-15.8
G01 Y-16.4
G01 Y-17
G01 Y-17.2
G01 X-11.25
G01 Y-16.6
G01 Y-16
G01 Y-15.4
G01 Y-15.2
G01 Y-15 Z-0.587
G01 Y-14.4
G01 Y-14.2
G01 Y-14 Z-0.587
G01 Y-13.8 Z-0.587
G01 Y-13.2
G01 Y-12.6
G01 Y-12
G01 Y-11.4
G01 Y-10.8
G01 Y-10.2
G01 Y-9.6
G01 Y-9
G01 Y-8.4
G01 Y-7.8
G01 Y-6.2
G01 Y-4.6
G01 Y-1.6
G01 Y1.799
G01 Y2.399
G01 Y2.999
G01 Y3.599
G01 Y4.399
G01 Y5.999
G01 Y7.599
G01 Y8.199
G01 Y8.799
G01 Y9.399
G01 Y9.999
G01 Y10.599
G01 Y11.199
G01 Y11.799
G01 Y12.399
G01 Y12.999
G01 Y13.599
G01 Y14.199
G01 Y14.799
G01 Y14.999
G01 Y15.199 Z-0.587
G01 Y15.799
G01 Y16.399
G01 Y16.999
G01 Y17.199
G01 X-11.1
G01 Y16.599
G01 Y15.999
G01 Y15.399
G01 Y15.199
G01 Y14.999 Z-0.587
G01 Y14.399
G01 Y13.799
G01 Y13.199
G01 Y12.599
G01 Y11.999
G01 Y11.399
G01 Y10.799
G01 Y10.199
G01 Y9.599
G01 Y8.999
G01 Y8.399
G01 Y7.799
G01 Y6.199
G01 Y4.599
G01 Y3.799
G01 Y3.199
G01 Y2.599
G01 Y1.999
G01 Y-1.4
G01 Y-2.6
G01 Y-3.2
G01 Y-3.8
G01 Y-4.6
G01 Y-6.2
G01 Y-7.8
G01 Y-8.4
G01 Y-9
G01 Y-9.6
G01 Y-10.2
G01 Y-10.4 Z-0.587
G01 Y-10.6 Z-0.587
G01 Y-11.2
G01 Y-11.8
G01 Y-12.4
G01 Y-13
G01 Y-13.6
G01 Y-14.2
G01 Y-14.8
G01 Y-15
G01 Y-15.2 Z-0.587
G01 Y-15.8
G01 Y-16.4
G01 Y-17
G01 Y-17.2
G01 X-10.95
G01 Y-16.6
G01 Y-16
G01 Y-15.4
G01 Y-15.2
G01 Y-15 Z-0.587
G01 Y-14.4
G01 Y-13.8
G01 Y-13.2
G01 Y-12.6
G01 Y-12
G01 Y-11.4
G01 Y-10.8
G01 Y-10.2
G01 Y-9.6
G01 Y-9
G01 Y-8.4
G01 Y-7.8
G01 Y-6.2
G01 Y-4.6
G01 Y-1.6
G01 Y1.799
G01 Y2.399
G01 Y2.999
G01 Y3.599
G01 Y4.399
G01 Y5.999
G01 Y7.599
G01 Y8.199
G01 Y8.799
G01 Y9.399
G01 Y9.999
G01 Y10.599
G01 Y11.199
G01 Y11.799
G01 Y12.399
G01 Y12.999
G01 Y13.599
G01 Y14.199
G01 Y14.799
G01 Y14.999
G01 Y15.199 Z-0.587
G01 Y15.799
G01 Y16.399
G01 Y16.999
G01 Y17.199
G01 X-10.8
G01 Y16.599
G01 Y15.999
G01 Y15.399
G01 Y15.199
G01 Y14.999 Z-0.587
G01 Y14.399
G01 Y13.799
G01 Y13.199
G01 Y12.599
G01 Y11.999
G01 Y11.399
G01 Y10.799
G01 Y10.199
G01 Y9.599
G01 Y8.999
G01 Y8.399
G01 Y7.799
G01 Y6.199
G01 Y4.599
G01 Y3.799
G01 Y3.199
G01 Y2.599
G01 Y1.999
G01 Y-1.4
G01 Y-2.6
G01 Y-3.2
G01 Y-3.8
G01 Y-4.6
G01 Y-6.2
G01 Y-7.8
G01 Y-8.4
G01 Y-9
G01 Y-9.6
G01 Y-10.2
G01 Y-10.8
G01 Y-11.4
G01 Y-12
G01 Y-12.6
G01 Y-13.2
G01 Y-13.8
G01 Y-14.4
G01 Y-15
G01 Y-15.2 Z-0.587
G01 Y-15.8
G01 Y-16.4
G01 Y-17
G01 Y-17.2
G01 X-10.65
G01 Y-16.6
G01 Y-16
G01 Y-15.4
G01 Y-15.2
G01 Y-15 Z-0.587
G01 Y-14.4
G01 Y-13.8
G01 Y-13.2
G01 Y-12.6
G01 Y-12
G01 Y-11.4
G01 Y-10.8
G01 Y-10.2
G01 Y-9.8
G01 Y-9.6 Z-0.587
G01 Y-9.4 Z-0.587
G01 Y-8.8
G01 Y-8.2
G01 Y-6.4
G01 Y-4.8
G01 Y-4
G01 Y-3.4
G01 Y-2.8
G01 Y-2.2
G01 Y-0.6
G01 Y0.999
G01 Y2.399
G01 Y2.999
G01 Y3.599
G01 Y4.399
G01 Y5.999
G01 Y7.599
G01 Y8.199
G01 Y8.799
G01 Y9.399
G01 Y9.999
G01 Y10.599
G01 Y11.199
G01 Y11.799
G01 Y12.399
G01 Y12.999
G01 Y13.599
G01 Y14.199
G01 Y14.799
G01 Y14.999
G01 Y15.199 Z-0.587
G01 Y15.799
G01 Y16.399
G01 Y16.999
G01 Y17.199
G01 X-10.5
G01 Y16.599
G01 Y15.999
G01 Y15.399
G01 Y15.199
G01 Y14.999 Z-0.587
G01 Y14.399
G01 Y13.799
G01 Y13.199
G01 Y12.599
G01 Y11.999
G01 Y11.399
G01 Y10.799
G01 Y10.199
G01 Y9.599
G01 Y8.999
G01 Y8.399
G01 Y7.799
G01 Y6.199
G01 Y4.599
G01 Y3.799
G01 Y3.199
G01 Y2.599
G01 Y1.999
G01 Y-1.4
G01 Y-2.6
G01 Y-3.2
G01 Y-3.8
G01 Y-4.6
G01 Y-6.2
G01 Y-7.8
G01 Y-8.4
G01 Y-9
G01 Y-9.4
G01 Y-9.6 Z-0.587
G01 Y-9.8 Z-0.587
G01 Y-10.4
G01 Y-11
G01 Y-11.6
G01 Y-12.2
G01 Y-12.8
G01 Y-13.4
G01 Y-14
G01 Y-14.6
G01 Y-15
G01 Y-15.2 Z-0.587
G01 Y-15.8
G01 Y-16.4
G01 Y-17
G01 Y-17.2
G01 X-10.35
G01 Y-16.6
G01 Y-16
G01 Y-15.4
G01 Y-15.2
G01 Y-15 Z-0.587
G01 Y-14.4
G01 Y-13.8
G01 Y-13.2
G01 Y-12.6
G01 Y-12
G01 Y-11.4
G01 Y-10.8
G01 Y-10.2
G01 Y-9.6
G01 Y-9
G01 Y-8.4
G01 Y-7.8
G01 Y-6.2
G01 Y-4.6
G01 Y-1.6
G01 Y1.799
G01 Y2.399
G01 Y2.999
G01 Y3.599
G01 Y4.399
G01 Y5.999
G01 Y7.599
G01 Y8.199
G01 Y8.799
G01 Y9.399
G01 Y9.999
G01 Y10.599
G01 Y11.199
G01 Y11.799
G01 Y12.399
G01 Y12.999
G01 Y13.599
G01 Y14.199
G01 Y14.799
G01 Y14.999
G01 Y15.199 Z-0.587
G01 Y15.799
G01 Y16.399
G01 Y16.999
G01 Y17.199
G01 X-10.2
G01 Y16.599
G01 Y15.999
G01 Y15.399
G01 Y15.199
G01 Y14.999 Z-0.587
G01 Y14.399
G01 Y13.799
G01 Y13.199
G01 Y12.599
G01 Y11.999
G01 Y11.399
G01 Y10.799
G01 Y10.199
G01 Y9.599
G01 Y8.999
G01 Y8.399
G01 Y7.799
G01 Y6.199
G01 Y4.599
G01 Y3.799
G01 Y3.199
G01 Y2.599
G01 Y1.999
G01 Y-1.4
G01 Y-2.6
G01 Y-3.2
G01 Y-3.8
G01 Y-4.6
G01 Y-6.2
G01 Y-7.8
G01 Y-8.4
G01 Y-9
G01 Y-9.6
G01 Y-10.2
G01 Y-10.8
G01 Y-11.4
G01 Y-12
G01 Y-12.6
G01 Y-13.2
G01 Y-13.8
G01 Y-14.4
G01 Y-15
G01 Y-15.2 Z-0.587
G01 Y-15.8
G01 Y-16.4
G01 Y-17
G01 Y-17.2
G01 X-10.05
G01 Y-16.6
G01 Y-16
G01 Y-15.4
G01 Y-15.2
G01 Y-15 Z-0.587
G01 Y-14.4
G01 Y-13.8
G01 Y-13.2
G01 Y-12.6
G01 Y-12
G01 Y-11.4
G01 Y-10.8
G01 Y-10.2
G01 Y-9.6
G01 Y-9
G01 Y-8.4
G01 Y-7.8
G01 Y-6.2
G01 Y-4.6
G01 Y-1.6
G01 Y1.799
G01 Y2.399
G01 Y2.999
G01 Y3.599
G01 Y4.399
G01 Y5.999
G01 Y7.599
G01 Y8.199
G01 Y8.799
G01 Y9.399
G01 Y9.999
G01 Y10.599
G01 Y11.199
G01 Y11.799
G01 Y12.399
G01 Y12.999
G01 Y13.599
G01 Y14.199
G01 Y14.799
G01 Y14.999
G01 Y15.199 Z-0.587
G01 Y15.799
G01 Y16.399
G01 Y16.999
G01 Y17.199
G01 X-9.9
G01 Y16.599
G01 Y15.999
G01 Y15.399
G01 Y15.199
G01 Y14.999 Z-0.587
G01 Y14.399
G01 Y13.799
G01 Y13.199
G01 Y12.599
G01 Y11.999
G01 Y11.399
G01 Y10.799
G01 Y10.199
G01 Y9.599
G01 Y8.999
G01 Y8.399
G01 Y7.799
G01 Y6.199
G01 Y4.599
G01 Y3.799
G01 Y3.199
G01 Y2.599
G01 Y1.999
G01 Y-1.4
G01 Y-2.6
G01 Y-3.2
G01 Y-3.8
G01 Y-4.6
G01 Y-6.2
G01 Y-7.8
G01 Y-8.4
G01 Y-9
G01 Y-9.6
G01 Y-10.2
G01 Y-10.8
G01 Y-11.4
G01 Y-12
G01 Y-12.6
G01 Y-13.2
G01 Y-13.8
G01 Y-14.4
G01 Y-15
G01 Y-15.2 Z-0.587
G01 Y-15.8
G01 Y-16.4
G01 Y-17
G01 Y-17.2
G01 X-9.75
G01 Y-16.6
G01 Y-16
G01 Y-15.4
G01 Y-15.2
G01 Y-15 Z-0.587
G01 Y-14.4
G01 Y-13.8
G01 Y-13.2
G01 Y-12.6
G01 Y-12
G01 Y-11.4
G01 Y-10.8
G01 Y-10.2
G01 Y-9.6
G01 Y-9
G01 Y-8.4
G01 Y-7.8
G01 Y-6.2
G01 Y-4.6
G01 Y-1.6
G01 Y1.799
G01 Y2.399
G01 Y2.999
G01 Y3.599
G01 Y4.399
G01 Y5.999
G01 Y7.599
G01 Y8.199
G01 Y8.799
G01 Y9.399
G01 Y9.999
G01 Y10.599
G01 Y11.199
G01 Y11.799
G01 Y12.399
G01 Y12.999
G01 Y13.599
G01 Y14.199
G01 Y14.799
G01 Y14.999
G01 Y15.199 Z-0.587
G01 Y15.799
G01 Y16.399
G01 Y16.999
G01 Y17.199
G01 X-9.6
G01 Y16.599
G01 Y15.999
G01 Y15.399
G01 Y15.199
G01 Y14.999 Z-0.587
G01 Y14.399
G01 Y13.799
G01 Y13.199
G01 Y12.599
G01 Y11.999
G01 Y11.399
G01 Y10.799
G01 Y10.199
G01 Y9.599
G01 Y8.999
G01 Y8.399
G01 Y7.799
G01 Y6.199
G01 Y4.599
G01 Y3.799
G01 Y3.199
G01 Y2.599
G01 Y1.999
G01 Y-1.4
G01 Y-2.6
G01 Y-3.2
G01 Y-3.8
G01 Y-4.6
G01 Y-6.2
G01 Y-7.8
G01 Y-8.4
G01 Y-9
G01 Y-9.6
G01 Y-10.2
G01 Y-10.4
G01 Y-10.6 Z-0.587
G01 Y-10.8 Z-0.587
G01 Y-11
G01 Y-11.2 Z-0.587
G01 Y-11.4 Z-0.587
G01 Y-12
G01 Y-12.2
G01 Y-12.4 Z-0.587
G01 Y-12.6 Z-0.587
G01 Y-13.2
G01 Y-13.8
G01 Y-14 Z-0.587
G01 Y-14.2 Z-0.587
G01 Y-14.8
G01 Y-15
G01 Y-15.2 Z-0.587
G01 Y-15.8
G01 Y-16.4
G01 Y-17
G01 Y-17.2
G01 X-9.45
G01 Y-16.6
G01 Y-16
G01 Y-15.4
G01 Y-15.2
G01 Y-15 Z-0.587
G01 Y-14.4
G01 Y-13.8
G01 Y-13.2
G01 Y-12.6
G01 Y-12
G01 Y-11.4
G01 Y-10.8
G01 Y-10.2
G01 Y-9.6
G01 Y-9
G01 Y-8.8
G01 Y-8.6 Z-0.587
G01 Y-8.4 Z-0.587
G01 Y-7.8
G01 Y-6.2
G01 Y-4.6
G01 Y-1.6
G01 Y1.799
G01 Y2.399
G01 Y2.999
G01 Y3.599
G01 Y4.399
G01 Y5.999
G01 Y7.599
G01 Y8.199
G01 Y8.799
G01 Y9.399
G01 Y9.999
G01 Y10.599
G01 Y11.199
G01 Y11.799
G01 Y12.399
G01 Y12.999
G01 Y13.599
G01 Y14.199
G01 Y14.799
G01 Y14.999
G01 Y15.199 Z-0.587
G01 Y15.799
G01 Y16.399
G01 Y16.999
G01 Y17.199
G01 X-9.3
G01 Y16.599
G01 Y15.999
G01 Y15.399
G01 Y15.199
G01 Y14.999 Z-0.587
G01 Y14.399
G01 Y13.799
G01 Y13.199
G01 Y12.599
G01 Y11.999
G01 Y11.399
G01 Y10.799
G01 Y10.199
G01 Y9.599
G01 Y8.999
G01 Y8.399
G01 Y7.799
G01 Y6.199
G01 Y4.599
G01 Y3.799
G01 Y3.199
G01 Y2.599
G01 Y1.999
G01 Y-1.4
G01 Y-2.6
G01 Y-3.2
G01 Y-3.8
G01 Y-4.6
G01 Y-6.2
G01 Y-7.8
G01 Y-8.4
G01 Y-9
G01 Y-9.6
G01 Y-10.2
G01 Y-10.8
G01 Y-11.4
G01 Y-12
G01 Y-12.6
G01 Y-13.2
G01 Y-13.8
G01 Y-14.4
G01 Y-15
G01 Y-15.2 Z-0.587
G01 Y-15.8
G01 Y-16.4
G01 Y-17
G01 Y-17.2
G01 X-9.15
G01 Y-16.6
G01 Y-16
G01 Y-15.4
G01 Y-15.2
G01 Y-15 Z-0.587
G01 Y-14.4
G01 Y-13.8
G01 Y-13.2
G01 Y-12.6
G01 Y-12
G01 Y-11.4
G01 Y-10.8
G01 Y-10.2
G01 Y-9.6
G01 Y-9
G01 Y-8.4
G01 Y-7.8
G01 Y-6.2
G01 Y-4.6
G01 Y-1.6
G01 Y1.799
G01 Y2.399
G01 Y2.999
G01 Y3.599
G01 Y4.399
G01 Y5.999
G01 Y7.599
G01 Y8.199
G01 Y8.799
G01 Y9.399
G01 Y9.999
G01 Y10.599
G01 Y11.199
G01 Y11.799
G01 Y12.399
G01 Y12.999
G01 Y13.599
G01 Y14.199
G01 Y14.799
G01 Y14.999
G01 Y15.199 Z-0.587
G01 Y15.799
G01 Y16.399
G01 Y16.999
G01 Y17.199
G01 X-9
G01 Y16.599
G01 Y15.999
G01 Y15.399
G01 Y15.199
G01 Y14.999 Z-0.587
G01 Y14.399
G01 Y13.799
G01 Y13.199
G01 Y12.599
G01 Y11.999
G01 Y11.399
G01 Y10.799
G01 Y10.199
G01 Y9.599
G01 Y8.999
G01 Y8.399
G01 Y7.799
G01 Y6.199
G01 Y4.599
G01 Y3.799
G01 Y3.199
G01 Y2.599
G01 Y1.999
G01 Y-1.4
G01 Y-2.6
G01 Y-3.2
G01 Y-3.8
G01 Y-4.6
G01 Y-6.2
G01 Y-7.8
G01 Y-8.4
G01 Y-9
G01 Y-9.6
G01 Y-10.2
G01 Y-10.8
G01 Y-11.4
G01 Y-12
G01 Y-12.6
G01 Y-13.2
G01 Y-13.8
G01 Y-14.4
G01 Y-15
G01 Y-15.2 Z-0.587
G01 Y-15.8
G01 Y-16.4
G01 Y-17
G01 Y-17.2
G01 X-8.85
G01 Y-16.6
G01 Y-16
G01 Y-15.4
G01 Y-15.2
G01 Y-15 Z-0.587
G01 Y-14.4
G01 Y-13.8
G01 Y-13.2
G01 Y-12.6
G01 Y-12
G01 Y-11.4
G01 Y-10.8
G01 Y-10.2
G01 Y-9.6
G01 Y-9
G01 Y-8.4
G01 Y-7.8
G01 Y-6.2
G01 Y-4.6
G01 Y-1.6
G01 Y1.799
G01 Y2.399
G01 Y2.999
G01 Y3.599
G01 Y4.399
G01 Y5.999
G01 Y7.599
G01 Y8.199
G01 Y8.799
G01 Y9.399
G01 Y9.999
G01 Y10.599
G01 Y11.199
G01 Y11.799
G01 Y12.399
G01 Y12.999
G01 Y13.599
G01 Y14.199
G01 Y14.799
G01 Y14.999
G01 Y15.199 Z-0.587
G01 Y15.799
G01 Y16.399
G01 Y16.999
G01 Y17.199
G01 X-8.7
G01 Y16.599
G01 Y15.999
G01 Y15.399
G01 Y15.199
G01 Y14.999 Z-0.587
G01 Y14.399
G01 Y13.799
G01 Y13.199
G01 Y12.599
G01 Y11.999
G01 Y11.399
G01 Y10.799
G01 Y10.199
G01 Y9.599
G01 Y8.999
G01 Y8.399
G01 Y7.799
G01 Y6.199
G01 Y4.599
G01 Y3.799
G01 Y3.199
G01 Y2.599
G01 Y1.999
G01 Y-1.4
G01 Y-2.6
G01 Y-3.2
G01 Y-3.8
G01 Y-4.6
G01 Y-6.2
G01 Y-7.8
G01 Y-8.4
G01 Y-9
G01 Y-9.6
G01 Y-10.2
G01 Y-10.8
G01 Y-11.4
G01 Y-12
G01 Y-12.6
G01 Y-13.2
G01 Y-13.8
G01 Y-14.4
G01 Y-15
G01 Y-15.2 Z-0.587
G01 Y-15.8
G01 Y-16.4
G01 Y-17
G01 Y-17.2
G01 X-8.55
G01 Y-16.6
G01 Y-16
G01 Y-15.4
G01 Y-15.2
G01 Y-15 Z-0.587
G01 Y-14.4
G01 Y-13.8
G01 Y-13.2
G01 Y-12.6
G01 Y-12
G01 Y-11.6
G01 Y-11.4 Z-0.587
G01 Y-11.2 Z-0.587
G01 Y-10.6
G01 Y-10
G01 Y-9.4
G01 Y-8.8
G01 Y-8.2
G01 Y-6.4
G01 Y-4.8
G01 Y-4
G01 Y-3.4
G01 Y-2.8
G01 Y-2.2
G01 Y-0.6
G01 Y0.999
G01 Y2.399
G01 Y2.999
G01 Y3.599
G01 Y4.399
G01 Y5.999
G01 Y7.599
G01 Y8.199
G01 Y8.799
G01 Y9.399
G01 Y9.999
G01 Y10.599
G01 Y11.199
G01 Y11.799
G01 Y12.399
G01 Y12.999
G01 Y13.599
G01 Y14.199
G01 Y14.799
G01 Y14.999
G01 Y15.199 Z-0.587
G01 Y15.799
G01 Y16.399
G01 Y16.999
G01 Y17.199
G01 X-8.4
G01 Y16.599
G01 Y15.999
G01 Y15.399
G01 Y15.199
G01 Y14.999 Z-0.587
G01 Y14.399
G01 Y13.799
G01 Y13.199
G01 Y12.599
G01 Y11.999
G01 Y11.399
G01 Y10.799
G01 Y10.199
G01 Y9.599
G01 Y8.999
G01 Y8.399
G01 Y7.799
G01 Y6.199
G01 Y4.599
G01 Y3.799
G01 Y3.199
G01 Y2.599
G01 Y1.999
G01 Y-1.4
G01 Y-2.6
G01 Y-3.2
G01 Y-3.8
G01 Y-4.6
G01 Y-6.2
G01 Y-7.8
G01 Y-8.4
G01 Y-9
G01 Y-9.6
G01 Y-10
G01 Y-10.2 Z-0.587
G01 Y-10.4 Z-0.587
G01 Y-11
G01 Y-11.6
G01 Y-12.2
G01 Y-12.8
G01 Y-13.4
G01 Y-14
G01 Y-14.6
G01 Y-15
G01 Y-15.2 Z-0.587
G01 Y-15.8
G01 Y-16.4
G01 Y-17
G01 Y-17.2
G01 X-8.249
G01 Y-16.6
G01 Y-16
G01 Y-15.4
G01 Y-15.2
G01 Y-15 Z-0.587
G01 Y-14.4
G01 Y-13.8
G01 Y-13.2
G01 Y-12.6
G01 Y-12
G01 Y-11.4
G01 Y-10.8
G01 Y-10.2
G01 Y-9.6
G01 Y-9
G01 Y-8.4
G01 Y-7.8
G01 Y-6.2
G01 Y-4.6
G01 Y-1.6
G01 Y1.799
G01 Y2.399
G01 Y2.999
G01 Y3.599
G01 Y4.399
G01 Y5.999
G01 Y7.599
G01 Y8.199
G01 Y8.799
G01 Y9.399
G01 Y9.999
G01 Y10.599
G01 Y11.199
G01 Y11.799
G01 Y12.399
G01 Y12.999
G01 Y13.599
G01 Y14.199
G01 Y14.799
G01 Y14.999
G01 Y15.199 Z-0.587
G01 Y15.799
G01 Y16.399
G01 Y16.999
G01 Y17.199
G01 X-8.1
G01 Y16.599
G01 Y15.999
G01 Y15.399
G01 Y15.199
G01 Y14.999 Z-0.587
G01 Y14.399
G01 Y13.799
G01 Y13.199
G01 Y12.599
G01 Y11.999
G01 Y11.399
G01 Y10.799
G01 Y10.199
G01 Y9.599
G01 Y8.999
G01 Y8.399
G01 Y7.799
G01 Y6.199
G01 Y4.599
G01 Y3.799
G01 Y3.199
G01 Y2.599
G01 Y1.999
G01 Y-1.4
G01 Y-2.6
G01 Y-3.2
G01 Y-3.8
G01 Y-4.6
G01 Y-6.2
G01 Y-7.8
G01 Y-8.4
G01 Y-9
G01 Y-9.6
G01 Y-10.2
G01 Y-10.8
G01 Y-11.4
G01 Y-12
G01 Y-12.6
G01 Y-13.2
G01 Y-13.8
G01 Y-14.4
G01 Y-15
G01 Y-15.2 Z-0.587
G01 Y-15.8
G01 Y-16.4
G01 Y-17
G01 Y-17.2
G01 X-7.95
G01 Y-16.6
G01 Y-16
G01 Y-15.4
G01 Y-15.2
G01 Y-15 Z-0.587
G01 Y-14.4
G01 Y-13.8
G01 Y-13.2
G01 Y-12.6
G01 Y-12
G01 Y-11.4
G01 Y-10.8
G01 Y-10.2
G01 Y-9.6
G01 Y-9
G01 Y-8.4
G01 Y-7.8
G01 Y-6.2
G01 Y-6 Z-0.587
G01 Y-5.8 Z-0.587
G01 Y-4.2
G01 Y-3.6
G01 Y-3
G01 Y-2.4
G01 Y-1.8
G01 Y1.599
G01 Y2.799
G01 Y3.399
G01 Y5.199
G01 Y6.799
G01 Y8.199
G01 Y8.799
G01 Y9.399
G01 Y9.999
G01 Y10.599
G01 Y11.199
G01 Y11.799
G01 Y12.399
G01 Y12.999
G01 Y13.599
G01 Y14.199
G01 Y14.799
G01 Y14.999
G01 Y15.199 Z-0.587
G01 Y15.799
G01 Y16.399
G01 Y16.999
G01 Y17.199
G01 X-7.8
G01 Y16.599
G01 Y15.999
G01 Y15.399
G01 Y15.199
G01 Y14.999 Z-0.587
G01 Y14.399
G01 Y13.799
G01 Y13.199
G01 Y12.599
G01 Y11.999
G01 Y11.399
G01 Y10.799
G01 Y10.199
G01 Y9.599
G01 Y8.999
G01 Y8.399
G01 Y7.799
G01 Y6.199
G01 Y4.599
G01 Y3.799
G01 Y3.199
G01 Y2.599
G01 Y1.999
G01 Y-1.4
G01 Y-2.6
G01 Y-3.2
G01 Y-3.8
G01 Y-4.6
G01 Y-6.2
G01 Y-7.8
G01 Y-8.4
G01 Y-9
G01 Y-9.6
G01 Y-10.2
G01 Y-10.8
G01 Y-11.4
G01 Y-12
G01 Y-12.6
G01 Y-13.2
G01 Y-13.8
G01 Y-14.4
G01 Y-15
G01 Y-15.2 Z-0.587
G01 Y-15.8
G01 Y-16.4
G01 Y-17
G01 Y-17.2
G01 X-7.65
G01 Y-16.6
G01 Y-16
G01 Y-15.4
G01 Y-15.2
G01 Y-15 Z-0.587
G01 Y-14.4
G01 Y-13.8
G01 Y-13.2
G01 Y-12.6
G01 Y-12
G01 Y-11.4
G01 Y-10.8
G01 Y-10.2
G01 Y-9.6
G01 Y-9
G01 Y-8.4
G01 Y-7.8
G01 Y-6.2
G01 Y-4.6
G01 Y-1.6
G01 Y1.799
G01 Y2.399
G01 Y2.999
G01 Y3.599
G01 Y4.399
G01 Y5.999
G01 Y7.599
G01 Y8.199
G01 Y8.799
G01 Y9.399
G01 Y9.999
G01 Y10.599
G01 Y11.199
G01 Y11.799
G01 Y12.399
G01 Y12.999
G01 Y13.599
G01 Y14.199
G01 Y14.799
G01 Y14.999
G01 Y15.199 Z-0.587
G01 Y15.799
G01 Y16.399
G01 Y16.999
G01 Y17.199
G01 X-7.5
G01 Y16.599
G01 Y15.999
G01 Y15.399
G01 Y15.199
G01 Y14.999 Z-0.587
G01 Y14.399
G01 Y13.799
G01 Y13.199
G01 Y12.599
G01 Y11.999
G01 Y11.399
G01 Y10.799
G01 Y10.199
G01 Y9.599
G01 Y8.999
G01 Y8.399
G01 Y7.799
G01 Y6.199
G01 Y4.599
G01 Y3.799
G01 Y3.199
G01 Y2.599
G01 Y1.999
G01 Y-1.4
G01 Y-2.6
G01 Y-3.2
G01 Y-3.8
G01 Y-4.6
G01 Y-6.2
G01 Y-7.8
G01 Y-8.4
G01 Y-9
G01 Y-9.6
G01 Y-10.2
G01 Y-10.8
G01 Y-11.4
G01 Y-12
G01 Y-12.6
G01 Y-13.2
G01 Y-13.8
G01 Y-14.4
G01 Y-15
G01 Y-15.2 Z-0.587
G01 Y-15.8
G01 Y-16.4
G01 Y-17
G01 Y-17.2
G01 X-7.35
G01 Y-16.6
G01 Y-16
G01 Y-15.4
G01 Y-15.2
G01 Y-15 Z-0.587
G01 Y-14.4
G01 Y-13.8
G01 Y-13.2
G01 Y-12.6
G01 Y-12
G01 Y-11.4
G01 Y-10.8
G01 Y-10.2
G01 Y-9.6
G01 Y-9
G01 Y-8.4
G01 Y-7.8
G01 Y-6.2
G01 Y-4.6
G01 Y-1.6
G01 Y1.799
G01 Y2.399
G01 Y2.999
G01 Y3.599
G01 Y4.399
G01 Y5.999
G01 Y7.599
G01 Y8.199
G01 Y8.799
G01 Y9.399
G01 Y9.999
G01 Y10.599
G01 Y11.199
G01 Y11.799
G01 Y12.399
G01 Y12.999
G01 Y13.599
G01 Y14.199
G01 Y14.799
G01 Y14.999
G01 Y15.199 Z-0.587
G01 Y15.799
G01 Y16.399
G01 Y16.999
G01 Y17.199
G01 X-7.2
G01 Y16.599
G01 Y15.999
G01 Y15.399
G01 Y15.199
G01 Y14.999 Z-0.587
G01 Y14.399
G01 Y13.799
G01 Y13.199
G01 Y12.599
G01 Y11.999
G01 Y11.399
G01 Y10.799
G01 Y10.199
G01 Y9.599
G01 Y8.999
G01 Y8.399
G01 Y7.799
G01 Y6.199
G01 Y4.599
G01 Y3.799
G01 Y3.199
G01 Y2.599
G01 Y1.999
G01 Y-1.4
G01 Y-2.6
G01 Y-3.2
G01 Y-3.8
G01 Y-4.6
G01 Y-6.2
G01 Y-7.8
G01 Y-8.4
G01 Y-9
G01 Y-9.6
G01 Y-10.2
G01 Y-10.8
G01 Y-11.4
G01 Y-12
G01 Y-12.6
G01 Y-13.2
G01 Y-13.8
G01 Y-14.4
G01 Y-15
G01 Y-15.2 Z-0.587
G01 Y-15.8
G01 Y-16.4
G01 Y-17
G01 Y-17.2
G01 X-7.05
G01 Y-16.6
G01 Y-16
G01 Y-15.4
G01 Y-15.2
G01 Y-15 Z-0.587
G01 Y-14.4
G01 Y-13.8
G01 Y-13.2
G01 Y-12.6
G01 Y-12
G01 Y-11.4
G01 Y-10.8
G01 Y-10.2
G01 Y-9.6
G01 Y-9
G01 Y-8.4
G01 Y-7.8
G01 Y-6.2
G01 Y-4.6
G01 Y-1.6
G01 Y1.799
G01 Y2.399
G01 Y2.999
G01 Y3.599
G01 Y4.399
G01 Y5.999
G01 Y7.599
G01 Y8.199
G01 Y8.799
G01 Y9.399
G01 Y9.999
G01 Y10.599
G01 Y11.199
G01 Y11.799
G01 Y12.399
G01 Y12.999
G01 Y13.599
G01 Y14.199
G01 Y14.799
G01 Y14.999
G01 Y15.199 Z-0.587
G01 Y15.799
G01 Y16.399
G01 Y16.999
G01 Y17.199
G01 X-6.9
G01 Y16.599
G01 Y15.999
G01 Y15.399
G01 Y15.199
G01 Y14.999 Z-0.587
G01 Y14.399
G01 Y13.799
G01 Y13.199
G01 Y12.599
G01 Y11.999
G01 Y11.399
G01 Y10.799
G01 Y10.199
G01 Y9.599
G01 Y8.999
G01 Y8.399
G01 Y7.799
G01 Y6.199
G01 Y4.599
G01 Y3.799
G01 Y3.199
G01 Y2.599
G01 Y1.999
G01 Y-1.4
G01 Y-2.6
G01 Y-3.2
G01 Y-3.8
G01 Y-4.6
G01 Y-6.2
G01 Y-7.8
G01 Y-8.4
G01 Y-9
G01 Y-9.6
G01 Y-10.2
G01 Y-10.8
G01 Y-11.4
G01 Y-12
G01 Y-12.6
G01 Y-13.2
G01 Y-13.8
G01 Y-14.4
G01 Y-15
G01 Y-15.2 Z-0.587
G01 Y-15.8
G01 Y-16.4
G01 Y-17
G01 Y-17.2
G01 X-6.75
G01 Y-16.6
G01 Y-16
G01 Y-15.4
G01 Y-15.2
G01 Y-15 Z-0.587
G01 Y-14.4
G01 Y-13.8
G01 Y-13.2
G01 Y-12.6
G01 Y-12
G01 Y-11.4
G01 Y-10.8
G01 Y-10.2
G01 Y-9.6
G01 Y-9
G01 Y-8.4
G01 Y-7.8
G01 Y-6.2
G01 Y-4.6
G01 Y-1.6
G01 Y1.799
G01 Y2.399
G01 Y2.999
G01 Y3.599
G01 Y4.399
G01 Y5.999
G01 Y7.599
G01 Y8.199
G01 Y8.799
G01 Y9.399
G01 Y9.999
G01 Y10.599
G01 Y11.199
G01 Y11.799
G01 Y12.399
G01 Y12.999
G01 Y13.599
G01 Y14.199
G01 Y14.799
G01 Y14.999
G01 Y15.199 Z-0.587
G01 Y15.799
G01 Y16.399
G01 Y16.999
G01 Y17.199
G01 X-6.6
G01 Y16.599
G01 Y15.999
G01 Y15.399
G01 Y15.199
G01 Y14.999 Z-0.587
G01 Y14.399
G01 Y13.799
G01 Y13.199
G01 Y12.599
G01 Y11.999
G01 Y11.399
G01 Y10.799
G01 Y10.199
G01 Y9.599
G01 Y8.999
G01 Y8.399
G01 Y7.799
G01 Y6.199
G01 Y4.599
G01 Y3.799
G01 Y3.199
G01 Y2.599
G01 Y1.999
G01 Y-1.4
G01 Y-2.6
G01 Y-3.2
G01 Y-3.8
G01 Y-4.6
G01 Y-6.2
G01 Y-7.8
G01 Y-8.4
G01 Y-9
G01 Y-9.6
G01 Y-10.2
G01 Y-10.8
G01 Y-11.4
G01 Y-12
G01 Y-12.6
G01 Y-13.2
G01 Y-13.8
G01 Y-14.4
G01 Y-15
G01 Y-15.2 Z-0.587
G01 Y-15.8
G01 Y-16.4
G01 Y-17
G01 Y-17.2
G01 X-6.45
G01 Y-16.6
G01 Y-16
G01 Y-15.4
G01 Y-15.2
G01 Y-15 Z-0.587
G01 Y-14.4
G01 Y-13.8
G01 Y-13.2
G01 Y-12.6
G01 Y-12
G01 Y-11.4
G01 Y-10.8
G01 Y-10.2
G01 Y-9.6
G01 Y-9
G01 Y-8.4
G01 Y-7.8
G01 Y-6.2
G01 Y-4.6
G01 Y-1.6
G01 Y1.799
G01 Y2.399
G01 Y2.999
G01 Y3.599
G01 Y4.399
G01 Y5.999
G01 Y7.599
G01 Y8.199
G01 Y8.799
G01 Y9.399
G01 Y9.999
G01 Y10.599
G01 Y11.199
G01 Y11.799
G01 Y12.399
G01 Y12.999
G01 Y13.599
G01 Y14.199
G01 Y14.799
G01 Y14.999
G01 Y15.199 Z-0.587
G01 Y15.799
G01 Y16.399
G01 Y16.999
G01 Y17.199
G01 X-6.3
G01 Y16.599
G01 Y15.999
G01 Y15.399
G01 Y15.199
G01 Y14.999 Z-0.587
G01 Y14.399
G01 Y13.799
G01 Y13.199
G01 Y12.599
G01 Y11.999
G01 Y11.399
G01 Y10.799
G01 Y10.199
G01 Y9.599
G01 Y8.999
G01 Y8.399
G01 Y7.799
G01 Y6.199
G01 Y4.599
G01 Y3.799
G01 Y3.199
G01 Y2.599
G01 Y1.999
G01 Y-1.4
G01 Y-2.6
G01 Y-3.2
G01 Y-3.8
G01 Y-4.6
G01 Y-6.2
G01 Y-7.8
G01 Y-8.4
G01 Y-9
G01 Y-9.6
G01 Y-10.2
G01 Y-10.8
G01 Y-11.4
G01 Y-12
G01 Y-12.6
G01 Y-13.2
G01 Y-13.8
G01 Y-14.4
G01 Y-15
G01 Y-15.2 Z-0.587
G01 Y-15.8
G01 Y-16.4
G01 Y-17
G01 Y-17.2
G01 X-6.15
G01 Y-16.6
G01 Y-16
G01 Y-15.4
G01 Y-15.2
G01 Y-15 Z-0.587
G01 Y-14.4
G01 Y-13.8
G01 Y-13.2
G01 Y-12.6
G01 Y-12
G01 Y-11.4
G01 Y-10.8
G01 Y-10.2
G01 Y-9.6
G01 Y-9
G01 Y-8.4
G01 Y-7.8
G01 Y-6.2
G01 Y-4.6
G01 Y-1.6
G01 Y1.799
G01 Y2.399
G01 Y2.999
G01 Y3.599
G01 Y4.399
G01 Y5.999
G01 Y7.599
G01 Y8.199
G01 Y8.799
G01 Y9.399
G01 Y9.999
G01 Y10.599
G01 Y11.199
G01 Y11.799
G01 Y12.399
G01 Y12.999
G01 Y13.599
G01 Y14.199
G01 Y14.799
G01 Y14.999
G01 Y15.199 Z-0.587
G01 Y15.799
G01 Y16.399
G01 Y16.999
G01 Y17.199
G01 X-6
G01 Y16.599
G01 Y15.999
G01 Y15.399
G01 Y15.199
G01 Y14.999 Z-0.587
G01 Y14.399
G01 Y13.799
G01 Y13.199
G01 Y12.599
G01 Y11.999
G01 Y11.399
G01 Y10.799
G01 Y10.199
G01 Y9.599
G01 Y8.999
G01 Y8.399
G01 Y7.799
G01 Y6.199
G01 Y4.599
G01 Y3.799
G01 Y3.199
G01 Y2.599
G01 Y1.999
G01 Y-1.4
G01 Y-2.6
G01 Y-3.2
G01 Y-3.8
G01 Y-4.6
G01 Y-6.2
G01 Y-7.8
G01 Y-8.4
G01 Y-9
G01 Y-9.6
G01 Y-10.2
G01 Y-10.8
G01 Y-11.4
G01 Y-12
G01 Y-12.6
G01 Y-13.2
G01 Y-13.8
G01 Y-14.4
G01 Y-15
G01 Y-15.2 Z-0.587
G01 Y-15.8
G01 Y-16.4
G01 Y-17
G01 Y-17.2
G01 X-5.85
G01 Y-16.6
G01 Y-16
G01 Y-15.4
G01 Y-15.2
G01 Y-15 Z-0.587
G01 Y-14.4
G01 Y-13.8
G01 Y-13.2
G01 Y-12.6
G01 Y-12
G01 Y-11.4
G01 Y-10.8
G01 Y-10.2
G01 Y-9.6
G01 Y-9
G01 Y-8.4
G01 Y-7.8
G01 Y-6.2
G01 Y-4.6
G01 Y-1.6
G01 Y1.799
G01 Y2.399
G01 Y2.999
G01 Y3.599
G01 Y4.399
G01 Y5.999
G01 Y7.599
G01 Y8.199
G01 Y8.799
G01 Y9.399
G01 Y9.999
G01 Y10.599
G01 Y11.199
G01 Y11.799
G01 Y12.399
G01 Y12.999
G01 Y13.599
G01 Y14.199
G01 Y14.799
G01 Y14.999
G01 Y15.199 Z-0.587
G01 Y15.799
G01 Y16.399
G01 Y16.999
G01 Y17.199
G01 X-5.7
G01 Y16.599
G01 Y15.999
G01 Y15.399
G01 Y15.199
G01 Y14.999 Z-0.587
G01 Y14.399
G01 Y13.799
G01 Y13.199
G01 Y12.599
G01 Y11.999
G01 Y11.399
G01 Y10.799
G01 Y10.199
G01 Y9.599
G01 Y8.999
G01 Y8.399
G01 Y7.799
G01 Y6.199
G01 Y4.599
G01 Y3.799
G01 Y3.199
G01 Y2.599
G01 Y1.999
G01 Y-1.4
G01 Y-2.6
G01 Y-3.2
G01 Y-3.8
G01 Y-4.6
G01 Y-6.2
G01 Y-7.8
G01 Y-8.4
G01 Y-9
G01 Y-9.6
G01 Y-10.2
G01 Y-10.8
G01 Y-11.4
G01 Y-12
G01 Y-12.6
G01 Y-13.2
G01 Y-13.8
G01 Y-14.4
G01 Y-15
G01 Y-15.2 Z-0.587
G01 Y-15.8
G01 Y-16.4
G01 Y-17
G01 Y-17.2
G01 X-5.55
G01 Y-16.6
G01 Y-16
G01 Y-15.4
G01 Y-15.2
G01 Y-15 Z-0.587
G01 Y-14.4
G01 Y-13.8
G01 Y-13.2
G01 Y-12.6
G01 Y-12
G01 Y-11.4
G01 Y-10.8
G01 Y-10.2
G01 Y-9.6
G01 Y-9
G01 Y-8.4
G01 Y-7.8
G01 Y-6.2
G01 Y-4.6
G01 Y-4
G01 Y-3.8 Z-0.587
G01 Y-3.6 Z-0.587
G01 Y-3
G01 Y-2.4
G01 Y-1.8
G01 Y1.599
G01 Y2.799
G01 Y3.399
G01 Y5.199
G01 Y6.799
G01 Y8.199
G01 Y8.799
G01 Y9.399
G01 Y9.999
G01 Y10.599
G01 Y11.199
G01 Y11.799
G01 Y12.399
G01 Y12.999
G01 Y13.599
G01 Y14.199
G01 Y14.799
G01 Y14.999
G01 Y15.199 Z-0.587
G01 Y15.799
G01 Y16.399
G01 Y16.999
G01 Y17.199
G01 X-5.4
G01 Y16.599
G01 Y15.999
G01 Y15.399
G01 Y15.199
G01 Y14.999 Z-0.587
G01 Y14.399
G01 Y13.799
G01 Y13.199
G01 Y12.599
G01 Y11.999
G01 Y11.399
G01 Y10.799
G01 Y10.199
G01 Y9.599
G01 Y8.999
G01 Y8.399
G01 Y7.799
G01 Y6.199
G01 Y4.599
G01 Y3.799
G01 Y3.199
G01 Y2.599
G01 Y1.999
G01 Y-1.4
G01 Y-2.6
G01 Y-3.2
G01 Y-3.8
G01 Y-4.6
G01 Y-6.2
G01 Y-7.8
G01 Y-8.4
G01 Y-9
G01 Y-9.6
G01 Y-10.2
G01 Y-10.8
G01 Y-11.4
G01 Y-12
G01 Y-12.6
G01 Y-13.2
G01 Y-13.8
G01 Y-14.4
G01 Y-15
G01 Y-15.2 Z-0.587
G01 Y-15.8
G01 Y-16.4
G01 Y-17
G01 Y-17.2
G01 X-5.25
G01 Y-16.6
G01 Y-16
G01 Y-15.4
G01 Y-15.2
G01 Y-15 Z-0.587
G01 Y-14.4
G01 Y-13.8
G01 Y-13.2
G01 Y-12.6
G01 Y-12
G01 Y-11.4
G01 Y-10.8
G01 Y-10.2
G01 Y-9.6
G01 Y-9
G01 Y-8.4
G01 Y-7.8
G01 Y-6.2
G01 Y-4.6
G01 Y-1.6
G01 Y1.799
G01 Y2.399
G01 Y2.999
G01 Y3.599
G01 Y4.399
G01 Y5.999
G01 Y7.599
G01 Y8.199
G01 Y8.799
G01 Y9.399
G01 Y9.999
G01 Y10.599
G01 Y11.199
G01 Y11.799
G01 Y12.399
G01 Y12.999
G01 Y13.599
G01 Y14.199
G01 Y14.799
G01 Y14.999
G01 Y15.199 Z-0.587
G01 Y15.799
G01 Y16.399
G01 Y16.999
G01 Y17.199
G01 X-5.1
G01 Y16.599
G01 Y15.999
G01 Y15.399
G01 Y15.199
G01 Y14.999 Z-0.587
G01 Y14.399
G01 Y13.799
G01 Y13.199
G01 Y12.599
G01 Y11.999
G01 Y11.399
G01 Y10.799
G01 Y10.199
G01 Y9.599
G01 Y8.999
G01 Y8.399
G01 Y7.799
G01 Y6.199
G01 Y4.599
G01 Y3.799
G01 Y3.199
G01 Y2.599
G01 Y1.999
G01 Y-1.4
G01 Y-2.6
G01 Y-3.2
G01 Y-3.8
G01 Y-4.6
G01 Y-6.2
G01 Y-7.8
G01 Y-8.4
G01 Y-9
G01 Y-9.6
G01 Y-10.2
G01 Y-10.8
G01 Y-11.4
G01 Y-12
G01 Y-12.6
G01 Y-13.2
G01 Y-13.8
G01 Y-14.4
G01 Y-15
G01 Y-15.2 Z-0.587
G01 Y-15.8
G01 Y-16.4
G01 Y-17
G01 Y-17.2
G01 X-4.95
G01 Y-16.6
G01 Y-16
G01 Y-15.4
G01 Y-15.2
G01 Y-15 Z-0.587
G01 Y-14.4
G01 Y-13.8
G01 Y-13.2
G01 Y-12.6
G01 Y-12
G01 Y-11.4
G01 Y-10.8
G01 Y-10.2
G01 Y-9.6
G01 Y-9
G01 Y-8.4
G01 Y-7.8
G01 Y-6.2
G01 Y-4.6
G01 Y-1.6
G01 Y1.799
G01 Y2.399
G01 Y2.999
G01 Y3.599
G01 Y4.399
G01 Y5.999
G01 Y7.599
G01 Y8.199
G01 Y8.799
G01 Y9.399
G01 Y9.999
G01 Y10.599
G01 Y11.199
G01 Y11.799
G01 Y12.399
G01 Y12.999
G01 Y13.599
G01 Y14.199
G01 Y14.799
G01 Y14.999
G01 Y15.199 Z-0.587
G01 Y15.799
G01 Y16.399
G01 Y16.999
G01 Y17.199
G01 X-4.8
G01 Y16.599
G01 Y15.999
G01 Y15.399
G01 Y15.199
G01 Y14.999 Z-0.587
G01 Y14.399
G01 Y13.799
G01 Y13.199
G01 Y12.599
G01 Y11.999
G01 Y11.399
G01 Y10.799
G01 Y10.199
G01 Y9.599
G01 Y8.999
G01 Y8.399
G01 Y7.799
G01 Y6.199
G01 Y4.599
G01 Y3.799
G01 Y3.199
G01 Y2.599
G01 Y1.999
G01 Y-1.4
G01 Y-2.6
G01 Y-3.2
G01 Y-3.8
G01 Y-4.6
G01 Y-6.2
G01 Y-7.8
G01 Y-8.4
G01 Y-9
G01 Y-9.6
G01 Y-10.2
G01 Y-10.8
G01 Y-11.4
G01 Y-12
G01 Y-12.6
G01 Y-13.2
G01 Y-13.8
G01 Y-14.4
G01 Y-15
G01 Y-15.2 Z-0.587
G01 Y-15.8
G01 Y-16.4
G01 Y-17
G01 Y-17.2
G01 X-4.65
G01 Y-16.6
G01 Y-16
G01 Y-15.4
G01 Y-15.2
G01 Y-15 Z-0.587
G01 Y-14.4
G01 Y-13.8
G01 Y-13.2
G01 Y-12.6
G01 Y-12
G01 Y-11.4
G01 Y-10.8
G01 Y-10.2
G01 Y-9.6
G01 Y-9
G01 Y-8.4
G01 Y-7.8
G01 Y-6.2
G01 Y-4.6
G01 Y-1.6
G01 Y1.799
G01 Y2.399
G01 Y2.999
G01 Y3.599
G01 Y4.399
G01 Y5.999
G01 Y7.599
G01 Y8.199
G01 Y8.799
G01 Y9.399
G01 Y9.999
G01 Y10.599
G01 Y11.199
G01 Y11.799
G01 Y12.399
G01 Y12.999
G01 Y13.599
G01 Y14.199
G01 Y14.799
G01 Y14.999
G01 Y15.199 Z-0.587
G01 Y15.799
G01 Y16.399
G01 Y16.999
G01 Y17.199
G01 X-4.5
G01 Y16.599
G01 Y15.999
G01 Y15.399
G01 Y15.199
G01 Y14.999 Z-0.587
G01 Y14.399
G01 Y13.799
G01 Y13.199
G01 Y12.599
G01 Y11.999
G01 Y11.399
G01 Y10.799
G01 Y10.199
G01 Y9.599
G01 Y8.999
G01 Y8.399
G01 Y7.799
G01 Y6.199
G01 Y4.599
G01 Y3.799
G01 Y3.199
G01 Y2.599
G01 Y1.999
G01 Y-1.4
G01 Y-2.6
G01 Y-3.2
G01 Y-3.8
G01 Y-4.6
G01 Y-6.2
G01 Y-7
G01 Y-7.2 Z-0.587
G01 Y-7.4 Z-0.587
G01 Y-8.8
G01 Y-9.4
G01 Y-10
G01 Y-10.6
G01 Y-11.2
G01 Y-11.8
G01 Y-12.4
G01 Y-13
G01 Y-13.6
G01 Y-14.2
G01 Y-14.8
G01 Y-15
G01 Y-15.2 Z-0.587
G01 Y-15.8
G01 Y-16.4
G01 Y-17
G01 Y-17.2
G01 X-4.35
G01 Y-16.6
G01 Y-16
G01 Y-15.4
G01 Y-15.2
G01 Y-15 Z-0.587
G01 Y-14.4
G01 Y-13.8
G01 Y-13.2
G01 Y-12.6
G01 Y-12
G01 Y-11.4
G01 Y-10.8
G01 Y-10.2
G01 Y-9.6
G01 Y-9
G01 Y-8.4
G01 Y-7.8
G01 Y-7.4
G01 Y-7.2 Z-0.587
G01 Y-7 Z-0.587
G01 Y-5.4
G01 Y-2
G01 Y1.399
G01 Y1.999
G01 Y2.599
G01 Y3.199
G01 Y3.799
G01 Y5.399
G01 Y6.999
G01 Y8.199
G01 Y8.799
G01 Y9.399
G01 Y9.999
G01 Y10.599
G01 Y11.199
G01 Y11.799
G01 Y12.399
G01 Y12.999
G01 Y13.599
G01 Y14.199
G01 Y14.799
G01 Y14.999
G01 Y15.199 Z-0.587
G01 Y15.799
G01 Y16.399
G01 Y16.999
G01 Y17.199
G01 X-4.2
G01 Y16.599
G01 Y15.999
G01 Y15.399
G01 Y15.199
G01 Y14.999 Z-0.587
G01 Y14.399
G01 Y13.799
G01 Y13.199
G01 Y12.599
G01 Y11.999
G01 Y11.399
G01 Y10.799
G01 Y10.199
G01 Y9.599
G01 Y8.999
G01 Y8.399
G01 Y7.799
G01 Y6.199
G01 Y4.599
G01 Y3.799
G01 Y3.199
G01 Y2.599
G01 Y1.999
G01 Y-1.4
G01 Y-2.6
G01 Y-3.2
G01 Y-3.8
G01 Y-4.6
G01 Y-6.2
G01 Y-7.8
G01 Y-8.4
G01 Y-9
G01 Y-9.6
G01 Y-10.2
G01 Y-10.8
G01 Y-11.4
G01 Y-12
G01 Y-12.6
G01 Y-13.2
G01 Y-13.8
G01 Y-14.4
G01 Y-15
G01 Y-15.2 Z-0.587
G01 Y-15.8
G01 Y-16.4
G01 Y-17
G01 Y-17.2
G01 X-4.05
G01 Y-16.6
G01 Y-16
G01 Y-15.4
G01 Y-15.2
G01 Y-15 Z-0.587
G01 Y-14.4
G01 Y-13.8
G01 Y-13.2
G01 Y-12.6
G01 Y-12
G01 Y-11.4
G01 Y-10.8
G01 Y-10.2
G01 Y-9.6
G01 Y-9
G01 Y-8.4
G01 Y-7.8
G01 Y-6.2
G01 Y-4.6
G01 Y-1.6
G01 Y1.799
G01 Y2.399
G01 Y2.999
G01 Y3.599
G01 Y4.399
G01 Y5.999
G01 Y7.599
G01 Y8.199
G01 Y8.799
G01 Y9.399
G01 Y9.999
G01 Y10.599
G01 Y11.199
G01 Y11.799
G01 Y12.399
G01 Y12.999
G01 Y13.599
G01 Y14.199
G01 Y14.799
G01 Y14.999
G01 Y15.199 Z-0.587
G01 Y15.799
G01 Y16.399
G01 Y16.999
G01 Y17.199
G01 X-3.9
G01 Y16.599
G01 Y15.999
G01 Y15.399
G01 Y15.199
G01 Y14.999 Z-0.587
G01 Y14.399
G01 Y13.799
G01 Y13.199
G01 Y12.599
G01 Y11.999
G01 Y11.399
G01 Y10.799
G01 Y10.199
G01 Y9.599
G01 Y8.999
G01 Y8.399
G01 Y7.799
G01 Y6.199
G01 Y4.599
G01 Y3.799
G01 Y3.199
G01 Y2.599
G01 Y1.999
G01 Y0.399
G01 Y0.199 Z-0.587
G01 Y0 Z-0.587
G01 Y-5.6
G01 Y-7.2
G01 Y-8.4
G01 Y-9
G01 Y-9.6
G01 Y-10.2
G01 Y-10.8
G01 Y-11.4
G01 Y-12
G01 Y-12.6
G01 Y-13.2
G01 Y-13.8
G01 Y-14.4
G01 Y-15
G01 Y-15.2 Z-0.587
G01 Y-15.8
G01 Y-16.4
G01 Y-17
G01 Y-17.2
G01 X-3.75
G01 Y-16.6
G01 Y-16
G01 Y-15.4
G01 Y-15.2
G01 Y-15 Z-0.587
G01 Y-14.4
G01 Y-13.8
G01 Y-13.2
G01 Y-12.6
G01 Y-12
G01 Y-11.4
G01 Y-10.8
G01 Y-10.2
G01 Y-9.6
G01 Y-9
G01 Y-8.4
G01 Y-7.8
G01 Y-6.2
G01 Y-4.6
G01 Y-1.6
G01 Y0
G01 Y0.199 Z-0.587
G01 Y0.399 Z-0.587
G01 Y2.999
G01 Y3.599
G01 Y4.399
G01 Y5.999
G01 Y7.599
G01 Y8.199
G01 Y8.799
G01 Y9.399
G01 Y9.999
G01 Y10.599
G01 Y11.199
G01 Y11.799
G01 Y12.399
G01 Y12.999
G01 Y13.599
G01 Y14.199
G01 Y14.799
G01 Y14.999
G01 Y15.199 Z-0.587
G01 Y15.799
G01 Y16.399
G01 Y16.999
G01 Y17.199
G01 X-3.6
G01 Y16.599
G01 Y15.999
G01 Y15.399
G01 Y15.199
G01 Y14.999 Z-0.587
G01 Y14.399
G01 Y13.799
G01 Y13.199
G01 Y12.599
G01 Y11.999
G01 Y11.399
G01 Y10.799
G01 Y10.199
G01 Y9.599
G01 Y8.999
G01 Y8.399
G01 Y7.799
G01 Y6.199
G01 Y4.599
G01 Y3.799
G01 Y3.199
G01 Y2.599
G01 Y1.999
G01 Y0.399
G01 Y0.199 Z-0.587
G01 Y0 Z-0.587
G01 Y-5.6
G01 Y-7.2
G01 Y-8.4
G01 Y-9
G01 Y-9.6
G01 Y-10.2
G01 Y-10.8
G01 Y-11.4
G01 Y-12
G01 Y-12.6
G01 Y-13.2
G01 Y-13.8
G01 Y-14.4
G01 Y-15
G01 Y-15.2 Z-0.587
G01 Y-15.8
G01 Y-16.4
G01 Y-17
G01 Y-17.2
G01 X-3.45
G01 Y-16.6
G01 Y-16
G01 Y-15.4
G01 Y-15.2
G01 Y-15 Z-0.587
G01 Y-14.4
G01 Y-13.8
G01 Y-13.2
G01 Y-12.6
G01 Y-12
G01 Y-11.4
G01 Y-10.8
G01 Y-10.2
G01 Y-9.6
G01 Y-9
G01 Y-8.4
G01 Y-7.8
G01 Y-6.2
G01 Y-4.6
G01 Y-1.6
G01 Y1.799
G01 Y2.399
G01 Y2.999
G01 Y3.599
G01 Y4.399
G01 Y5.999
G01 Y7.599
G01 Y8.199
G01 Y8.799
G01 Y9.399
G01 Y9.999
G01 Y10.599
G01 Y11.199
G01 Y11.799
G01 Y12.399
G01 Y12.999
G01 Y13.599
G01 Y14.199
G01 Y14.799
G01 Y14.999
G01 Y15.199 Z-0.587
G01 Y15.799
G01 Y16.399
G01 Y16.999
G01 Y17.199
G01 X-3.3
G01 Y16.599
G01 Y15.999
G01 Y15.399
G01 Y15.199
G01 Y14.999 Z-0.587
G01 Y14.399
G01 Y13.799
G01 Y13.199
G01 Y12.599
G01 Y11.999
G01 Y11.399
G01 Y10.799
G01 Y10.199
G01 Y9.599
G01 Y8.999
G01 Y8.399
G01 Y7.799
G01 Y6.199
G01 Y4.599
G01 Y3.799
G01 Y3.199
G01 Y2.599
G01 Y1.999
G01 Y-1.4
G01 Y-2.6
G01 Y-3.2
G01 Y-3.8
G01 Y-4.6
G01 Y-6.2
G01 Y-7.8
G01 Y-8.4
G01 Y-9
G01 Y-9.6
G01 Y-10.2
G01 Y-10.8
G01 Y-11.4
G01 Y-12
G01 Y-12.6
G01 Y-13.2
G01 Y-13.8
G01 Y-14.4
G01 Y-15
G01 Y-15.2 Z-0.587
G01 Y-15.8
G01 Y-16.4
G01 Y-17
G01 Y-17.2
G01 X-3.15
G01 Y-16.6
G01 Y-16
G01 Y-15.4
G01 Y-15.2
G01 Y-15 Z-0.587
G01 Y-14.4
G01 Y-13.8
G01 Y-13.2
G01 Y-12.6
G01 Y-12
G01 Y-11.4
G01 Y-10.8
G01 Y-10.2
G01 Y-9.6
G01 Y-9
G01 Y-8.4
G01 Y-7.8
G01 Y-6.2
G01 Y-4.6
G01 Y-1.6
G01 Y1.799
G01 Y2.399
G01 Y2.999
G01 Y3.599
G01 Y4.399
G01 Y5.999
G01 Y7.599
G01 Y8.199
G01 Y8.799
G01 Y9.399
G01 Y9.999
G01 Y10.599
G01 Y11.199
G01 Y11.799
G01 Y12.399
G01 Y12.999
G01 Y13.599
G01 Y14.199
G01 Y14.799
G01 Y14.999
G01 Y15.199 Z-0.587
G01 Y15.799
G01 Y16.399
G01 Y16.999
G01 Y17.199
G01 X-3
G01 Y16.599
G01 Y15.999
G01 Y15.399
G01 Y15.199
G01 Y14.999 Z-0.587
G01 Y14.399
G01 Y13.799
G01 Y13.199
G01 Y12.599
G01 Y11.999
G01 Y11.399
G01 Y10.799
G01 Y10.199
G01 Y9.599
G01 Y8.999
G01 Y8.399
G01 Y7.799
G01 Y6.199
G01 Y4.599
G01 Y3.799
G01 Y3.199
G01 Y2.599
G01 Y1.999
G01 Y-1.4
G01 Y-2.6
G01 Y-3.2
G01 Y-3.8
G01 Y-4.6
G01 Y-6.2
G01 Y-7.8
G01 Y-8.4
G01 Y-9
G01 Y-9.6
G01 Y-10.2
G01 Y-10.8
G01 Y-11.4
G01 Y-12
G01 Y-12.6
G01 Y-13.2
G01 Y-13.8
G01 Y-14.4
G01 Y-15
G01 Y-15.2 Z-0.587
G01 Y-15.8
G01 Y-16.4
G01 Y-17
G01 Y-17.2
G01 X-2.85
G01 Y-16.6
G01 Y-16
G01 Y-15.4
G01 Y-15.2
G01 Y-15 Z-0.587
G01 Y-14.4
G01 Y-13.8
G01 Y-13.2
G01 Y-12.6
G01 Y-12
G01 Y-11.4
G01 Y-10.8
G01 Y-10.2
G01 Y-9.6
G01 Y-9
G01 Y-8.4
G01 Y-7.8
G01 Y-6.2
G01 Y-4.6
G01 Y-1.6
G01 Y0.799
G01 Y0.999 Z-0.587
G01 Y1.199 Z-0.587
G01 Y2.399
G01 Y2.999
G01 Y3.599
G01 Y4.399
G01 Y5.999
G01 Y7.599
G01 Y8.199
G01 Y8.799
G01 Y9.399
G01 Y9.999
G01 Y10.599
G01 Y11.199
G01 Y11.799
G01 Y12.399
G01 Y12.999
G01 Y13.599
G01 Y14.199
G01 Y14.799
G01 Y14.999
G01 Y15.199 Z-0.587
G01 Y15.799
G01 Y16.399
G01 Y16.999
G01 Y17.199
G01 X-2.7
G01 Y16.599
G01 Y15.999
G01 Y15.399
G01 Y15.199
G01 Y14.999 Z-0.587
G01 Y14.399
G01 Y13.799
G01 Y13.199
G01 Y12.599
G01 Y11.999
G01 Y11.399
G01 Y10.799
G01 Y10.199
G01 Y9.599
G01 Y8.999
G01 Y8.399
G01 Y7.799
G01 Y6.199
G01 Y4.599
G01 Y3.799
G01 Y3.199
G01 Y2.599
G01 Y1.999
G01 Y-1.4
G01 Y-2.6
G01 Y-3.2
G01 Y-3.8
G01 Y-4.6
G01 Y-6.2
G01 Y-7.8
G01 Y-8.4
G01 Y-9
G01 Y-9.6
G01 Y-10.2
G01 Y-10.8
G01 Y-11.4
G01 Y-12
G01 Y-12.6
G01 Y-13.2
G01 Y-13.8
G01 Y-14.4
G01 Y-15
G01 Y-15.2 Z-0.587
G01 Y-15.8
G01 Y-16.4
G01 Y-17
G01 Y-17.2
G01 X-2.55
G01 Y-16.6
G01 Y-16
G01 Y-15.4
G01 Y-15.2
G01 Y-15 Z-0.587
G01 Y-14.4
G01 Y-13.8
G01 Y-13.2
G01 Y-12.6
G01 Y-12
G01 Y-11.4
G01 Y-10.8
G01 Y-10.2
G01 Y-9.6
G01 Y-9
G01 Y-8.4
G01 Y-7.8
G01 Y-6.2
G01 Y-4.6
G01 Y-1.6
G01 Y1.799
G01 Y2.399
G01 Y2.999
G01 Y3.599
G01 Y4.399
G01 Y5.999
G01 Y7.599
G01 Y8.199
G01 Y8.799
G01 Y9.399
G01 Y9.999
G01 Y10.599
G01 Y11.199
G01 Y11.799
G01 Y12.399
G01 Y12.999
G01 Y13.599
G01 Y14.199
G01 Y14.799
G01 Y14.999
G01 Y15.199 Z-0.587
G01 Y15.799
G01 Y16.399
G01 Y16.999
G01 Y17.199
G01 X-2.4
G01 Y16.599
G01 Y15.999
G01 Y15.399
G01 Y15.199
G01 Y14.999 Z-0.587
G01 Y14.399
G01 Y13.799
G01 Y13.199
G01 Y12.599
G01 Y11.999
G01 Y11.399
G01 Y10.799
G01 Y10.199
G01 Y9.599
G01 Y8.999
G01 Y8.399
G01 Y7.799
G01 Y6.199
G01 Y4.599
G01 Y3.799
G01 Y3.199
G01 Y2.599
G01 Y1.999
G01 Y-1.4
G01 Y-2.6
G01 Y-3.2
G01 Y-3.8
G01 Y-4.6
G01 Y-6.2
G01 Y-7
G01 Y-7.2 Z-0.587
G01 Y-7.4 Z-0.587
G01 Y-8.8
G01 Y-9.4
G01 Y-10
G01 Y-10.6
G01 Y-11.2
G01 Y-11.8
G01 Y-12.4
G01 Y-13
G01 Y-13.6
G01 Y-14.2
G01 Y-14.8
G01 Y-15
G01 Y-15.2 Z-0.587
G01 Y-15.8
G01 Y-16.4
G01 Y-17
G01 Y-17.2
G01 X-2.25
G01 Y-16.6
G01 Y-16
G01 Y-15.4
G01 Y-15.2
G01 Y-15 Z-0.587
G01 Y-14.4
G01 Y-13.8
G01 Y-13.2
G01 Y-12.6
G01 Y-12
G01 Y-11.4
G01 Y-10.8
G01 Y-10.2
G01 Y-9.6
G01 Y-9
G01 Y-8.4
G01 Y-7.8
G01 Y-6.2
G01 Y-4.6
G01 Y-1.6
G01 Y1.799
G01 Y2.399
G01 Y2.999
G01 Y3.599
G01 Y4.399
G01 Y5.999
G01 Y7.599
G01 Y8.199
G01 Y8.799
G01 Y9.399
G01 Y9.999
G01 Y10.599
G01 Y11.199
G01 Y11.799
G01 Y12.399
G01 Y12.999
G01 Y13.599
G01 Y14.199
G01 Y14.799
G01 Y14.999
G01 Y15.199 Z-0.587
G01 Y15.799
G01 Y16.399
G01 Y16.999
G01 Y17.199
G01 X-2.1
G01 Y16.599
G01 Y15.999
G01 Y15.399
G01 Y15.199
G01 Y14.999 Z-0.587
G01 Y14.399
G01 Y13.799
G01 Y13.199
G01 Y12.599
G01 Y11.999
G01 Y11.399
G01 Y10.799
G01 Y10.199
G01 Y9.599
G01 Y8.999
G01 Y8.399
G01 Y7.799
G01 Y6.199
G01 Y4.599
G01 Y3.799
G01 Y3.199
G01 Y2.599
G01 Y1.999
G01 Y0.399
G01 Y0.199 Z-0.587
G01 Y0 Z-0.587
G01 Y-5.6
G01 Y-7.2
G01 Y-8.4
G01 Y-9
G01 Y-9.6
G01 Y-10.2
G01 Y-10.8
G01 Y-11.4
G01 Y-12
G01 Y-12.6
G01 Y-13.2
G01 Y-13.8
G01 Y-14.4
G01 Y-15
G01 Y-15.2 Z-0.587
G01 Y-15.8
G01 Y-16.4
G01 Y-17
G01 Y-17.2
G01 X-1.95
G01 Y-16.6
G01 Y-16
G01 Y-15.4
G01 Y-15.2
G01 Y-15 Z-0.587
G01 Y-14.4
G01 Y-13.8
G01 Y-13.2
G01 Y-12.6
G01 Y-12
G01 Y-11.4
G01 Y-10.8
G01 Y-10.2
G01 Y-9.6
G01 Y-9
G01 Y-8.4
G01 Y-7.8
G01 Y-6.2
G01 Y-4.6
G01 Y-1.6
G01 Y1.799
G01 Y2.399
G01 Y2.999
G01 Y3.599
G01 Y4.399
G01 Y5.999
G01 Y7.599
G01 Y8.199
G01 Y8.799
G01 Y9.399
G01 Y9.999
G01 Y10.599
G01 Y11.199
G01 Y11.799
G01 Y12.399
G01 Y12.999
G01 Y13.599
G01 Y14.199
G01 Y14.799
G01 Y14.999
G01 Y15.199 Z-0.587
G01 Y15.799
G01 Y16.399
G01 Y16.999
G01 Y17.199
G01 X-1.8
G01 Y16.599
G01 Y15.999
G01 Y15.399
G01 Y15.199
G01 Y14.999 Z-0.587
G01 Y14.399
G01 Y13.799
G01 Y13.199
G01 Y12.599
G01 Y11.999
G01 Y11.399
G01 Y10.799
G01 Y10.199
G01 Y9.599
G01 Y8.999
G01 Y8.399
G01 Y7.799
G01 Y6.199
G01 Y4.599
G01 Y3.799
G01 Y3.199
G01 Y2.599
G01 Y1.999
G01 Y-1.4
G01 Y-2.6
G01 Y-3.2
G01 Y-3.8
G01 Y-4.6
G01 Y-6.2
G01 Y-7.8
G01 Y-8.4
G01 Y-9
G01 Y-9.6
G01 Y-10.2
G01 Y-10.8
G01 Y-11.4
G01 Y-12
G01 Y-12.6
G01 Y-13.2
G01 Y-13.8
G01 Y-14.4
G01 Y-15
G01 Y-15.2 Z-0.587
G01 Y-15.8
G01 Y-16.4
G01 Y-17
G01 Y-17.2
G01 X-1.65
G01 Y-16.6
G01 Y-16
G01 Y-15.4
G01 Y-15.2
G01 Y-15 Z-0.587
G01 Y-14.4
G01 Y-13.8
G01 Y-13.2
G01 Y-12.6
G01 Y-12
G01 Y-11.4
G01 Y-10.8
G01 Y-10.2
G01 Y-9.6
G01 Y-9
G01 Y-8.4
G01 Y-7.8
G01 Y-6.2
G01 Y-4.6
G01 Y-1.6
G01 Y1.799
G01 Y2.399
G01 Y2.999
G01 Y3.599
G01 Y4.399
G01 Y5.999
G01 Y7.599
G01 Y8.199
G01 Y8.799
G01 Y9.399
G01 Y9.999
G01 Y10.599
G01 Y11.199
G01 Y11.799
G01 Y12.399
G01 Y12.999
G01 Y13.599
G01 Y14.199
G01 Y14.799
G01 Y14.999
G01 Y15.199 Z-0.587
G01 Y15.799
G01 Y16.399
G01 Y16.999
G01 Y17.199
G01 X-1.5
G01 Y16.599
G01 Y15.999
G01 Y15.399
G01 Y15.199
G01 Y14.999 Z-0.587
G01 Y14.399
G01 Y13.799
G01 Y13.199
G01 Y12.599
G01 Y11.999
G01 Y11.399
G01 Y10.799
G01 Y10.199
G01 Y9.599
G01 Y8.999
G01 Y8.399
G01 Y7.799
G01 Y6.199
G01 Y4.599
G01 Y3.799
G01 Y3.399
G01 Y3.199 Z-0.587
G01 Y2.999 Z-0.587
G01 Y2.399
G01 Y0.999
G01 Y-0.6
G01 Y-3.6
G01 Y-5.4
G01 Y-7
G01 Y-8.4
G01 Y-9
G01 Y-9.6
G01 Y-10.2
G01 Y-10.8
G01 Y-11.4
G01 Y-12
G01 Y-12.6
G01 Y-13.2
G01 Y-13.8
G01 Y-14.4
G01 Y-15
G01 Y-15.2 Z-0.587
G01 Y-15.8
G01 Y-16.4
G01 Y-17
G01 Y-17.2
G01 X-1.35
G01 Y-16.6
G01 Y-16
G01 Y-15.4
G01 Y-15.2
G01 Y-15 Z-0.587
G01 Y-14.4
G01 Y-13.8
G01 Y-13.2
G01 Y-12.6
G01 Y-12
G01 Y-11.4
G01 Y-10.8
G01 Y-10.2
G01 Y-9.6
G01 Y-9
G01 Y-8.4
G01 Y-7.8
G01 Y-6.2
G01 Y-4.6
G01 Y-1.6
G01 Y1.799
G01 Y2.399
G01 Y2.999
G01 Y3.199
G01 Y3.399 Z-0.587
G01 Y3.599 Z-0.587
G01 Y3.799 Z-0.587
G01 Y3.999 Z-0.587
G01 Y5.599
G01 Y7.199
G01 Y8.599
G01 Y9.199
G01 Y9.799
G01 Y10.399
G01 Y10.999
G01 Y11.599
G01 Y12.199
G01 Y12.799
G01 Y13.399
G01 Y13.999
G01 Y14.599
G01 Y14.999
G01 Y15.199 Z-0.587
G01 Y15.799
G01 Y16.399
G01 Y16.999
G01 Y17.199
G01 X-1.2
G01 Y16.599
G01 Y15.999
G01 Y15.399
G01 Y15.199
G01 Y14.999 Z-0.587
G01 Y14.399
G01 Y13.799
G01 Y13.199
G01 Y12.599
G01 Y11.999
G01 Y11.399
G01 Y10.799
G01 Y10.199
G01 Y9.599
G01 Y8.999
G01 Y8.399
G01 Y7.799
G01 Y6.199
G01 Y4.599
G01 Y3.799
G01 Y3.199
G01 Y2.799
G01 Y2.599 Z-0.587
G01 Y2.399 Z-0.587
G01 Y0.999
G01 Y-0.6
G01 Y-3.6
G01 Y-5.4
G01 Y-6.4
G01 Y-6.6 Z-0.587
G01 Y-6.8 Z-0.587
G01 Y-9.8
G01 Y-10.4
G01 Y-11
G01 Y-11.6
G01 Y-12.2
G01 Y-12.8
G01 Y-13.4
G01 Y-14
G01 Y-14.6
G01 Y-15
G01 Y-15.2 Z-0.587
G01 Y-15.8
G01 Y-16.4
G01 Y-17
G01 Y-17.2
G01 X-1.05
G01 Y-16.6
G01 Y-16
G01 Y-15.4
G01 Y-15.2
G01 Y-15 Z-0.587
G01 Y-14.4
G01 Y-13.8
G01 Y-13.2
G01 Y-12.6
G01 Y-12
G01 Y-11.4
G01 Y-10.8
G01 Y-10.2
G01 Y-9.6
G01 Y-9
G01 Y-8.4
G01 Y-7.8
G01 Y-6.2
G01 Y-4.6
G01 Y-1.6
G01 Y1.799
G01 Y2.399
G01 Y2.999
G01 Y3.599
G01 Y4.399
G01 Y5.999
G01 Y7.599
G01 Y8.199
G01 Y8.799
G01 Y9.399
G01 Y9.999
G01 Y10.599
G01 Y11.199
G01 Y11.799
G01 Y12.399
G01 Y12.999
G01 Y13.599
G01 Y14.199
G01 Y14.799
G01 Y14.999
G01 Y15.199 Z-0.587
G01 Y15.799
G01 Y16.399
G01 Y16.999
G01 Y17.199
G01 X-0.9
G01 Y16.599
G01 Y15.999
G01 Y15.399
G01 Y15.199
G01 Y14.999 Z-0.587
G01 Y14.399
G01 Y13.799
G01 Y13.199
G01 Y12.599
G01 Y11.999
G01 Y11.399
G01 Y10.799
G01 Y10.199
G01 Y9.599
G01 Y8.999
G01 Y8.399
G01 Y7.799
G01 Y6.199
G01 Y5.199
G01 Y4.999 Z-0.587
G01 Y4.799 Z-0.587
G01 Y3.999
G01 Y3.799 Z-0.587
G01 Y3.599 Z-0.587
G01 Y2.999
G01 Y2.399
G01 Y0.999
G01 Y-0.6
G01 Y-3.6
G01 Y-4.4
G01 Y-4.6 Z-0.587
G01 Y-4.8 Z-0.587
G01 Y-6.4
G01 Y-9
G01 Y-9.6
G01 Y-10.2
G01 Y-10.8
G01 Y-11.4
G01 Y-12
G01 Y-12.6
G01 Y-13.2
G01 Y-13.8
G01 Y-14.4
G01 Y-15
G01 Y-15.2 Z-0.587
G01 Y-15.8
G01 Y-16.4
G01 Y-17
G01 Y-17.2
G01 X-0.75
G01 Y-16.6
G01 Y-16
G01 Y-15.4
G01 Y-15.2
G01 Y-15 Z-0.587
G01 Y-14.4
G01 Y-13.8
G01 Y-13.2
G01 Y-12.6
G01 Y-12
G01 Y-11.4
G01 Y-10.8
G01 Y-10.2
G01 Y-9.6
G01 Y-9
G01 Y-8.4
G01 Y-7.8
G01 Y-6.2
G01 Y-4.6
G01 Y-1.6
G01 Y1.799
G01 Y2.399
G01 Y2.999
G01 Y3.599
G01 Y4.399
G01 Y5.999
G01 Y7.599
G01 Y8.199
G01 Y8.799
G01 Y9.399
G01 Y9.999
G01 Y10.599
G01 Y11.199
G01 Y11.799
G01 Y12.399
G01 Y12.999
G01 Y13.599
G01 Y14.199
G01 Y14.799
G01 Y14.999
G01 Y15.199 Z-0.587
G01 Y15.799
G01 Y16.399
G01 Y16.999
G01 Y17.199
G01 X-0.6
G01 Y16.599
G01 Y15.999
G01 Y15.399
G01 Y15.199
G01 Y14.999 Z-0.587
G01 Y14.399
G01 Y13.799
G01 Y13.199
G01 Y12.599
G01 Y11.999
G01 Y11.399
G01 Y10.799
G01 Y10.199
G01 Y9.599
G01 Y8.999
G01 Y8.399
G01 Y7.799
G01 Y6.199
G01 Y4.599
G01 Y3.999
G01 Y3.799 Z-0.587
G01 Y3.599 Z-0.587
G01 Y2.999
G01 Y2.399
G01 Y0.999
G01 Y-0.6
G01 Y-3.6
G01 Y-5.4
G01 Y-7
G01 Y-8.4
G01 Y-9
G01 Y-9.6
G01 Y-10.2
G01 Y-10.8
G01 Y-11.4
G01 Y-12
G01 Y-12.6
G01 Y-13.2
G01 Y-13.8
G01 Y-14.4
G01 Y-15
G01 Y-15.2 Z-0.587
G01 Y-15.8
G01 Y-16.4
G01 Y-17
G01 Y-17.2
G01 X-0.45
G01 Y-16.6
G01 Y-16
G01 Y-15.4
G01 Y-15.2
G01 Y-15 Z-0.587
G01 Y-14.4
G01 Y-13.8
G01 Y-13.2
G01 Y-12.6
G01 Y-12
G01 Y-11.4
G01 Y-10.8
G01 Y-10.2
G01 Y-9.6
G01 Y-9
G01 Y-8.4
G01 Y-7.8
G01 Y-6.2
G01 Y-4.6
G01 Y-1.6
G01 Y1.799
G01 Y2.399
G01 Y2.999
G01 Y3.599
G01 Y4.399
G01 Y4.799
G01 Y4.999 Z-0.587
G01 Y5.199 Z-0.587
G01 Y6.799
G01 Y8.199
G01 Y8.799
G01 Y9.399
G01 Y9.999
G01 Y10.599
G01 Y11.199
G01 Y11.799
G01 Y12.399
G01 Y12.999
G01 Y13.599
G01 Y14.199
G01 Y14.799
G01 Y14.999
G01 Y15.199 Z-0.587
G01 Y15.799
G01 Y16.399
G01 Y16.999
G01 Y17.199
G01 X-0.3
G01 Y16.599
G01 Y15.999
G01 Y15.399
G01 Y15.199
G01 Y14.999 Z-0.587
G01 Y14.399
G01 Y13.799
G01 Y13.199
G01 Y12.599
G01 Y11.999
G01 Y11.399
G01 Y10.799
G01 Y10.199
G01 Y9.599
G01 Y8.999
G01 Y8.399
G01 Y7.799
G01 Y6.199
G01 Y4.599
G01 Y3.799
G01 Y3.199
G01 Y2.599
G01 Y1.999
G01 Y0.399
G01 Y0.199 Z-0.587
G01 Y0 Z-0.587
G01 Y-5.6
G01 Y-7.2
G01 Y-8.4
G01 Y-9
G01 Y-9.6
G01 Y-10.2
G01 Y-10.8
G01 Y-11.4
G01 Y-12
G01 Y-12.6
G01 Y-13.2
G01 Y-13.8
G01 Y-14.4
G01 Y-15
G01 Y-15.2 Z-0.587
G01 Y-15.8
G01 Y-16.4
G01 Y-17
G01 Y-17.2
G01 X-0.15
G01 Y-16.6
G01 Y-16
G01 Y-15.4
G01 Y-15.2
G01 Y-15 Z-0.587
G01 Y-14.4
G01 Y-13.8
G01 Y-13.2
G01 Y-12.6
G01 Y-12
G01 Y-11.4
G01 Y-10.8
G01 Y-10.2
G01 Y-9.6
G01 Y-9
G01 Y-8.4
G01 Y-7.8
G01 Y-6.2
G01 Y-4.6
G01 Y-1.6
G01 Y1.799
G01 Y2.399
G01 Y2.999
G01 Y3.599
G01 Y4.399
G01 Y5.999
G01 Y7.599
G01 Y8.199
G01 Y8.799
G01 Y9.399
G01 Y9.999
G01 Y10.599
G01 Y11.199
G01 Y11.799
G01 Y12.399
G01 Y12.999
G01 Y13.599
G01 Y14.199
G01 Y14.799
G01 Y14.999
G01 Y15.199 Z-0.587
G01 Y15.799
G01 Y16.399
G01 Y16.999
G01 Y17.199
G01 X0
G01 Y16.599
G01 Y15.999
G01 Y15.399
G01 Y15.199
G01 Y14.999 Z-0.587
G01 Y14.399
G01 Y13.799
G01 Y13.199
G01 Y12.599
G01 Y11.999
G01 Y11.399
G01 Y10.799
G01 Y10.199
G01 Y9.599
G01 Y8.999
G01 Y8.399
G01 Y7.799
G01 Y6.199
G01 Y4.599
G01 Y3.999
G01 Y3.799 Z-0.587
G01 Y3.599 Z-0.587
G01 Y2.999
G01 Y2.399
G01 Y0.999
G01 Y-0.6
G01 Y-3.6
G01 Y-5.4
G01 Y-7
G01 Y-8.4
G01 Y-9
G01 Y-9.6
G01 Y-10.2
G01 Y-10.8
G01 Y-11.4
G01 Y-12
G01 Y-12.6
G01 Y-13.2
G01 Y-13.8
G01 Y-14.4
G01 Y-15
G01 Y-15.2 Z-0.587
G01 Y-15.8
G01 Y-16.4
G01 Y-17
G01 Y-17.2
G01 X0.15
G01 Y-16.6
G01 Y-16
G01 Y-15.4
G01 Y-15.2
G01 Y-15 Z-0.587
G01 Y-14.4
G01 Y-13.8
G01 Y-13.2
G01 Y-12.6
G01 Y-12
G01 Y-11.4
G01 Y-10.8
G01 Y-10.2
G01 Y-9.6
G01 Y-9
G01 Y-8.4
G01 Y-7.8
G01 Y-6.2
G01 Y-4.6
G01 Y-2.8
G01 Y-2.6 Z-0.587
G01 Y-2.4 Z-0.587
G01 Y-1.8
G01 Y1.599
G01 Y2.799
G01 Y3.399
G01 Y5.199
G01 Y6.799
G01 Y8.199
G01 Y8.799
G01 Y9.399
G01 Y9.999
G01 Y10.599
G01 Y11.199
G01 Y11.799
G01 Y12.399
G01 Y12.999
G01 Y13.599
G01 Y14.199
G01 Y14.799
G01 Y14.999
G01 Y15.199 Z-0.587
G01 Y15.799
G01 Y16.399
G01 Y16.999
G01 Y17.199
G01 X0.3
G01 Y16.599
G01 Y15.999
G01 Y15.399
G01 Y15.199
G01 Y14.999 Z-0.587
G01 Y14.399
G01 Y13.799
G01 Y13.199
G01 Y12.599
G01 Y11.999
G01 Y11.399
G01 Y10.799
G01 Y10.199
G01 Y9.599
G01 Y8.999
G01 Y8.399
G01 Y7.799
G01 Y6.199
G01 Y4.599
G01 Y3.799
G01 Y3.199
G01 Y2.599
G01 Y1.999
G01 Y-1.4
G01 Y-2.6
G01 Y-3.2
G01 Y-3.8
G01 Y-4.2
G01 Y-4.4 Z-0.587
G01 Y-4.6 Z-0.587
G01 Y-6
G01 Y-6.2 Z-0.587
G01 Y-6.4 Z-0.587
G01 Y-9
G01 Y-9.6
G01 Y-10.2
G01 Y-10.8
G01 Y-11.4
G01 Y-12
G01 Y-12.6
G01 Y-13.2
G01 Y-13.8
G01 Y-14.4
G01 Y-15
G01 Y-15.2 Z-0.587
G01 Y-15.8
G01 Y-16.4
G01 Y-17
G01 Y-17.2
G01 X0.45
G01 Y-16.6
G01 Y-16
G01 Y-15.4
G01 Y-15.2
G01 Y-15 Z-0.587
G01 Y-14.4
G01 Y-13.8
G01 Y-13.2
G01 Y-12.6
G01 Y-12
G01 Y-11.4
G01 Y-10.8
G01 Y-10.2
G01 Y-9.6
G01 Y-9
G01 Y-8.4
G01 Y-7.8
G01 Y-6.2
G01 Y-4.6
G01 Y-1.6
G01 Y1.399
G01 Y1.599 Z-0.587
G01 Y1.799 Z-0.587
G01 Y2.399
G01 Y2.999
G01 Y3.199 Z-0.587
G01 Y3.399 Z-0.587
G01 Y4.199
G01 Y4.399 Z-0.587
G01 Y4.599 Z-0.587
G01 Y6.199
G01 Y8.799
G01 Y9.399
G01 Y9.999
G01 Y10.599
G01 Y11.199
G01 Y11.799
G01 Y12.399
G01 Y12.999
G01 Y13.599
G01 Y14.199
G01 Y14.799
G01 Y14.999
G01 Y15.199 Z-0.587
G01 Y15.799
G01 Y16.399
G01 Y16.999
G01 Y17.199
G01 X0.6
G01 Y16.599
G01 Y15.999
G01 Y15.399
G01 Y15.199
G01 Y14.999 Z-0.587
G01 Y14.399
G01 Y13.799
G01 Y13.199
G01 Y12.599
G01 Y11.999
G01 Y11.399
G01 Y10.799
G01 Y10.199
G01 Y9.599
G01 Y8.999
G01 Y8.399
G01 Y7.799
G01 Y6.199
G01 Y4.599
G01 Y3.799
G01 Y3.199
G01 Y2.599
G01 Y1.999
G01 Y-1.4
G01 Y-2
G01 Y-2.2 Z-0.587
G01 Y-2.4 Z-0.587
G01 Y-3
G01 Y-3.6
G01 Y-5.4
G01 Y-7
G01 Y-8.4
G01 Y-9
G01 Y-9.6
G01 Y-10.2
G01 Y-10.8
G01 Y-11.4
G01 Y-12
G01 Y-12.6
G01 Y-13.2
G01 Y-13.8
G01 Y-14.4
G01 Y-15
G01 Y-15.2 Z-0.587
G01 Y-15.8
G01 Y-16.4
G01 Y-17
G01 Y-17.2
G01 X0.75
G01 Y-16.6
G01 Y-16
G01 Y-15.4
G01 Y-15.2
G01 Y-15 Z-0.587
G01 Y-14.4
G01 Y-13.8
G01 Y-13.2
G01 Y-12.6
G01 Y-12
G01 Y-11.4
G01 Y-10.8
G01 Y-10.2
G01 Y-9.6
G01 Y-9
G01 Y-8.4
G01 Y-7.8
G01 Y-6.2
G01 Y-4.6
G01 Y-3.2
G01 Y-3 Z-0.587
G01 Y-2.8 Z-0.587
G01 Y-2.2
G01 Y-0.6
G01 Y0.999
G01 Y2.399
G01 Y2.599 Z-0.587
G01 Y2.799 Z-0.587
G01 Y3.399
G01 Y5.199
G01 Y5.799
G01 Y5.999 Z-0.587
G01 Y6.199 Z-0.587
G01 Y8.799
G01 Y9.399
G01 Y9.999
G01 Y10.599
G01 Y11.199
G01 Y11.799
G01 Y12.399
G01 Y12.999
G01 Y13.599
G01 Y14.199
G01 Y14.799
G01 Y14.999
G01 Y15.199 Z-0.587
G01 Y15.799
G01 Y16.399
G01 Y16.999
G01 Y17.199
G01 X0.9
G01 Y16.599
G01 Y15.999
G01 Y15.399
G01 Y15.199
G01 Y14.999 Z-0.587
G01 Y14.399
G01 Y13.799
G01 Y13.199
G01 Y12.599
G01 Y11.999
G01 Y11.399
G01 Y10.799
G01 Y10.199
G01 Y9.599
G01 Y8.999
G01 Y8.399
G01 Y7.799
G01 Y7.599 Z-0.587
G01 Y7.399 Z-0.587
G01 Y5.799
G01 Y5.199
G01 Y4.999 Z-0.587
G01 Y4.799 Z-0.587
G01 Y3.799
G01 Y3.599 Z-0.587
G01 Y3.399 Z-0.587
G01 Y2.799
G01 Y2.199
G01 Y1.599
G01 Y0
G01 Y-2.8
G01 Y-3 Z-0.587
G01 Y-3.2 Z-0.587
G01 Y-3.6
G01 Y-3.8 Z-0.587
G01 Y-4 Z-0.587
G01 Y-5.6
G01 Y-7.2
G01 Y-8.4
G01 Y-9
G01 Y-9.6
G01 Y-10.2
G01 Y-10.8
G01 Y-11.4
G01 Y-12
G01 Y-12.6
G01 Y-13.2
G01 Y-13.8
G01 Y-14.4
G01 Y-15
G01 Y-15.2 Z-0.587
G01 Y-15.8
G01 Y-16.4
G01 Y-17
G01 Y-17.2
G01 X1.05
G01 Y-16.6
G01 Y-16
G01 Y-15.4
G01 Y-15.2
G01 Y-15 Z-0.587
G01 Y-14.4
G01 Y-13.8
G01 Y-13.2
G01 Y-12.6
G01 Y-12
G01 Y-11.4
G01 Y-10.8
G01 Y-10.2
G01 Y-9.6
G01 Y-9
G01 Y-8.4
G01 Y-7.8
G01 Y-6.2
G01 Y-4.6
G01 Y-1.6
G01 Y1.799
G01 Y2.399
G01 Y2.999
G01 Y3.199 Z-0.587
G01 Y3.399 Z-0.587
G01 Y3.599 Z-0.587
G01 Y3.799 Z-0.587
G01 Y5.399
G01 Y5.599
G01 Y5.799 Z-0.587
G01 Y5.999 Z-0.587
G01 Y7.599
G01 Y8.199
G01 Y8.799
G01 Y9.399
G01 Y9.999
G01 Y10.599
G01 Y11.199
G01 Y11.799
G01 Y12.399
G01 Y12.999
G01 Y13.599
G01 Y14.199
G01 Y14.799
G01 Y14.999
G01 Y15.199 Z-0.587
G01 Y15.799
G01 Y16.399
G01 Y16.999
G01 Y17.199
G01 X1.2
G01 Y16.599
G01 Y15.999
G01 Y15.399
G01 Y15.199
G01 Y14.999 Z-0.587
G01 Y14.399
G01 Y13.799
G01 Y13.199
G01 Y12.599
G01 Y11.999
G01 Y11.399
G01 Y10.799
G01 Y10.199
G01 Y9.599
G01 Y8.999
G01 Y8.399
G01 Y7.799
G01 Y6.199
G01 Y4.599
G01 Y3.799
G01 Y3.199
G01 Y2.599
G01 Y1.999
G01 Y-1.4
G01 Y-2.6
G01 Y-3.2
G01 Y-3.8
G01 Y-4.6
G01 Y-6.2
G01 Y-7.8
G01 Y-8.4
G01 Y-9
G01 Y-9.6
G01 Y-10.2
G01 Y-10.8
G01 Y-11.4
G01 Y-12
G01 Y-12.6
G01 Y-13.2
G01 Y-13.8
G01 Y-14.4
G01 Y-15
G01 Y-15.2 Z-0.587
G01 Y-15.8
G01 Y-16.4
G01 Y-17
G01 Y-17.2
G01 X1.35
G01 Y-16.6
G01 Y-16
G01 Y-15.4
G01 Y-15.2
G01 Y-15 Z-0.587
G01 Y-14.4
G01 Y-13.8
G01 Y-13.2
G01 Y-12.6
G01 Y-12
G01 Y-11.4
G01 Y-10.8
G01 Y-10.2
G01 Y-9.6
G01 Y-9
G01 Y-8.4
G01 Y-7.8
G01 Y-6.2
G01 Y-4.6
G01 Y-1.6
G01 Y1.799
G01 Y2.399
G01 Y2.999
G01 Y3.599
G01 Y4.399
G01 Y5.999
G01 Y7.599
G01 Y8.199
G01 Y8.799
G01 Y9.399
G01 Y9.999
G01 Y10.599
G01 Y11.199
G01 Y11.799
G01 Y12.399
G01 Y12.999
G01 Y13.599
G01 Y14.199
G01 Y14.799
G01 Y14.999
G01 Y15.199 Z-0.587
G01 Y15.799
G01 Y16.399
G01 Y16.999
G01 Y17.199
G01 X1.5
G01 Y16.599
G01 Y15.999
G01 Y15.399
G01 Y15.199
G01 Y14.999 Z-0.587
G01 Y14.399
G01 Y13.799
G01 Y13.199
G01 Y12.599
G01 Y11.999
G01 Y11.399
G01 Y10.799
G01 Y10.199
G01 Y9.599
G01 Y8.999
G01 Y8.399
G01 Y7.799
G01 Y6.599
G01 Y6.399 Z-0.587
G01 Y6.199 Z-0.587
G01 Y4.599
G01 Y3.799
G01 Y3.199
G01 Y2.599
G01 Y1.999
G01 Y-1.4
G01 Y-2.6
G01 Y-3.2
G01 Y-3.8
G01 Y-4.6
G01 Y-6.2
G01 Y-7.8
G01 Y-8.4
G01 Y-9
G01 Y-9.6
G01 Y-10.2
G01 Y-10.8
G01 Y-11.4
G01 Y-12
G01 Y-12.6
G01 Y-13.2
G01 Y-13.8
G01 Y-14.4
G01 Y-15
G01 Y-15.2 Z-0.587
G01 Y-15.8
G01 Y-16.4
G01 Y-17
G01 Y-17.2
G01 X1.65
G01 Y-16.6
G01 Y-16
G01 Y-15.4
G01 Y-15.2
G01 Y-15 Z-0.587
G01 Y-14.4
G01 Y-13.8
G01 Y-13.2
G01 Y-12.6
G01 Y-12
G01 Y-11.4
G01 Y-10.8
G01 Y-10.2
G01 Y-9.6
G01 Y-9
G01 Y-8.4
G01 Y-7.8
G01 Y-6.2
G01 Y-4.6
G01 Y-1.6
G01 Y1.799
G01 Y2.399
G01 Y2.999
G01 Y3.599
G01 Y4.199
G01 Y4.399 Z-0.587
G01 Y4.599 Z-0.587
G01 Y6.199
G01 Y6.799
G01 Y6.999 Z-0.587
G01 Y7.199 Z-0.587
G01 Y8.599
G01 Y9.199
G01 Y9.799
G01 Y10.399
G01 Y10.999
G01 Y11.599
G01 Y12.199
G01 Y12.799
G01 Y13.399
G01 Y13.999
G01 Y14.599
G01 Y14.999
G01 Y15.199 Z-0.587
G01 Y15.799
G01 Y16.399
G01 Y16.999
G01 Y17.199
G01 X1.8
G01 Y16.599
G01 Y15.999
G01 Y15.399
G01 Y15.199
G01 Y14.999 Z-0.587
G01 Y14.399
G01 Y13.799
G01 Y13.199
G01 Y12.799
G01 Y12.599 Z-0.587
G01 Y12.399 Z-0.587
G01 Y11.799
G01 Y11.199
G01 Y10.599
G01 Y9.999
G01 Y9.399
G01 Y8.799
G01 Y8.199
G01 Y7.599
G01 Y5.999
G01 Y4.399
G01 Y1.399
G01 Y-0.2
G01 Y-3.2
G01 Y-3.8
G01 Y-4.6
G01 Y-6.2
G01 Y-7.8
G01 Y-8.4
G01 Y-9
G01 Y-9.6
G01 Y-10.2
G01 Y-10.8
G01 Y-11.4
G01 Y-12
G01 Y-12.6
G01 Y-13.2
G01 Y-13.8
G01 Y-14.4
G01 Y-15
G01 Y-15.2 Z-0.587
G01 Y-15.8
G01 Y-16.4
G01 Y-17
G01 Y-17.2
G01 X1.95
G01 Y-16.6
G01 Y-16
G01 Y-15.4
G01 Y-15.2
G01 Y-15 Z-0.587
G01 Y-14.4
G01 Y-13.8
G01 Y-13.2
G01 Y-12.6
G01 Y-12
G01 Y-11.4
G01 Y-10.8
G01 Y-10.2
G01 Y-9.6
G01 Y-9
G01 Y-8.4
G01 Y-7.8
G01 Y-6.2
G01 Y-4.6
G01 Y-1.6
G01 Y1.799
G01 Y2.399
G01 Y2.599 Z-0.587
G01 Y2.799 Z-0.587
G01 Y3.399
G01 Y5.199
G01 Y6.799
G01 Y8.199
G01 Y8.799
G01 Y9.399
G01 Y9.999
G01 Y10.599
G01 Y11.199
G01 Y11.799
G01 Y12.399
G01 Y12.999
G01 Y13.599
G01 Y14.199
G01 Y14.799
G01 Y14.999
G01 Y15.199 Z-0.587
G01 Y15.799
G01 Y16.399
G01 Y16.999
G01 Y17.199
G01 X2.1
G01 Y16.599
G01 Y15.999
G01 Y15.399
G01 Y15.199
G01 Y14.999 Z-0.587
G01 Y14.399
G01 Y13.799
G01 Y13.199
G01 Y12.799
G01 Y12.599 Z-0.587
G01 Y12.399 Z-0.587
G01 Y11.799
G01 Y11.199
G01 Y10.599
G01 Y9.999
G01 Y9.399
G01 Y9.199 Z-0.587
G01 Y8.999 Z-0.587
G01 Y8.399
G01 Y7.799
G01 Y6.199
G01 Y5.999 Z-0.587
G01 Y5.799 Z-0.587
G01 Y4.199
G01 Y3.399
G01 Y3.199 Z-0.587
G01 Y2.999 Z-0.587
G01 Y2.399
G01 Y0.999
G01 Y0.399
G01 Y0.199 Z-0.587
G01 Y0 Z-0.587
G01 Y-2.4
G01 Y-2.6 Z-0.587
G01 Y-2.8 Z-0.587
G01 Y-3.4
G01 Y-4
G01 Y-5.6
G01 Y-7.2
G01 Y-8.4
G01 Y-9
G01 Y-9.6
G01 Y-10.2
G01 Y-10.8
G01 Y-11.4
G01 Y-12
G01 Y-12.6
G01 Y-13.2
G01 Y-13.8
G01 Y-14.4
G01 Y-15
G01 Y-15.2 Z-0.587
G01 Y-15.8
G01 Y-16.4
G01 Y-17
G01 Y-17.2
G01 X2.25
G01 Y-16.6
G01 Y-16
G01 Y-15.4
G01 Y-15.2
G01 Y-15 Z-0.587
G01 Y-14.4
G01 Y-13.8
G01 Y-13.2
G01 Y-12.6
G01 Y-12
G01 Y-11.4
G01 Y-10.8
G01 Y-10.2
G01 Y-9.6
G01 Y-9
G01 Y-8.4
G01 Y-7.8
G01 Y-6.2
G01 Y-4.6
G01 Y-1.6
G01 Y1.799
G01 Y2.399
G01 Y2.999
G01 Y3.599
G01 Y3.799
G01 Y3.999 Z-0.587
G01 Y4.199 Z-0.587
G01 Y5.799
G01 Y7.399
G01 Y7.599 Z-0.587
G01 Y7.799 Z-0.587
G01 Y8.399
G01 Y8.999
G01 Y9.599
G01 Y10.199
G01 Y10.799
G01 Y11.399
G01 Y11.999
G01 Y12.399
G01 Y12.599 Z-0.587
G01 Y12.799 Z-0.587
G01 Y13.399
G01 Y13.999
G01 Y14.599
G01 Y14.999
G01 Y15.199 Z-0.587
G01 Y15.799
G01 Y16.399
G01 Y16.999
G01 Y17.199
G01 X2.4
G01 Y16.599
G01 Y15.999
G01 Y15.399
G01 Y15.199
G01 Y14.999 Z-0.587
G01 Y14.399
G01 Y13.799
G01 Y13.199
G01 Y12.799
G01 Y12.599 Z-0.587
G01 Y12.399 Z-0.587
G01 Y11.799
G01 Y11.199
G01 Y10.599
G01 Y9.999
G01 Y9.399
G01 Y8.799
G01 Y8.199
G01 Y7.599
G01 Y5.999
G01 Y4.399
G01 Y1.399
G01 Y-0.2
G01 Y-3.2
G01 Y-3.8
G01 Y-4.6
G01 Y-6.2
G01 Y-7.8
G01 Y-8.4
G01 Y-9
G01 Y-9.6
G01 Y-10.2
G01 Y-10.8
G01 Y-11.4
G01 Y-12
G01 Y-12.6
G01 Y-13.2
G01 Y-13.8
G01 Y-14.4
G01 Y-15
G01 Y-15.2 Z-0.587
G01 Y-15.8
G01 Y-16.4
G01 Y-17
G01 Y-17.2
G01 X2.55
G01 Y-16.6
G01 Y-16
G01 Y-15.4
G01 Y-15.2
G01 Y-15 Z-0.587
G01 Y-14.4
G01 Y-13.8
G01 Y-13.2
G01 Y-12.6
G01 Y-12
G01 Y-11.4
G01 Y-10.8
G01 Y-10.2
G01 Y-9.6
G01 Y-9
G01 Y-8.4
G01 Y-7.8
G01 Y-6.2
G01 Y-4.6
G01 Y-1.6
G01 Y1.799
G01 Y2.399
G01 Y2.999
G01 Y3.199 Z-0.587
G01 Y3.399 Z-0.587
G01 Y3.799
G01 Y3.999 Z-0.587
G01 Y4.199 Z-0.587
G01 Y5.199
G01 Y5.399 Z-0.587
G01 Y5.599 Z-0.587
G01 Y5.799
G01 Y5.999 Z-0.587
G01 Y6.199 Z-0.587
G01 Y8.799
G01 Y9.399
G01 Y9.999
G01 Y10.599
G01 Y11.199
G01 Y11.799
G01 Y12.399
G01 Y12.999
G01 Y13.599
G01 Y14.199
G01 Y14.799
G01 Y14.999
G01 Y15.199 Z-0.587
G01 Y15.799
G01 Y16.399
G01 Y16.999
G01 Y17.199
G01 X2.7
G01 Y16.599
G01 Y15.999
G01 Y15.399
G01 Y15.199
G01 Y14.999 Z-0.587
G01 Y14.399
G01 Y13.799
G01 Y13.199
G01 Y12.599
G01 Y11.999
G01 Y11.399
G01 Y10.799
G01 Y10.199
G01 Y9.599
G01 Y8.999
G01 Y8.399
G01 Y7.799
G01 Y6.599
G01 Y6.399 Z-0.587
G01 Y6.199 Z-0.587
G01 Y4.599
G01 Y3.799
G01 Y3.199
G01 Y2.599
G01 Y1.999
G01 Y-1.4
G01 Y-2.6
G01 Y-3.2
G01 Y-3.8
G01 Y-4.6
G01 Y-6.2
G01 Y-7.8
G01 Y-8.4
G01 Y-9
G01 Y-9.6
G01 Y-10.2
G01 Y-10.8
G01 Y-11.4
G01 Y-12
G01 Y-12.6
G01 Y-13.2
G01 Y-13.8
G01 Y-14.4
G01 Y-15
G01 Y-15.2 Z-0.587
G01 Y-15.8
G01 Y-16.4
G01 Y-17
G01 Y-17.2
G01 X2.85
G01 Y-16.6
G01 Y-16
G01 Y-15.4
G01 Y-15.2
G01 Y-15 Z-0.587
G01 Y-14.4
G01 Y-13.8
G01 Y-13.2
G01 Y-12.6
G01 Y-12
G01 Y-11.4
G01 Y-10.8
G01 Y-10.2
G01 Y-9.6
G01 Y-9
G01 Y-8.4
G01 Y-7.8
G01 Y-6.2
G01 Y-4.6
G01 Y-1.6
G01 Y1.799
G01 Y2.399
G01 Y2.999
G01 Y3.599
G01 Y3.799
G01 Y3.999 Z-0.587
G01 Y4.199 Z-0.587
G01 Y5.799
G01 Y7.399
G01 Y7.599 Z-0.587
G01 Y7.799 Z-0.587
G01 Y7.999
G01 Y8.199 Z-0.587
G01 Y8.399 Z-0.587
G01 Y8.799
G01 Y8.999 Z-0.587
G01 Y9.199 Z-0.587
G01 Y9.799
G01 Y10.399
G01 Y10.999
G01 Y11.599
G01 Y12.199
G01 Y12.399
G01 Y12.599 Z-0.587
G01 Y12.799 Z-0.587
G01 Y13.399
G01 Y13.999
G01 Y14.199 Z-0.587
G01 Y14.399 Z-0.587
G01 Y14.999
G01 Y15.199 Z-0.587
G01 Y15.799
G01 Y16.399
G01 Y16.999
G01 Y17.199
G01 X3
G01 Y16.599
G01 Y15.999
G01 Y15.399
G01 Y15.199
G01 Y14.999 Z-0.587
G01 Y14.399
G01 Y13.799
G01 Y13.199
G01 Y12.599
G01 Y11.999
G01 Y11.399
G01 Y10.799
G01 Y10.199
G01 Y9.599
G01 Y8.999
G01 Y8.399
G01 Y7.799
G01 Y7.199
G01 Y6.999 Z-0.587
G01 Y6.799 Z-0.587
G01 Y5.199
G01 Y1.799
G01 Y0.199
G01 Y-5.4
G01 Y-7
G01 Y-8.4
G01 Y-9
G01 Y-9.6
G01 Y-10.2
G01 Y-10.8
G01 Y-11.4
G01 Y-12
G01 Y-12.6
G01 Y-13.2
G01 Y-13.8
G01 Y-14.4
G01 Y-15
G01 Y-15.2 Z-0.587
G01 Y-15.8
G01 Y-16.4
G01 Y-17
G01 Y-17.2
G01 X3.15
G01 Y-16.6
G01 Y-16
G01 Y-15.4
G01 Y-15.2
G01 Y-15 Z-0.587
G01 Y-14.4
G01 Y-13.8
G01 Y-13.2
G01 Y-12.6
G01 Y-12
G01 Y-11.4
G01 Y-10.8
G01 Y-10.2
G01 Y-9.6
G01 Y-9
G01 Y-8.4
G01 Y-7.8
G01 Y-6.2
G01 Y-4.6
G01 Y-1.6
G01 Y1.799
G01 Y2.399
G01 Y2.999
G01 Y3.599
G01 Y4.399
G01 Y5.999
G01 Y7.599
G01 Y8.199
G01 Y8.799
G01 Y9.399
G01 Y9.999
G01 Y10.599
G01 Y11.199
G01 Y11.799
G01 Y12.399
G01 Y12.999
G01 Y13.599
G01 Y14.199
G01 Y14.799
G01 Y14.999
G01 Y15.199 Z-0.587
G01 Y15.799
G01 Y16.399
G01 Y16.999
G01 Y17.199
G01 X3.3
G01 Y16.599
G01 Y15.999
G01 Y15.399
G01 Y15.199
G01 Y14.999 Z-0.587
G01 Y14.399
G01 Y13.799
G01 Y13.199
G01 Y12.599
G01 Y11.999
G01 Y11.399
G01 Y10.799
G01 Y10.199
G01 Y9.599
G01 Y8.999
G01 Y8.399
G01 Y7.799
G01 Y6.199
G01 Y4.599
G01 Y3.799
G01 Y3.199
G01 Y2.599
G01 Y1.999
G01 Y-1.4
G01 Y-2.6
G01 Y-3.2
G01 Y-3.8
G01 Y-4.6
G01 Y-6.2
G01 Y-7.8
G01 Y-8.4
G01 Y-9
G01 Y-9.6
G01 Y-10.2
G01 Y-10.8
G01 Y-11.4
G01 Y-12
G01 Y-12.6
G01 Y-13.2
G01 Y-13.8
G01 Y-14.4
G01 Y-15
G01 Y-15.2 Z-0.587
G01 Y-15.8
G01 Y-16.4
G01 Y-17
G01 Y-17.2
G01 X3.45
G01 Y-16.6
G01 Y-16
G01 Y-15.4
G01 Y-15.2
G01 Y-15 Z-0.587
G01 Y-14.4
G01 Y-13.8
G01 Y-13.2
G01 Y-12.6
G01 Y-12
G01 Y-11.4
G01 Y-10.8
G01 Y-10.2
G01 Y-9.6
G01 Y-9
G01 Y-8.4
G01 Y-7.8
G01 Y-6.2
G01 Y-4.6
G01 Y-1.6
G01 Y1.799
G01 Y2.399
G01 Y2.999
G01 Y3.599
G01 Y4.199
G01 Y4.399 Z-0.587
G01 Y4.599 Z-0.587
G01 Y6.199
G01 Y6.799
G01 Y6.999 Z-0.587
G01 Y7.199 Z-0.587
G01 Y8.599
G01 Y9.199
G01 Y9.799
G01 Y10.399
G01 Y10.999
G01 Y11.599
G01 Y12.199
G01 Y12.799
G01 Y13.399
G01 Y13.999
G01 Y14.599
G01 Y14.999
G01 Y15.199 Z-0.587
G01 Y15.799
G01 Y16.399
G01 Y16.999
G01 Y17.199
G01 X3.6
G01 Y16.599
G01 Y15.999
G01 Y15.399
G01 Y15.199
G01 Y14.999 Z-0.587
G01 Y14.399
G01 Y13.799
G01 Y13.199
G01 Y12.599
G01 Y11.999
G01 Y11.399
G01 Y10.799
G01 Y10.199
G01 Y9.599
G01 Y8.999
G01 Y8.399
G01 Y7.799
G01 Y7.599 Z-0.587
G01 Y7.399 Z-0.587
G01 Y7.199
G01 Y6.999 Z-0.587
G01 Y6.799 Z-0.587
G01 Y5.199
G01 Y4.599
G01 Y4.399 Z-0.587
G01 Y4.199 Z-0.587
G01 Y2.799
G01 Y2.199
G01 Y1.599
G01 Y0
G01 Y-5.6
G01 Y-7.2
G01 Y-8.4
G01 Y-9
G01 Y-9.6
G01 Y-10.2
G01 Y-10.8
G01 Y-11.4
G01 Y-12
G01 Y-12.6
G01 Y-13.2
G01 Y-13.8
G01 Y-14.4
G01 Y-15
G01 Y-15.2 Z-0.587
G01 Y-15.8
G01 Y-16.4
G01 Y-17
G01 Y-17.2
G01 X3.75
G01 Y-16.6
G01 Y-16
G01 Y-15.4
G01 Y-15.2
G01 Y-15 Z-0.587
G01 Y-14.4
G01 Y-13.8
G01 Y-13.2
G01 Y-12.6
G01 Y-12
G01 Y-11.4
G01 Y-10.8
G01 Y-10.2
G01 Y-9.6
G01 Y-9
G01 Y-8.4
G01 Y-7.8
G01 Y-6.2
G01 Y-4.6
G01 Y-1.6
G01 Y1.799
G01 Y2.399
G01 Y2.999
G01 Y3.599
G01 Y4.199
G01 Y4.399 Z-0.587
G01 Y4.599 Z-0.587
G01 Y6.199
G01 Y6.399
G01 Y6.599 Z-0.587
G01 Y6.799 Z-0.587
G01 Y8.199
G01 Y8.799
G01 Y9.399
G01 Y9.999
G01 Y10.599
G01 Y11.199
G01 Y11.799
G01 Y12.399
G01 Y12.999
G01 Y13.599
G01 Y14.199
G01 Y14.799
G01 Y14.999
G01 Y15.199 Z-0.587
G01 Y15.799
G01 Y16.399
G01 Y16.999
G01 Y17.199
G01 X3.9
G01 Y16.599
G01 Y15.999
G01 Y15.399
G01 Y15.199
G01 Y14.999 Z-0.587
G01 Y14.399
G01 Y13.799
G01 Y13.199
G01 Y12.599
G01 Y11.999
G01 Y11.399
G01 Y10.799
G01 Y10.199
G01 Y9.599
G01 Y8.999
G01 Y8.399
G01 Y7.799
G01 Y6.199
G01 Y4.599
G01 Y3.799
G01 Y3.199
G01 Y2.599
G01 Y1.999
G01 Y-1.4
G01 Y-2.6
G01 Y-3.2
G01 Y-3.8
G01 Y-4.6
G01 Y-6.2
G01 Y-7.8
G01 Y-8.4
G01 Y-9
G01 Y-9.6
G01 Y-10.2
G01 Y-10.8
G01 Y-11.4
G01 Y-12
G01 Y-12.6
G01 Y-13.2
G01 Y-13.8
G01 Y-14.4
G01 Y-15
G01 Y-15.2 Z-0.587
G01 Y-15.8
G01 Y-16.4
G01 Y-17
G01 Y-17.2
G01 X4.05
G01 Y-16.6
G01 Y-16
G01 Y-15.4
G01 Y-15.2
G01 Y-15 Z-0.587
G01 Y-14.4
G01 Y-13.8
G01 Y-13.2
G01 Y-12.6
G01 Y-12
G01 Y-11.4
G01 Y-10.8
G01 Y-10.2
G01 Y-9.6
G01 Y-9
G01 Y-8.4
G01 Y-7.8
G01 Y-6.2
G01 Y-4.6
G01 Y-1.6
G01 Y1.799
G01 Y2.399
G01 Y2.999
G01 Y3.599
G01 Y4.399
G01 Y5.999
G01 Y7.599
G01 Y8.199
G01 Y8.799
G01 Y9.399
G01 Y9.999
G01 Y10.599
G01 Y11.199
G01 Y11.799
G01 Y12.399
G01 Y12.999
G01 Y13.599
G01 Y14.199
G01 Y14.799
G01 Y14.999
G01 Y15.199 Z-0.587
G01 Y15.799
G01 Y16.399
G01 Y16.999
G01 Y17.199
G01 X4.2
G01 Y16.599
G01 Y15.999
G01 Y15.399
G01 Y15.199
G01 Y14.999 Z-0.587
G01 Y14.399
G01 Y13.799
G01 Y13.199
G01 Y12.599
G01 Y11.999
G01 Y11.399
G01 Y10.799
G01 Y10.199
G01 Y9.599
G01 Y8.999
G01 Y8.399
G01 Y7.799
G01 Y7.599 Z-0.587
G01 Y7.399 Z-0.587
G01 Y5.799
G01 Y4.199
G01 Y2.799
G01 Y2.399
G01 Y2.199 Z-0.587
G01 Y1.999 Z-0.587
G01 Y-1.4
G01 Y-2.6
G01 Y-3.2
G01 Y-3.8
G01 Y-4.6
G01 Y-6.2
G01 Y-7.8
G01 Y-8.4
G01 Y-9
G01 Y-9.6
G01 Y-10.2
G01 Y-10.8
G01 Y-11.4
G01 Y-12
G01 Y-12.6
G01 Y-13.2
G01 Y-13.8
G01 Y-14.4
G01 Y-15
G01 Y-15.2 Z-0.587
G01 Y-15.8
G01 Y-16.4
G01 Y-17
G01 Y-17.2
G01 X4.35
G01 Y-16.6
G01 Y-16
G01 Y-15.4
G01 Y-15.2
G01 Y-15 Z-0.587
G01 Y-14.4
G01 Y-13.8
G01 Y-13.2
G01 Y-12.6
G01 Y-12
G01 Y-11.4
G01 Y-10.8
G01 Y-10.2
G01 Y-9.6
G01 Y-9
G01 Y-8.4
G01 Y-7.8
G01 Y-6.2
G01 Y-4.6
G01 Y-1.6
G01 Y1.799
G01 Y2.399
G01 Y2.999
G01 Y3.599
G01 Y4.399
G01 Y5.999
G01 Y7.599
G01 Y8.199
G01 Y8.799
G01 Y9.399
G01 Y9.999
G01 Y10.599
G01 Y11.199
G01 Y11.799
G01 Y12.399
G01 Y12.999
G01 Y13.599
G01 Y14.199
G01 Y14.799
G01 Y14.999
G01 Y15.199 Z-0.587
G01 Y15.799
G01 Y16.399
G01 Y16.999
G01 Y17.199
G01 X4.5
G01 Y16.599
G01 Y15.999
G01 Y15.399
G01 Y15.199
G01 Y14.999 Z-0.587
G01 Y14.399
G01 Y13.799
G01 Y13.199
G01 Y12.599
G01 Y11.999
G01 Y11.399
G01 Y10.799
G01 Y10.199
G01 Y9.599
G01 Y8.999
G01 Y8.399
G01 Y7.799
G01 Y6.199
G01 Y4.599
G01 Y3.799
G01 Y3.199
G01 Y2.599
G01 Y1.999
G01 Y0.999
G01 Y0.799 Z-0.587
G01 Y0.599 Z-0.587
G01 Y-1
G01 Y-3.6
G01 Y-5.4
G01 Y-7
G01 Y-8.4
G01 Y-9
G01 Y-9.6
G01 Y-10.2
G01 Y-10.8
G01 Y-11.4
G01 Y-12
G01 Y-12.6
G01 Y-13.2
G01 Y-13.8
G01 Y-14.4
G01 Y-15
G01 Y-15.2 Z-0.587
G01 Y-15.8
G01 Y-16.4
G01 Y-17
G01 Y-17.2
G01 X4.65
G01 Y-16.6
G01 Y-16
G01 Y-15.4
G01 Y-15.2
G01 Y-15 Z-0.587
G01 Y-14.4
G01 Y-13.8
G01 Y-13.2
G01 Y-12.6
G01 Y-12
G01 Y-11.4
G01 Y-10.8
G01 Y-10.2
G01 Y-9.6
G01 Y-9
G01 Y-8.4
G01 Y-7.8
G01 Y-6.2
G01 Y-4.6
G01 Y-1.6
G01 Y1.799
G01 Y2.399
G01 Y2.999
G01 Y3.599
G01 Y4.399
G01 Y5.999
G01 Y7.599
G01 Y8.199
G01 Y8.399 Z-0.587
G01 Y8.599 Z-0.587
G01 Y9.199
G01 Y9.799
G01 Y10.399
G01 Y10.999
G01 Y11.599
G01 Y12.199
G01 Y12.799
G01 Y13.399
G01 Y13.999
G01 Y14.599
G01 Y14.999
G01 Y15.199 Z-0.587
G01 Y15.799
G01 Y16.399
G01 Y16.999
G01 Y17.199
G01 X4.8
G01 Y16.599
G01 Y15.999
G01 Y15.399
G01 Y15.199
G01 Y14.999 Z-0.587
G01 Y14.399
G01 Y13.799
G01 Y13.199
G01 Y12.599
G01 Y11.999
G01 Y11.399
G01 Y10.799
G01 Y10.199
G01 Y9.599
G01 Y8.999
G01 Y8.399
G01 Y7.799
G01 Y6.199
G01 Y4.599
G01 Y3.799
G01 Y3.199
G01 Y2.599
G01 Y1.999
G01 Y0.799
G01 Y0.599 Z-0.587
G01 Y0.399 Z-0.587
G01 Y-1.2
G01 Y-2.6
G01 Y-3.2
G01 Y-3.8
G01 Y-4.6
G01 Y-6.2
G01 Y-7.8
G01 Y-8.4
G01 Y-9
G01 Y-9.6
G01 Y-10.2
G01 Y-10.8
G01 Y-11.4
G01 Y-12
G01 Y-12.6
G01 Y-13.2
G01 Y-13.8
G01 Y-14.4
G01 Y-15
G01 Y-15.2 Z-0.587
G01 Y-15.8
G01 Y-16.4
G01 Y-17
G01 Y-17.2
G01 X4.95
G01 Y-16.6
G01 Y-16
G01 Y-15.4
G01 Y-15.2
G01 Y-15 Z-0.587
G01 Y-14.4
G01 Y-13.8
G01 Y-13.2
G01 Y-12.6
G01 Y-12
G01 Y-11.4
G01 Y-10.8
G01 Y-10.2
G01 Y-9.6
G01 Y-9
G01 Y-8.4
G01 Y-7.8
G01 Y-6.2
G01 Y-4.6
G01 Y-1.6
G01 Y1.799
G01 Y2.399
G01 Y2.999
G01 Y3.599
G01 Y4.399
G01 Y5.999
G01 Y6.799
G01 Y6.999 Z-0.587
G01 Y7.199 Z-0.587
G01 Y8.599
G01 Y9.199
G01 Y9.799
G01 Y10.399
G01 Y10.999
G01 Y11.599
G01 Y12.199
G01 Y12.799
G01 Y13.399
G01 Y13.999
G01 Y14.599
G01 Y14.999
G01 Y15.199 Z-0.587
G01 Y15.799
G01 Y16.399
G01 Y16.999
G01 Y17.199
G01 X5.1
G01 Y16.599
G01 Y15.999
G01 Y15.399
G01 Y15.199
G01 Y14.999 Z-0.587
G01 Y14.399
G01 Y13.799
G01 Y13.199
G01 Y12.599
G01 Y11.999
G01 Y11.399
G01 Y10.799
G01 Y10.199
G01 Y9.599
G01 Y8.999
G01 Y8.399
G01 Y7.799
G01 Y6.199
G01 Y4.599
G01 Y3.799
G01 Y3.199
G01 Y2.599
G01 Y1.999
G01 Y-1.4
G01 Y-2.6
G01 Y-3.2
G01 Y-3.8
G01 Y-4.6
G01 Y-6.2
G01 Y-7.8
G01 Y-8.4
G01 Y-9
G01 Y-9.6
G01 Y-10.2
G01 Y-10.8
G01 Y-11.4
G01 Y-12
G01 Y-12.6
G01 Y-13.2
G01 Y-13.8
G01 Y-14.4
G01 Y-15
G01 Y-15.2 Z-0.587
G01 Y-15.8
G01 Y-16.4
G01 Y-17
G01 Y-17.2
G01 X5.25
G01 Y-16.6
G01 Y-16
G01 Y-15.4
G01 Y-15.2
G01 Y-15 Z-0.587
G01 Y-14.4
G01 Y-13.8
G01 Y-13.2
G01 Y-12.6
G01 Y-12
G01 Y-11.4
G01 Y-10.8
G01 Y-10.2
G01 Y-9.6
G01 Y-9
G01 Y-8.4
G01 Y-7.8
G01 Y-6.2
G01 Y-4.6
G01 Y-1.6
G01 Y1.199
G01 Y1.399 Z-0.587
G01 Y1.599 Z-0.587
G01 Y2.799
G01 Y3.399
G01 Y5.199
G01 Y6.799
G01 Y8.199
G01 Y8.799
G01 Y9.399
G01 Y9.999
G01 Y10.599
G01 Y11.199
G01 Y11.799
G01 Y12.399
G01 Y12.999
G01 Y13.599
G01 Y14.199
G01 Y14.799
G01 Y14.999
G01 Y15.199 Z-0.587
G01 Y15.799
G01 Y16.399
G01 Y16.999
G01 Y17.199
G01 X5.4
G01 Y16.599
G01 Y15.999
G01 Y15.399
G01 Y15.199
G01 Y14.999 Z-0.587
G01 Y14.399
G01 Y13.799
G01 Y13.199
G01 Y12.599
G01 Y11.999
G01 Y11.399
G01 Y10.799
G01 Y10.199
G01 Y9.599
G01 Y8.999
G01 Y8.399
G01 Y8.199 Z-0.587
G01 Y7.999 Z-0.587
G01 Y6.599
G01 Y6.399 Z-0.587
G01 Y6.199 Z-0.587
G01 Y4.599
G01 Y3.799
G01 Y3.199
G01 Y2.599
G01 Y1.999
G01 Y-1.4
G01 Y-2.6
G01 Y-3.2
G01 Y-3.8
G01 Y-4.6
G01 Y-6.2
G01 Y-7.8
G01 Y-8.4
G01 Y-9
G01 Y-9.6
G01 Y-10.2
G01 Y-10.8
G01 Y-11.4
G01 Y-12
G01 Y-12.6
G01 Y-13.2
G01 Y-13.8
G01 Y-14.4
G01 Y-15
G01 Y-15.2 Z-0.587
G01 Y-15.8
G01 Y-16.4
G01 Y-17
G01 Y-17.2
G01 X5.55
G01 Y-16.6
G01 Y-16
G01 Y-15.4
G01 Y-15.2
G01 Y-15 Z-0.587
G01 Y-14.4
G01 Y-13.8
G01 Y-13.2
G01 Y-12.6
G01 Y-12
G01 Y-11.4
G01 Y-10.8
G01 Y-10.2
G01 Y-9.6
G01 Y-9
G01 Y-8.4
G01 Y-7.8
G01 Y-6.2
G01 Y-4.6
G01 Y-1.6
G01 Y1.799
G01 Y2.399
G01 Y2.999
G01 Y3.599
G01 Y3.799 Z-0.587
G01 Y3.999 Z-0.587
G01 Y5.599
G01 Y7.199
G01 Y8.599
G01 Y9.199
G01 Y9.799
G01 Y10.399
G01 Y10.999
G01 Y11.599
G01 Y12.199
G01 Y12.799
G01 Y13.399
G01 Y13.999
G01 Y14.599
G01 Y14.999
G01 Y15.199 Z-0.587
G01 Y15.799
G01 Y16.399
G01 Y16.999
G01 Y17.199
G01 X5.7
G01 Y16.599
G01 Y15.999
G01 Y15.399
G01 Y15.199
G01 Y14.999 Z-0.587
G01 Y14.399
G01 Y13.799
G01 Y13.199
G01 Y12.599
G01 Y11.999
G01 Y11.399
G01 Y10.799
G01 Y10.199
G01 Y9.599
G01 Y8.999
G01 Y8.399
G01 Y7.799
G01 Y6.199
G01 Y4.599
G01 Y3.799
G01 Y3.199
G01 Y2.599
G01 Y2.199
G01 Y1.999 Z-0.587
G01 Y1.799 Z-0.587
G01 Y0.199
G01 Y-5.4
G01 Y-7
G01 Y-8.4
G01 Y-9
G01 Y-9.6
G01 Y-10.2
G01 Y-10.8
G01 Y-11.4
G01 Y-12
G01 Y-12.6
G01 Y-13.2
G01 Y-13.8
G01 Y-14.4
G01 Y-15
G01 Y-15.2 Z-0.587
G01 Y-15.8
G01 Y-16.4
G01 Y-17
G01 Y-17.2
G01 X5.85
G01 Y-16.6
G01 Y-16
G01 Y-15.4
G01 Y-15.2
G01 Y-15 Z-0.587
G01 Y-14.4
G01 Y-13.8
G01 Y-13.2
G01 Y-12.6
G01 Y-12
G01 Y-11.4
G01 Y-10.8
G01 Y-10.2
G01 Y-9.6
G01 Y-9
G01 Y-8.4
G01 Y-7.8
G01 Y-6.2
G01 Y-4.6
G01 Y-1.6
G01 Y1.799
G01 Y2.399
G01 Y2.999
G01 Y3.599
G01 Y4.399
G01 Y5.999
G01 Y7.599
G01 Y8.199
G01 Y8.799
G01 Y9.399
G01 Y9.999
G01 Y10.399
G01 Y10.599 Z-0.587
G01 Y10.799 Z-0.587
G01 Y11.399
G01 Y11.999
G01 Y12.599
G01 Y13.199
G01 Y13.799
G01 Y14.399
G01 Y14.999
G01 Y15.199 Z-0.587
G01 Y15.799
G01 Y16.399
G01 Y16.999
G01 Y17.199
G01 X6
G01 Y16.599
G01 Y15.999
G01 Y15.399
G01 Y15.199
G01 Y14.999 Z-0.587
G01 Y14.399
G01 Y13.799
G01 Y13.199
G01 Y12.599
G01 Y11.999
G01 Y11.399
G01 Y10.799
G01 Y10.599 Z-0.587
G01 Y10.399 Z-0.587
G01 Y9.799
G01 Y9.199
G01 Y8.599
G01 Y7.999
G01 Y6.199
G01 Y4.599
G01 Y3.799
G01 Y3.199
G01 Y2.599
G01 Y1.999
G01 Y-1.4
G01 Y-2.6
G01 Y-3.2
G01 Y-3.8
G01 Y-4.6
G01 Y-6.2
G01 Y-7.8
G01 Y-8.4
G01 Y-9
G01 Y-9.6
G01 Y-10.2
G01 Y-10.8
G01 Y-11.4
G01 Y-12
G01 Y-12.6
G01 Y-13.2
G01 Y-13.8
G01 Y-14.4
G01 Y-15
G01 Y-15.2 Z-0.587
G01 Y-15.8
G01 Y-16.4
G01 Y-17
G01 Y-17.2
G01 X6.15
G01 Y-16.6
G01 Y-16
G01 Y-15.4
G01 Y-15.2
G01 Y-15 Z-0.587
G01 Y-14.4
G01 Y-13.8
G01 Y-13.2
G01 Y-12.6
G01 Y-12
G01 Y-11.4
G01 Y-10.8
G01 Y-10.2
G01 Y-9.6
G01 Y-9
G01 Y-8.4
G01 Y-7.8
G01 Y-6.2
G01 Y-4.6
G01 Y-1.6
G01 Y1.799
G01 Y2.399
G01 Y2.999
G01 Y3.599
G01 Y4.399
G01 Y5.999
G01 Y7.599
G01 Y8.199
G01 Y8.799
G01 Y9.399
G01 Y9.799
G01 Y9.999 Z-0.587
G01 Y10.199 Z-0.587
G01 Y10.799
G01 Y11.399
G01 Y11.999
G01 Y12.399
G01 Y12.599 Z-0.587
G01 Y12.799 Z-0.587
G01 Y13.399
G01 Y13.999
G01 Y14.199 Z-0.587
G01 Y14.399 Z-0.587
G01 Y14.999
G01 Y15.199 Z-0.587
G01 Y15.799
G01 Y16.399
G01 Y16.999
G01 Y17.199
G01 X6.3
G01 Y16.599
G01 Y15.999
G01 Y15.399
G01 Y15.199
G01 Y14.999 Z-0.587
G01 Y14.399
G01 Y13.799
G01 Y13.199
G01 Y12.599
G01 Y11.999
G01 Y11.399
G01 Y10.799
G01 Y10.199
G01 Y9.599
G01 Y8.999
G01 Y8.399
G01 Y7.799
G01 Y6.199
G01 Y4.599
G01 Y3.799
G01 Y3.199
G01 Y2.599
G01 Y1.999
G01 Y-1.4
G01 Y-2.6
G01 Y-3.2
G01 Y-3.8
G01 Y-4.6
G01 Y-6.2
G01 Y-7.8
G01 Y-8.4
G01 Y-9
G01 Y-9.6
G01 Y-10.2
G01 Y-10.8
G01 Y-11.4
G01 Y-12
G01 Y-12.6
G01 Y-13.2
G01 Y-13.8
G01 Y-14.4
G01 Y-15
G01 Y-15.2 Z-0.587
G01 Y-15.8
G01 Y-16.4
G01 Y-17
G01 Y-17.2
G01 X6.45
G01 Y-16.6
G01 Y-16
G01 Y-15.4
G01 Y-15.2
G01 Y-15 Z-0.587
G01 Y-14.4
G01 Y-13.8
G01 Y-13.2
G01 Y-12.6
G01 Y-12
G01 Y-11.4
G01 Y-10.8
G01 Y-10.2
G01 Y-9.6
G01 Y-9
G01 Y-8.4
G01 Y-7.8
G01 Y-6.2
G01 Y-4.6
G01 Y-1.6
G01 Y1.799
G01 Y2.399
G01 Y2.999
G01 Y3.599
G01 Y4.399
G01 Y5.999
G01 Y7.599
G01 Y8.199
G01 Y8.799
G01 Y9.399
G01 Y9.999
G01 Y10.599
G01 Y11.199
G01 Y11.799
G01 Y12.399
G01 Y12.999
G01 Y13.599
G01 Y14.199
G01 Y14.799
G01 Y14.999
G01 Y15.199 Z-0.587
G01 Y15.799
G01 Y16.399
G01 Y16.999
G01 Y17.199
G01 X6.6
G01 Y16.599
G01 Y15.999
G01 Y15.399
G01 Y15.199
G01 Y14.999 Z-0.587
G01 Y14.399
G01 Y13.799
G01 Y13.199
G01 Y12.999
G01 Y12.799 Z-0.587
G01 Y12.599 Z-0.587
G01 Y12.399
G01 Y12.199 Z-0.587
G01 Y11.999 Z-0.587
G01 Y11.399
G01 Y10.799
G01 Y10.199
G01 Y9.599
G01 Y8.999
G01 Y8.799 Z-0.587
G01 Y8.599 Z-0.587
G01 Y8.399 Z-0.587
G01 Y8.199 Z-0.587
G01 Y7.799
G01 Y7.599 Z-0.587
G01 Y7.399 Z-0.587
G01 Y5.799
G01 Y4.599
G01 Y4.399 Z-0.587
G01 Y4.199 Z-0.587
G01 Y2.799
G01 Y2.199
G01 Y1.599
G01 Y1.199
G01 Y0.999 Z-0.587
G01 Y0.799 Z-0.587
G01 Y-0.8
G01 Y-3.4
G01 Y-4
G01 Y-5.6
G01 Y-7.2
G01 Y-8.4
G01 Y-9
G01 Y-9.6
G01 Y-10.2
G01 Y-10.8
G01 Y-11.4
G01 Y-12
G01 Y-12.6
G01 Y-13.2
G01 Y-13.8
G01 Y-14.4
G01 Y-15
G01 Y-15.2 Z-0.587
G01 Y-15.8
G01 Y-16.4
G01 Y-17
G01 Y-17.2
G01 X6.75
G01 Y-16.6
G01 Y-16
G01 Y-15.4
G01 Y-15.2
G01 Y-15 Z-0.587
G01 Y-14.4
G01 Y-13.8
G01 Y-13.2
G01 Y-12.6
G01 Y-12
G01 Y-11.4
G01 Y-10.8
G01 Y-10.2
G01 Y-9.6
G01 Y-9
G01 Y-8.4
G01 Y-7.8
G01 Y-6.2
G01 Y-4.6
G01 Y-1.6
G01 Y1.799
G01 Y2.399
G01 Y2.999
G01 Y3.599
G01 Y4.399
G01 Y5.999
G01 Y7.599
G01 Y8.199
G01 Y8.799
G01 Y9.399
G01 Y9.999
G01 Y10.599
G01 Y11.199
G01 Y11.799
G01 Y12.399
G01 Y12.999
G01 Y13.599
G01 Y14.199
G01 Y14.799
G01 Y14.999
G01 Y15.199 Z-0.587
G01 Y15.799
G01 Y16.399
G01 Y16.999
G01 Y17.199
G01 X6.9
G01 Y16.599
G01 Y15.999
G01 Y15.399
G01 Y15.199
G01 Y14.999 Z-0.587
G01 Y14.399
G01 Y13.799
G01 Y13.199
G01 Y12.599
G01 Y11.999
G01 Y11.399
G01 Y10.799
G01 Y10.199
G01 Y9.599
G01 Y8.999
G01 Y8.399
G01 Y7.799
G01 Y6.199
G01 Y4.599
G01 Y3.799
G01 Y3.399
G01 Y3.199 Z-0.587
G01 Y2.999 Z-0.587
G01 Y2.399
G01 Y0.999
G01 Y-0.6
G01 Y-3.6
G01 Y-5.4
G01 Y-7
G01 Y-8.4
G01 Y-9
G01 Y-9.6
G01 Y-10.2
G01 Y-10.8
G01 Y-11.4
G01 Y-12
G01 Y-12.6
G01 Y-13.2
G01 Y-13.8
G01 Y-14.4
G01 Y-15
G01 Y-15.2 Z-0.587
G01 Y-15.8
G01 Y-16.4
G01 Y-17
G01 Y-17.2
G01 X7.05
G01 Y-16.6
G01 Y-16
G01 Y-15.4
G01 Y-15.2
G01 Y-15 Z-0.587
G01 Y-14.4
G01 Y-13.8
G01 Y-13.2
G01 Y-12.6
G01 Y-12
G01 Y-11.4
G01 Y-10.8
G01 Y-10.2
G01 Y-9.6
G01 Y-9
G01 Y-8.4
G01 Y-7.8
G01 Y-6.2
G01 Y-4.6
G01 Y-1.6
G01 Y1.799
G01 Y2.399
G01 Y2.999
G01 Y3.199 Z-0.587
G01 Y3.399 Z-0.587
G01 Y4.799
G01 Y4.999 Z-0.587
G01 Y5.199 Z-0.587
G01 Y6.799
G01 Y8.199
G01 Y8.799
G01 Y9.399
G01 Y9.999
G01 Y10.599
G01 Y11.199
G01 Y11.799
G01 Y12.399
G01 Y12.999
G01 Y13.599
G01 Y14.199
G01 Y14.799
G01 Y14.999
G01 Y15.199 Z-0.587
G01 Y15.799
G01 Y16.399
G01 Y16.999
G01 Y17.199
G01 X7.2
G01 Y16.599
G01 Y15.999
G01 Y15.399
G01 Y15.199
G01 Y14.999 Z-0.587
G01 Y14.399
G01 Y13.799
G01 Y13.199
G01 Y12.599
G01 Y11.999
G01 Y11.399
G01 Y10.799
G01 Y10.199
G01 Y9.599
G01 Y8.999
G01 Y8.399
G01 Y7.799
G01 Y6.199
G01 Y4.599
G01 Y3.799
G01 Y3.199
G01 Y2.599
G01 Y1.999
G01 Y-1.4
G01 Y-2.6
G01 Y-3.2
G01 Y-3.8
G01 Y-4.6
G01 Y-6.2
G01 Y-7.8
G01 Y-8.4
G01 Y-9
G01 Y-9.6
G01 Y-10.2
G01 Y-10.8
G01 Y-11.4
G01 Y-12
G01 Y-12.6
G01 Y-13.2
G01 Y-13.8
G01 Y-14.4
G01 Y-15
G01 Y-15.2 Z-0.587
G01 Y-15.8
G01 Y-16.4
G01 Y-17
G01 Y-17.2
G01 X7.35
G01 Y-16.6
G01 Y-16
G01 Y-15.4
G01 Y-15.2
G01 Y-15 Z-0.587
G01 Y-14.4
G01 Y-13.8
G01 Y-13.2
G01 Y-12.6
G01 Y-12
G01 Y-11.4
G01 Y-10.8
G01 Y-10.2
G01 Y-9.6
G01 Y-9
G01 Y-8.4
G01 Y-7.8
G01 Y-6.2
G01 Y-4.6
G01 Y-1.6
G01 Y0.799
G01 Y0.999 Z-0.587
G01 Y1.199 Z-0.587
G01 Y1.799
G01 Y1.999 Z-0.587
G01 Y2.199 Z-0.587
G01 Y2.799
G01 Y3.399
G01 Y5.199
G01 Y6.799
G01 Y8.199
G01 Y8.799
G01 Y9.399
G01 Y9.999
G01 Y10.599
G01 Y11.199
G01 Y11.799
G01 Y12.399
G01 Y12.999
G01 Y13.599
G01 Y14.199
G01 Y14.799
G01 Y14.999
G01 Y15.199 Z-0.587
G01 Y15.799
G01 Y16.399
G01 Y16.999
G01 Y17.199
G01 X7.5
G01 Y16.599
G01 Y15.999
G01 Y15.399
G01 Y15.199
G01 Y14.999 Z-0.587
G01 Y14.399
G01 Y13.799
G01 Y13.199
G01 Y12.599
G01 Y11.999
G01 Y11.399
G01 Y10.799
G01 Y10.199
G01 Y9.599
G01 Y8.999
G01 Y8.399
G01 Y7.799
G01 Y6.199
G01 Y4.599
G01 Y3.799
G01 Y3.199
G01 Y2.599
G01 Y1.999
G01 Y-1.4
G01 Y-2.6
G01 Y-3.2
G01 Y-3.8
G01 Y-4.6
G01 Y-6.2
G01 Y-7.8
G01 Y-8.4
G01 Y-9
G01 Y-9.6
G01 Y-10.2
G01 Y-10.8
G01 Y-11.4
G01 Y-12
G01 Y-12.6
G01 Y-13.2
G01 Y-13.8
G01 Y-14.4
G01 Y-15
G01 Y-15.2 Z-0.587
G01 Y-15.8
G01 Y-16.4
G01 Y-17
G01 Y-17.2
G01 X7.65
G01 Y-16.6
G01 Y-16
G01 Y-15.4
G01 Y-15.2
G01 Y-15 Z-0.587
G01 Y-14.4
G01 Y-13.8
G01 Y-13.2
G01 Y-12.6
G01 Y-12
G01 Y-11.4
G01 Y-10.8
G01 Y-10.2
G01 Y-9.6
G01 Y-9
G01 Y-8.4
G01 Y-7.8
G01 Y-6.2
G01 Y-4.6
G01 Y-1.6
G01 Y1.799
G01 Y2.399
G01 Y2.999
G01 Y3.599
G01 Y3.799 Z-0.587
G01 Y3.999 Z-0.587
G01 Y5.599
G01 Y7.199
G01 Y8.599
G01 Y9.199
G01 Y9.799
G01 Y10.399
G01 Y10.999
G01 Y11.599
G01 Y12.199
G01 Y12.799
G01 Y13.399
G01 Y13.999
G01 Y14.599
G01 Y14.999
G01 Y15.199 Z-0.587
G01 Y15.799
G01 Y16.399
G01 Y16.999
G01 Y17.199
G01 X7.8
G01 Y16.599
G01 Y15.999
G01 Y15.399
G01 Y15.199
G01 Y14.999 Z-0.587
G01 Y14.399
G01 Y13.799
G01 Y13.199
G01 Y12.599
G01 Y11.999
G01 Y11.399
G01 Y10.799
G01 Y10.199
G01 Y9.599
G01 Y8.999
G01 Y8.399
G01 Y7.799
G01 Y6.199
G01 Y4.599
G01 Y3.999
G01 Y3.799 Z-0.587
G01 Y3.599 Z-0.587
G01 Y3.199
G01 Y2.999 Z-0.587
G01 Y2.799 Z-0.587
G01 Y2.199
G01 Y1.599
G01 Y0
G01 Y-5.6
G01 Y-7.2
G01 Y-8.4
G01 Y-9
G01 Y-9.6
G01 Y-10.2
G01 Y-10.8
G01 Y-11.4
G01 Y-12
G01 Y-12.6
G01 Y-13.2
G01 Y-13.8
G01 Y-14.4
G01 Y-15
G01 Y-15.2 Z-0.587
G01 Y-15.8
G01 Y-16.4
G01 Y-17
G01 Y-17.2
G01 X7.95
G01 Y-16.6
G01 Y-16
G01 Y-15.4
G01 Y-15.2
G01 Y-15 Z-0.587
G01 Y-14.4
G01 Y-13.8
G01 Y-13.2
G01 Y-12.6
G01 Y-12
G01 Y-11.4
G01 Y-10.8
G01 Y-10.2
G01 Y-9.6
G01 Y-9
G01 Y-8.4
G01 Y-7.8
G01 Y-6.2
G01 Y-4.6
G01 Y-1.6
G01 Y1.799
G01 Y2.399
G01 Y2.999
G01 Y3.599
G01 Y4.399
G01 Y5.999
G01 Y7.599
G01 Y8.199
G01 Y8.799
G01 Y9.399
G01 Y9.999
G01 Y10.599
G01 Y11.199
G01 Y11.799
G01 Y12.399
G01 Y12.999
G01 Y13.399
G01 Y13.599 Z-0.587
G01 Y13.799 Z-0.587
G01 Y14.399
G01 Y14.999
G01 Y15.199 Z-0.587
G01 Y15.799
G01 Y16.399
G01 Y16.999
G01 Y17.199
G01 X8.1
G01 Y16.599
G01 Y15.999
G01 Y15.399
G01 Y15.199
G01 Y14.999 Z-0.587
G01 Y14.399
G01 Y13.799
G01 Y13.199
G01 Y12.599
G01 Y11.999
G01 Y11.399
G01 Y10.799
G01 Y10.199
G01 Y9.599
G01 Y8.999
G01 Y8.399
G01 Y7.799
G01 Y6.199
G01 Y4.599
G01 Y3.799
G01 Y3.199
G01 Y2.599
G01 Y1.999
G01 Y-1.4
G01 Y-2.6
G01 Y-3.2
G01 Y-3.8
G01 Y-4.6
G01 Y-6.2
G01 Y-7.8
G01 Y-8.4
G01 Y-9
G01 Y-9.6
G01 Y-10.2
G01 Y-10.8
G01 Y-11.4
G01 Y-12
G01 Y-12.6
G01 Y-13.2
G01 Y-13.8
G01 Y-14.4
G01 Y-15
G01 Y-15.2 Z-0.587
G01 Y-15.8
G01 Y-16.4
G01 Y-17
G01 Y-17.2
G01 X8.249
G01 Y-16.6
G01 Y-16
G01 Y-15.4
G01 Y-15.2
G01 Y-15 Z-0.587
G01 Y-14.4
G01 Y-13.8
G01 Y-13.2
G01 Y-12.6
G01 Y-12
G01 Y-11.4
G01 Y-10.8
G01 Y-10.2
G01 Y-9.6
G01 Y-9
G01 Y-8.4
G01 Y-7.8
G01 Y-6.2
G01 Y-4.6
G01 Y-1.6
G01 Y1.799
G01 Y2.399
G01 Y2.999
G01 Y3.599
G01 Y4.399
G01 Y5.999
G01 Y7.599
G01 Y8.199
G01 Y8.799
G01 Y9.399
G01 Y9.999
G01 Y10.599
G01 Y11.199
G01 Y11.799
G01 Y12.399
G01 Y12.999
G01 Y13.599
G01 Y14.199
G01 Y14.799
G01 Y14.999
G01 Y15.199 Z-0.587
G01 Y15.799
G01 Y16.399
G01 Y16.999
G01 Y17.199
G01 X8.4
G01 Y16.599
G01 Y15.999
G01 Y15.399
G01 Y15.199
G01 Y14.999 Z-0.587
G01 Y14.399
G01 Y13.799
G01 Y13.199
G01 Y12.599
G01 Y12.399 Z-0.587
G01 Y12.199 Z-0.587
G01 Y11.599
G01 Y10.999
G01 Y10.399
G01 Y10.199 Z-0.587
G01 Y9.999 Z-0.587
G01 Y9.399
G01 Y8.799
G01 Y8.199
G01 Y7.599
G01 Y5.999
G01 Y4.399
G01 Y1.399
G01 Y-0.2
G01 Y-3.2
G01 Y-3.8
G01 Y-4.6
G01 Y-6.2
G01 Y-7.8
G01 Y-8.4
G01 Y-9
G01 Y-9.6
G01 Y-10.2
G01 Y-10.8
G01 Y-11.4
G01 Y-12
G01 Y-12.6
G01 Y-13.2
G01 Y-13.8
G01 Y-14.4
G01 Y-15
G01 Y-15.2 Z-0.587
G01 Y-15.8
G01 Y-16.4
G01 Y-17
G01 Y-17.2
G01 X8.55
G01 Y-16.6
G01 Y-16
G01 Y-15.4
G01 Y-15.2
G01 Y-15 Z-0.587
G01 Y-14.4
G01 Y-13.8
G01 Y-13.2
G01 Y-12.6
G01 Y-12
G01 Y-11.4
G01 Y-10.8
G01 Y-10.2
G01 Y-9.6
G01 Y-9
G01 Y-8.4
G01 Y-7.8
G01 Y-6.2
G01 Y-4.6
G01 Y-1.6
G01 Y1.799
G01 Y2.399
G01 Y2.999
G01 Y3.599
G01 Y4.399
G01 Y5.999
G01 Y7.599
G01 Y8.199
G01 Y8.799
G01 Y9.199
G01 Y9.399 Z-0.587
G01 Y9.599 Z-0.587
G01 Y9.999
G01 Y10.199 Z-0.587
G01 Y10.399 Z-0.587
G01 Y10.999
G01 Y11.599
G01 Y12.199
G01 Y12.399 Z-0.587
G01 Y12.599 Z-0.587
G01 Y13.199
G01 Y13.799
G01 Y14.399
G01 Y14.999
G01 Y15.199 Z-0.587
G01 Y15.799
G01 Y16.399
G01 Y16.999
G01 Y17.199
G01 X8.7
G01 Y16.599
G01 Y15.999
G01 Y15.399
G01 Y15.199
G01 Y14.999 Z-0.587
G01 Y14.399
G01 Y13.799
G01 Y13.199
G01 Y12.599
G01 Y11.999
G01 Y11.399
G01 Y10.799
G01 Y10.199
G01 Y9.599
G01 Y8.999
G01 Y8.399
G01 Y7.799
G01 Y7.199
G01 Y6.999 Z-0.587
G01 Y6.799 Z-0.587
G01 Y5.199
G01 Y1.799
G01 Y0.199
G01 Y-5.4
G01 Y-7
G01 Y-8.4
G01 Y-9
G01 Y-9.6
G01 Y-10.2
G01 Y-10.8
G01 Y-11.4
G01 Y-12
G01 Y-12.6
G01 Y-13.2
G01 Y-13.8
G01 Y-14.4
G01 Y-15
G01 Y-15.2 Z-0.587
G01 Y-15.8
G01 Y-16.4
G01 Y-17
G01 Y-17.2
G01 X8.85
G01 Y-16.6
G01 Y-16
G01 Y-15.4
G01 Y-15.2
G01 Y-15 Z-0.587
G01 Y-14.4
G01 Y-13.8
G01 Y-13.2
G01 Y-12.6
G01 Y-12
G01 Y-11.4
G01 Y-10.8
G01 Y-10.2
G01 Y-9.6
G01 Y-9
G01 Y-8.4
G01 Y-7.8
G01 Y-6.2
G01 Y-4.6
G01 Y-1.6
G01 Y1.799
G01 Y2.399
G01 Y2.999
G01 Y3.599
G01 Y4.399
G01 Y5.999
G01 Y6.799
G01 Y6.999 Z-0.587
G01 Y7.199 Z-0.587
G01 Y8.599
G01 Y9.199
G01 Y9.799
G01 Y10.399
G01 Y10.999
G01 Y11.199
G01 Y11.399 Z-0.587
G01 Y11.599 Z-0.587
G01 Y12.199
G01 Y12.799
G01 Y13.399
G01 Y13.999
G01 Y14.599
G01 Y14.999
G01 Y15.199 Z-0.587
G01 Y15.799
G01 Y16.399
G01 Y16.999
G01 Y17.199
G01 X9
G01 Y16.599
G01 Y15.999
G01 Y15.399
G01 Y15.199
G01 Y14.999 Z-0.587
G01 Y14.399
G01 Y13.799
G01 Y13.199
G01 Y12.599
G01 Y11.999
G01 Y11.399
G01 Y10.799
G01 Y10.199
G01 Y9.999
G01 Y9.799 Z-0.587
G01 Y9.599 Z-0.587
G01 Y8.999
G01 Y8.399
G01 Y7.799
G01 Y7.199
G01 Y6.999 Z-0.587
G01 Y6.799 Z-0.587
G01 Y5.999
G01 Y5.799 Z-0.587
G01 Y5.599 Z-0.587
G01 Y3.999
G01 Y3.399
G01 Y2.799
G01 Y2.199
G01 Y1.599
G01 Y0
G01 Y-5.6
G01 Y-7.2
G01 Y-8.4
G01 Y-9
G01 Y-9.6
G01 Y-10.2
G01 Y-10.8
G01 Y-11.4
G01 Y-12
G01 Y-12.6
G01 Y-13.2
G01 Y-13.8
G01 Y-14.4
G01 Y-15
G01 Y-15.2 Z-0.587
G01 Y-15.8
G01 Y-16.4
G01 Y-17
G01 Y-17.2
G01 X9.15
G01 Y-16.6
G01 Y-16
G01 Y-15.4
G01 Y-15.2
G01 Y-15 Z-0.587
G01 Y-14.4
G01 Y-13.8
G01 Y-13.2
G01 Y-12.6
G01 Y-12
G01 Y-11.4
G01 Y-10.8
G01 Y-10.2
G01 Y-9.6
G01 Y-9
G01 Y-8.4
G01 Y-7.8
G01 Y-6.2
G01 Y-4.6
G01 Y-1.6
G01 Y1.799
G01 Y2.399
G01 Y2.999
G01 Y3.599
G01 Y4.399
G01 Y5.999
G01 Y7.599
G01 Y8.199
G01 Y8.799
G01 Y9.399
G01 Y9.999
G01 Y10.599
G01 Y11.199
G01 Y11.799
G01 Y12.399
G01 Y12.599
G01 Y12.799 Z-0.587
G01 Y12.999 Z-0.587
G01 Y13.599
G01 Y14.199
G01 Y14.799
G01 Y14.999
G01 Y15.199 Z-0.587
G01 Y15.799
G01 Y16.399
G01 Y16.999
G01 Y17.199
G01 X9.3
G01 Y16.599
G01 Y15.999
G01 Y15.399
G01 Y15.199
G01 Y14.999 Z-0.587
G01 Y14.399
G01 Y13.799
G01 Y13.199
G01 Y12.599
G01 Y11.999
G01 Y11.399
G01 Y10.799
G01 Y10.199
G01 Y9.599
G01 Y8.999
G01 Y8.399
G01 Y7.799
G01 Y6.599
G01 Y6.399 Z-0.587
G01 Y6.199 Z-0.587
G01 Y4.599
G01 Y3.799
G01 Y3.199
G01 Y2.599
G01 Y1.999
G01 Y-1.4
G01 Y-2.6
G01 Y-3.2
G01 Y-3.8
G01 Y-4.6
G01 Y-6.2
G01 Y-7.8
G01 Y-8.4
G01 Y-9
G01 Y-9.6
G01 Y-10.2
G01 Y-10.8
G01 Y-11.4
G01 Y-12
G01 Y-12.6
G01 Y-13.2
G01 Y-13.8
G01 Y-14.4
G01 Y-15
G01 Y-15.2 Z-0.587
G01 Y-15.8
G01 Y-16.4
G01 Y-17
G01 Y-17.2
G01 X9.45
G01 Y-16.6
G01 Y-16
G01 Y-15.4
G01 Y-15.2
G01 Y-15 Z-0.587
G01 Y-14.4
G01 Y-13.8
G01 Y-13.2
G01 Y-12.6
G01 Y-12
G01 Y-11.4
G01 Y-10.8
G01 Y-10.2
G01 Y-9.6
G01 Y-9
G01 Y-8.4
G01 Y-7.8
G01 Y-6.2
G01 Y-4.6
G01 Y-1.6
G01 Y1.799
G01 Y2.399
G01 Y2.999
G01 Y3.599
G01 Y3.799
G01 Y3.999 Z-0.587
G01 Y4.199 Z-0.587
G01 Y5.799
G01 Y5.999 Z-0.587
G01 Y6.199 Z-0.587
G01 Y6.399 Z-0.587
G01 Y6.599 Z-0.587
G01 Y7.399
G01 Y7.599 Z-0.587
G01 Y7.799
G01 Y7.999 Z-0.587
G01 Y8.599
G01 Y9.199
G01 Y9.799
G01 Y10.399
G01 Y10.999
G01 Y11.599
G01 Y12.199
G01 Y12.799
G01 Y13.399
G01 Y13.999
G01 Y14.599
G01 Y14.999
G01 Y15.199 Z-0.587
G01 Y15.799
G01 Y16.399
G01 Y16.999
G01 Y17.199
G01 X9.6
G01 Y16.599
G01 Y15.999
G01 Y15.399
G01 Y15.199
G01 Y14.999 Z-0.587
G01 Y14.399
G01 Y14.199 Z-0.587
G01 Y13.999 Z-0.587
G01 Y13.399
G01 Y12.799
G01 Y12.199
G01 Y11.599
G01 Y11.399 Z-0.587
G01 Y11.199 Z-0.587
G01 Y10.599
G01 Y10.399 Z-0.587
G01 Y10.199 Z-0.587
G01 Y9.599
G01 Y8.999
G01 Y8.399
G01 Y7.999
G01 Y7.799 Z-0.587
G01 Y7.599 Z-0.587
G01 Y5.999
G01 Y4.999
G01 Y4.799 Z-0.587
G01 Y4.599 Z-0.587
G01 Y3.799
G01 Y3.199
G01 Y2.599
G01 Y1.999
G01 Y-1.4
G01 Y-2.6
G01 Y-3.2
G01 Y-3.8
G01 Y-4.6
G01 Y-6.2
G01 Y-7.8
G01 Y-8.4
G01 Y-9
G01 Y-9.6
G01 Y-10.2
G01 Y-10.8
G01 Y-11.4
G01 Y-12
G01 Y-12.6
G01 Y-13.2
G01 Y-13.8
G01 Y-14.4
G01 Y-15
G01 Y-15.2 Z-0.587
G01 Y-15.8
G01 Y-16.4
G01 Y-17
G01 Y-17.2
G01 X9.75
G01 Y-16.6
G01 Y-16
G01 Y-15.4
G01 Y-15.2
G01 Y-15 Z-0.587
G01 Y-14.4
G01 Y-13.8
G01 Y-13.2
G01 Y-12.6
G01 Y-12
G01 Y-11.4
G01 Y-10.8
G01 Y-10.2
G01 Y-9.6
G01 Y-9
G01 Y-8.4
G01 Y-7.8
G01 Y-6.2
G01 Y-4.6
G01 Y-1.6
G01 Y1.799
G01 Y2.399
G01 Y2.999
G01 Y3.599
G01 Y4.399
G01 Y5.999
G01 Y7.599
G01 Y8.199
G01 Y8.799
G01 Y9.399
G01 Y9.999
G01 Y10.599
G01 Y11.199
G01 Y11.799
G01 Y12.399
G01 Y12.999
G01 Y13.599
G01 Y14.199
G01 Y14.799
G01 Y14.999
G01 Y15.199 Z-0.587
G01 Y15.799
G01 Y16.399
G01 Y16.999
G01 Y17.199
G01 X9.9
G01 Y16.599
G01 Y15.999
G01 Y15.399
G01 Y15.199
G01 Y14.999 Z-0.587
G01 Y14.399
G01 Y13.799
G01 Y13.199
G01 Y12.599
G01 Y11.999
G01 Y11.399
G01 Y10.799
G01 Y10.199
G01 Y9.599
G01 Y8.999
G01 Y8.399
G01 Y7.799
G01 Y6.199
G01 Y4.599
G01 Y3.799
G01 Y3.199
G01 Y2.599
G01 Y1.999
G01 Y-1.4
G01 Y-2.6
G01 Y-3.2
G01 Y-3.8
G01 Y-4.6
G01 Y-6.2
G01 Y-7.8
G01 Y-8.4
G01 Y-9
G01 Y-9.6
G01 Y-10.2
G01 Y-10.8
G01 Y-11.4
G01 Y-12
G01 Y-12.6
G01 Y-13.2
G01 Y-13.8
G01 Y-14.4
G01 Y-15
G01 Y-15.2 Z-0.587
G01 Y-15.8
G01 Y-16.4
G01 Y-17
G01 Y-17.2
G01 X10.05
G01 Y-16.6
G01 Y-16
G01 Y-15.4
G01 Y-15.2
G01 Y-15 Z-0.587
G01 Y-14.4
G01 Y-13.8
G01 Y-13.2
G01 Y-12.6
G01 Y-12
G01 Y-11.4
G01 Y-10.8
G01 Y-10.2
G01 Y-9.6
G01 Y-9
G01 Y-8.4
G01 Y-7.8
G01 Y-6.2
G01 Y-4.6
G01 Y-1.6
G01 Y1.799
G01 Y2.399
G01 Y2.999
G01 Y3.599
G01 Y4.399
G01 Y5.999
G01 Y7.599
G01 Y8.199
