(Exported by FreeCAD)
(Post Processor: linuxcnc_post)
(Output Time:2019-04-10 16:51:55.167018)
(begin preamble)
G17 G54 G40 G49 G80 G90
G21
(begin operation: Default Tool)
(machine: not set, mm/min)
(Default Tool)
M6 T1
M3 S24000
(finish operation: Default Tool)
(begin operation: Adaptive)
(machine: not set, mm/min)
(Adaptive)
(helix to depth: -1.000000)
G0 X16.887 Y13.796 Z6.000
G0 X16.887 Y13.796 Z4.000
G1 X16.887 Y13.796 Z0.000 F300.000
G1 X16.887 Y13.796 Z0.000 F300.000
G1 X17.084 Y14.189 Z-0.039 F300.000
G1 X17.201 Y14.612 Z-0.077 F300.000
G1 X17.233 Y15.050 Z-0.116 F300.000
G1 X17.179 Y15.486 Z-0.155 F300.000
G1 X17.041 Y15.903 Z-0.193 F300.000
G1 X16.824 Y16.285 Z-0.232 F300.000
G1 X16.537 Y16.617 Z-0.271 F300.000
G1 X16.191 Y16.887 Z-0.309 F300.000
G1 X15.799 Y17.084 Z-0.348 F300.000
G1 X15.376 Y17.201 Z-0.387 F300.000
G1 X14.938 Y17.233 Z-0.425 F300.000
G1 X14.502 Y17.179 Z-0.464 F300.000
G1 X14.085 Y17.041 Z-0.502 F300.000
G1 X13.703 Y16.824 Z-0.541 F300.000
G1 X13.371 Y16.537 Z-0.580 F300.000
G1 X13.101 Y16.191 Z-0.618 F300.000
G1 X12.903 Y15.799 Z-0.657 F300.000
G1 X12.787 Y15.376 Z-0.696 F300.000
G1 X12.754 Y14.938 Z-0.734 F300.000
G1 X12.808 Y14.502 Z-0.773 F300.000
G1 X12.946 Y14.085 Z-0.812 F300.000
G1 X13.163 Y13.703 Z-0.850 F300.000
G1 X13.450 Y13.371 Z-0.889 F300.000
G1 X13.796 Y13.101 Z-0.928 F300.000
G1 X14.189 Y12.903 Z-0.966 F300.000
G1 X14.612 Y12.787 Z-1.000 F1999.800
G1 X15.050 Y12.754 Z-1.000 F1999.800
G1 X15.486 Y12.808 Z-1.000 F1999.800
G1 X15.903 Y12.946 Z-1.000 F1999.800
G1 X16.285 Y13.163 Z-1.000 F1999.800
G1 X16.617 Y13.450 Z-1.000 F1999.800
G1 X16.887 Y13.796 Z-1.000 F1999.800
G1 X17.084 Y14.189 Z-1.000 F1999.800
G1 X17.201 Y14.612 Z-1.000 F1999.800
G1 X17.233 Y15.050 Z-1.000 F1999.800
G1 X17.179 Y15.486 Z-1.000 F1999.800
G1 X17.041 Y15.903 Z-1.000 F1999.800
G1 X16.824 Y16.285 Z-1.000 F1999.800
G1 X16.537 Y16.617 Z-1.000 F1999.800
G1 X16.191 Y16.887 Z-1.000 F1999.800
G1 X15.799 Y17.084 Z-1.000 F1999.800
G1 X15.376 Y17.201 Z-1.000 F1999.800
G1 X14.938 Y17.233 Z-1.000 F1999.800
G1 X14.502 Y17.179 Z-1.000 F1999.800
G1 X14.085 Y17.041 Z-1.000 F1999.800
G1 X13.703 Y16.824 Z-1.000 F1999.800
G1 X13.371 Y16.537 Z-1.000 F1999.800
G1 X13.101 Y16.191 Z-1.000 F1999.800
G1 X12.903 Y15.799 Z-1.000 F1999.800
G1 X12.787 Y15.376 Z-1.000 F1999.800
G1 X12.754 Y14.938 Z-1.000 F1999.800
G1 X12.808 Y14.502 Z-1.000 F1999.800
G1 X12.946 Y14.085 Z-1.000 F1999.800
G1 X13.163 Y13.703 Z-1.000 F1999.800
G1 X13.450 Y13.371 Z-1.000 F1999.800
G1 X13.796 Y13.101 Z-1.000 F1999.800
G1 X14.189 Y12.903 Z-1.000 F1999.800
(Adaptive - depth: -1.000000)
G1 X14.994 Y12.744 F1999.800
G1 X15.062 Y12.669 F1999.800
G1 X15.113 Y12.581 F1999.800
G1 X15.181 Y12.506 F1999.800
G1 X15.438 Y12.350 F1999.800
G1 X15.713 Y12.256 F1999.800
G1 X16.300 Y12.238 F1999.800
G1 X16.688 Y12.319 F1999.800
G1 X16.925 Y12.406 F1999.800
G1 X17.156 Y12.519 F1999.800
G1 X17.456 Y12.713 F1999.800
G1 X17.762 Y13.006 F1999.800
G1 X17.981 Y13.262 F1999.800
G1 X18.181 Y13.575 F1999.800
G1 X18.337 Y13.919 F1999.800
G1 X18.444 Y14.262 F1999.800
G1 X18.531 Y14.625 F1999.800
G1 X18.569 Y15.137 F1999.800
G1 X18.556 Y15.537 F1999.800
G1 X18.481 Y15.956 F1999.800
G1 X18.375 Y16.306 F1999.800
G1 X18.212 Y16.669 F1999.800
G1 X18.019 Y17.012 F1999.800
G1 X17.731 Y17.400 F1999.800
G1 X17.444 Y17.706 F1999.800
G1 X17.119 Y17.988 F1999.800
G1 X16.750 Y18.231 F1999.800
G1 X16.356 Y18.406 F1999.800
G1 X16.025 Y18.519 F1999.800
G1 X15.631 Y18.613 F1999.800
G1 X15.156 Y18.650 F1999.800
G1 X14.756 Y18.644 F1999.800
G1 X14.331 Y18.587 F1999.800
G1 X13.906 Y18.500 F1999.800
G1 X13.375 Y18.319 F1999.800
G1 X12.969 Y18.087 F1999.800
G1 X12.694 Y17.894 F1999.800
G1 X12.425 Y17.663 F1999.800
G1 X12.106 Y17.319 F1999.800
G1 X11.825 Y16.931 F1999.800
G1 X11.625 Y16.550 F1999.800
G1 X11.481 Y16.200 F1999.800
G1 X11.375 Y15.794 F1999.800
G1 X11.319 Y15.387 F1999.800
G1 X11.281 Y14.988 F1999.800
G1 X11.319 Y14.419 F1999.800
G1 X11.394 Y13.981 F1999.800
G1 X11.550 Y13.544 F1999.800
G1 X11.688 Y13.244 F1999.800
G1 X11.906 Y12.900 F1999.800
G1 X12.137 Y12.581 F1999.800
G1 X12.488 Y12.188 F1999.800
G1 X12.887 Y11.794 F1999.800
G1 X13.400 Y11.381 F1999.800
G1 X13.900 Y11.094 F1999.800
G1 X14.262 Y10.912 F1999.800
G1 X14.750 Y10.731 F1999.800
G1 X15.225 Y10.619 F1999.800
G1 X15.688 Y10.581 F1999.800
G1 X16.044 Y10.581 F1999.800
G1 X16.469 Y10.637 F1999.800
G1 X16.869 Y10.713 F1999.800
G1 X17.438 Y10.906 F1999.800
G1 X17.863 Y11.100 F1999.800
G1 X18.269 Y11.363 F1999.800
G1 X18.562 Y11.594 F1999.800
G1 X18.875 Y11.906 F1999.800
G1 X19.156 Y12.225 F1999.800
G1 X19.481 Y12.706 F1999.800
G1 X19.706 Y13.125 F1999.800
G1 X19.900 Y13.575 F1999.800
G1 X20.050 Y14.069 F1999.800
G1 X20.150 Y14.550 F1999.800
G1 X20.200 Y15.044 F1999.800
G1 X20.200 Y15.544 F1999.800
G1 X20.150 Y16.038 F1999.800
G1 X20.031 Y16.519 F1999.800
G1 X19.900 Y16.894 F1999.800
G1 X19.725 Y17.319 F1999.800
G1 X19.450 Y17.837 F1999.800
G1 X19.119 Y18.344 F1999.800
G1 X18.750 Y18.744 F1999.800
G1 X18.469 Y19.012 F1999.800
G1 X18.075 Y19.312 F1999.800
G1 X17.688 Y19.575 F1999.800
G1 X17.113 Y19.875 F1999.800
G1 X16.625 Y20.075 F1999.800
G1 X16.100 Y20.206 F1999.800
G1 X15.688 Y20.275 F1999.800
G1 X15.200 Y20.306 F1999.800
G1 X14.725 Y20.319 F1999.800
G1 X13.994 Y20.244 F1999.800
G1 X13.463 Y20.119 F1999.800
G1 X13.044 Y19.994 F1999.800
G1 X12.537 Y19.775 F1999.800
G1 X12.100 Y19.525 F1999.800
G1 X11.694 Y19.250 F1999.800
G1 X11.306 Y18.919 F1999.800
G1 X10.956 Y18.556 F1999.800
G1 X10.644 Y18.163 F1999.800
G1 X10.369 Y17.738 F1999.800
G1 X10.137 Y17.288 F1999.800
G1 X9.950 Y16.819 F1999.800
G1 X9.787 Y16.344 F1999.800
G1 X9.656 Y15.713 F1999.800
G1 X9.588 Y15.175 F1999.800
G1 X9.588 Y14.619 F1999.800
G1 X9.625 Y14.162 F1999.800
G1 X9.719 Y13.656 F1999.800
G1 X9.863 Y13.169 F1999.800
G1 X10.044 Y12.713 F1999.800
G1 X10.256 Y12.256 F1999.800
G1 X10.594 Y11.706 F1999.800
G1 X10.912 Y11.275 F1999.800
G1 X11.275 Y10.856 F1999.800
G1 X11.675 Y10.444 F1999.800
G1 X12.238 Y9.975 F1999.800
G1 X12.731 Y9.619 F1999.800
G1 X13.294 Y9.331 F1999.800
G1 X13.675 Y9.162 F1999.800
G1 X14.188 Y9.000 F1999.800
G1 X14.681 Y8.881 F1999.800
G1 X15.306 Y8.794 F1999.800
G1 X15.856 Y8.762 F1999.800
G1 X16.413 Y8.781 F1999.800
G1 X16.981 Y8.881 F1999.800
G1 X17.406 Y8.988 F1999.800
G1 X17.894 Y9.162 F1999.800
G1 X18.356 Y9.356 F1999.800
G1 X18.956 Y9.688 F1999.800
G1 X19.419 Y10.000 F1999.800
G1 X19.869 Y10.350 F1999.800
G1 X20.306 Y10.762 F1999.800
G1 X20.663 Y11.213 F1999.800
G1 X20.913 Y11.569 F1999.800
G1 X21.188 Y12.019 F1999.800
G1 X21.462 Y12.637 F1999.800
G1 X21.644 Y13.131 F1999.800
G1 X21.800 Y13.681 F1999.800
G1 X21.900 Y14.256 F1999.800
G1 X21.950 Y14.812 F1999.800
G1 X21.950 Y15.381 F1999.800
G1 X21.900 Y15.950 F1999.800
G1 X21.806 Y16.506 F1999.800
G1 X21.663 Y17.062 F1999.800
G1 X21.500 Y17.613 F1999.800
G1 X21.219 Y18.306 F1999.800
G1 X20.900 Y18.869 F1999.800
G1 X20.625 Y19.262 F1999.800
G1 X20.312 Y19.644 F1999.800
G1 X19.956 Y20.038 F1999.800
G1 X19.406 Y20.519 F1999.800
G1 X18.950 Y20.863 F1999.800
G1 X18.444 Y21.188 F1999.800
G1 X17.887 Y21.475 F1999.800
G1 X17.331 Y21.712 F1999.800
G1 X16.756 Y21.906 F1999.800
G1 X16.156 Y22.050 F1999.800
G1 X15.556 Y22.144 F1999.800
G1 X14.956 Y22.156 F1999.800
G1 X14.106 Y22.106 F1999.800
G1 X13.363 Y22.000 F1999.800
G1 X12.281 Y21.619 F1999.800
G1 X11.500 Y21.269 F1999.800
G1 X10.900 Y20.906 F1999.800
G1 X10.194 Y20.294 F1999.800
G1 X9.519 Y19.600 F1999.800
G1 X8.831 Y18.650 F1999.800
G1 X8.294 Y17.606 F1999.800
G1 X7.881 Y16.212 F1999.800
G1 X7.713 Y14.912 F1999.800
G1 X7.800 Y13.512 F1999.800
G1 X8.194 Y12.131 F1999.800
G1 X8.637 Y11.119 F1999.800
G1 X9.162 Y10.256 F1999.800
G1 X10.056 Y9.162 F1999.800
G1 X10.631 Y8.619 F1999.800
G1 X11.600 Y7.912 F1999.800
G1 X12.475 Y7.456 F1999.800
G1 X12.850 Y7.312 F1999.800
G1 X14.069 Y7.075 F1999.800
G1 X15.194 Y7.031 F1999.800
G1 X16.225 Y7.125 F1999.800
G1 X17.163 Y7.331 F1999.800
G1 X18.419 Y7.800 F1999.800
G1 X19.262 Y8.262 F1999.800
G1 X20.244 Y9.000 F1999.800
G1 X21.000 Y9.756 F1999.800
G1 X21.531 Y10.431 F1999.800
G1 X22.163 Y11.512 F1999.800
G1 X22.594 Y12.569 F1999.800
G1 X22.856 Y13.600 F1999.800
G1 X22.962 Y15.194 F1999.800
G1 X22.856 Y16.319 F1999.800
G1 X22.700 Y17.069 F1999.800
G1 X22.212 Y18.381 F1999.800
G1 X21.688 Y19.337 F1999.800
G1 X21.156 Y20.062 F1999.800
G1 X20.256 Y20.988 F1999.800
G1 X19.625 Y21.488 F1999.800
G1 X18.306 Y22.238 F1999.800
G1 X17.081 Y22.688 F1999.800
G1 X15.881 Y22.919 F1999.800
G1 X14.681 Y22.962 F1999.800
G1 X13.881 Y22.894 F1999.800
G1 X12.881 Y22.681 F1999.800
G1 X11.494 Y22.156 F1999.800
G1 X10.850 Y21.806 F1999.800
G1 X10.081 Y21.256 F1999.800
G1 X9.363 Y20.637 F1999.800
G1 X8.537 Y19.663 F1999.800
G1 X7.888 Y18.594 F1999.800
G1 X7.450 Y17.556 F1999.800
G1 X7.138 Y16.356 F1999.800
G1 X7.037 Y15.356 F1999.800
G1 X7.050 Y14.356 F1999.800
G1 X7.250 Y13.156 F1999.800
G1 X7.513 Y12.256 F1999.800
G1 X7.975 Y11.225 F1999.800
G1 X8.394 Y10.537 F1999.800
G1 X8.806 Y9.969 F1999.800
G1 X9.769 Y8.981 F1999.800
G1 X9.769 Y8.981 F1999.800
G1 X9.806 Y8.950 F1999.800
G1 X9.819 Y8.950 F1999.800
G1 X9.838 Y8.925 F1999.800
G1 X9.838 Y8.925 F1999.800
G1 X10.456 Y8.444 F1999.800
G1 X10.456 Y8.444 F1999.800
G1 X10.644 Y8.287 F1999.800
G1 X10.869 Y8.188 F1999.800
G1 X10.869 Y8.188 F1999.800
G1 X11.125 Y7.975 F1999.800
G1 X11.125 Y7.975 F1999.800
G1 X11.300 Y7.806 F1999.800
G1 X11.519 Y7.688 F1999.800
G1 X11.519 Y7.688 F1999.800
G1 X12.200 Y7.400 F1999.800
G1 X12.425 Y7.319 F1999.800
G1 X12.969 Y7.162 F1999.800
G1 X13.994 Y6.963 F1999.800
G1 X15.069 Y6.912 F1999.800
G1 X16.188 Y7.000 F1999.800
G1 X17.206 Y7.213 F1999.800
G1 X18.456 Y7.688 F1999.800
G1 X19.294 Y8.137 F1999.800
G1 X20.344 Y8.931 F1999.800
G1 X21.038 Y9.619 F1999.800
G1 X21.681 Y10.444 F1999.800
G1 X22.244 Y11.406 F1999.800
G1 X22.706 Y12.537 F1999.800
G1 X22.975 Y13.594 F1999.800
G1 X23.081 Y14.931 F1999.800
G1 X23.069 Y15.344 F1999.800
G1 X22.981 Y16.281 F1999.800
G1 X22.781 Y17.219 F1999.800
G1 X22.337 Y18.394 F1999.800
G1 X21.775 Y19.425 F1999.800
G1 X21.244 Y20.137 F1999.800
G1 X20.469 Y20.950 F1999.800
G1 X20.312 Y21.094 F1999.800
G1 X19.731 Y21.556 F1999.800
G1 X18.419 Y22.319 F1999.800
G1 X17.100 Y22.812 F1999.800
G1 X15.950 Y23.038 F1999.800
G1 X14.794 Y23.081 F1999.800
G1 X13.869 Y23.006 F1999.800
G1 X12.850 Y22.794 F1999.800
G1 X11.619 Y22.350 F1999.800
G1 X10.850 Y21.950 F1999.800
G1 X10.069 Y21.400 F1999.800
G1 X9.225 Y20.663 F1999.800
G1 X8.419 Y19.706 F1999.800
G1 X7.787 Y18.675 F1999.800
G1 X7.331 Y17.556 F1999.800
G1 X7.013 Y16.331 F1999.800
G1 X6.919 Y15.238 F1999.800
G1 X6.944 Y14.287 F1999.800
G1 X7.131 Y13.088 F1999.800
G1 X7.400 Y12.225 F1999.800
G1 X7.900 Y11.106 F1999.800
G1 X8.094 Y10.775 F1999.800
G1 X8.769 Y9.831 F1999.800
G1 X9.644 Y8.944 F1999.800
G1 X10.456 Y8.306 F1999.800
G1 X11.312 Y7.794 F1999.800
G1 X11.519 Y7.688 F1999.800
G1 X11.519 Y7.688 F1999.800
G0 Z6.000
(helix to depth: -2.000000)
G0 X16.887 Y13.796 Z6.000
G0 X16.887 Y13.796 Z4.000
G1 X16.887 Y13.796 Z-1.000 F300.000
G1 X16.887 Y13.796 Z-1.000 F300.000
G1 X17.084 Y14.189 Z-1.039 F300.000
G1 X17.201 Y14.612 Z-1.077 F300.000
G1 X17.233 Y15.050 Z-1.116 F300.000
G1 X17.179 Y15.486 Z-1.155 F300.000
G1 X17.041 Y15.903 Z-1.193 F300.000
G1 X16.824 Y16.285 Z-1.232 F300.000
G1 X16.537 Y16.617 Z-1.271 F300.000
G1 X16.191 Y16.887 Z-1.309 F300.000
G1 X15.799 Y17.084 Z-1.348 F300.000
G1 X15.376 Y17.201 Z-1.387 F300.000
G1 X14.938 Y17.233 Z-1.425 F300.000
G1 X14.502 Y17.179 Z-1.464 F300.000
G1 X14.085 Y17.041 Z-1.502 F300.000
G1 X13.703 Y16.824 Z-1.541 F300.000
G1 X13.371 Y16.537 Z-1.580 F300.000
G1 X13.101 Y16.191 Z-1.618 F300.000
G1 X12.903 Y15.799 Z-1.657 F300.000
G1 X12.787 Y15.376 Z-1.696 F300.000
G1 X12.754 Y14.938 Z-1.734 F300.000
G1 X12.808 Y14.502 Z-1.773 F300.000
G1 X12.946 Y14.085 Z-1.812 F300.000
G1 X13.163 Y13.703 Z-1.850 F300.000
G1 X13.450 Y13.371 Z-1.889 F300.000
G1 X13.796 Y13.101 Z-1.928 F300.000
G1 X14.189 Y12.903 Z-1.966 F300.000
G1 X14.612 Y12.787 Z-2.000 F1999.800
G1 X15.050 Y12.754 Z-2.000 F1999.800
G1 X15.486 Y12.808 Z-2.000 F1999.800
G1 X15.903 Y12.946 Z-2.000 F1999.800
G1 X16.285 Y13.163 Z-2.000 F1999.800
G1 X16.617 Y13.450 Z-2.000 F1999.800
G1 X16.887 Y13.796 Z-2.000 F1999.800
G1 X17.084 Y14.189 Z-2.000 F1999.800
G1 X17.201 Y14.612 Z-2.000 F1999.800
G1 X17.233 Y15.050 Z-2.000 F1999.800
G1 X17.179 Y15.486 Z-2.000 F1999.800
G1 X17.041 Y15.903 Z-2.000 F1999.800
G1 X16.824 Y16.285 Z-2.000 F1999.800
G1 X16.537 Y16.617 Z-2.000 F1999.800
G1 X16.191 Y16.887 Z-2.000 F1999.800
G1 X15.799 Y17.084 Z-2.000 F1999.800
G1 X15.376 Y17.201 Z-2.000 F1999.800
G1 X14.938 Y17.233 Z-2.000 F1999.800
G1 X14.502 Y17.179 Z-2.000 F1999.800
G1 X14.085 Y17.041 Z-2.000 F1999.800
G1 X13.703 Y16.824 Z-2.000 F1999.800
G1 X13.371 Y16.537 Z-2.000 F1999.800
G1 X13.101 Y16.191 Z-2.000 F1999.800
G1 X12.903 Y15.799 Z-2.000 F1999.800
G1 X12.787 Y15.376 Z-2.000 F1999.800
G1 X12.754 Y14.938 Z-2.000 F1999.800
G1 X12.808 Y14.502 Z-2.000 F1999.800
G1 X12.946 Y14.085 Z-2.000 F1999.800
G1 X13.163 Y13.703 Z-2.000 F1999.800
G1 X13.450 Y13.371 Z-2.000 F1999.800
G1 X13.796 Y13.101 Z-2.000 F1999.800
G1 X14.189 Y12.903 Z-2.000 F1999.800
(Adaptive - depth: -2.000000)
G1 X14.994 Y12.744 F1999.800
G1 X15.062 Y12.669 F1999.800
G1 X15.113 Y12.581 F1999.800
G1 X15.181 Y12.506 F1999.800
G1 X15.438 Y12.350 F1999.800
G1 X15.713 Y12.256 F1999.800
G1 X16.300 Y12.238 F1999.800
G1 X16.688 Y12.319 F1999.800
G1 X16.925 Y12.406 F1999.800
G1 X17.156 Y12.519 F1999.800
G1 X17.456 Y12.713 F1999.800
G1 X17.762 Y13.006 F1999.800
G1 X17.981 Y13.262 F1999.800
G1 X18.181 Y13.575 F1999.800
G1 X18.337 Y13.919 F1999.800
G1 X18.444 Y14.262 F1999.800
G1 X18.531 Y14.625 F1999.800
G1 X18.569 Y15.137 F1999.800
G1 X18.556 Y15.537 F1999.800
G1 X18.481 Y15.956 F1999.800
G1 X18.375 Y16.306 F1999.800
G1 X18.212 Y16.669 F1999.800
G1 X18.019 Y17.012 F1999.800
G1 X17.731 Y17.400 F1999.800
G1 X17.444 Y17.706 F1999.800
G1 X17.119 Y17.988 F1999.800
G1 X16.750 Y18.231 F1999.800
G1 X16.356 Y18.406 F1999.800
G1 X16.025 Y18.519 F1999.800
G1 X15.631 Y18.613 F1999.800
G1 X15.156 Y18.650 F1999.800
G1 X14.756 Y18.644 F1999.800
G1 X14.331 Y18.587 F1999.800
G1 X13.906 Y18.500 F1999.800
G1 X13.375 Y18.319 F1999.800
G1 X12.969 Y18.087 F1999.800
G1 X12.694 Y17.894 F1999.800
G1 X12.425 Y17.663 F1999.800
G1 X12.106 Y17.319 F1999.800
G1 X11.825 Y16.931 F1999.800
G1 X11.625 Y16.550 F1999.800
G1 X11.481 Y16.200 F1999.800
G1 X11.375 Y15.794 F1999.800
G1 X11.319 Y15.387 F1999.800
G1 X11.281 Y14.988 F1999.800
G1 X11.319 Y14.419 F1999.800
G1 X11.394 Y13.981 F1999.800
G1 X11.550 Y13.544 F1999.800
G1 X11.688 Y13.244 F1999.800
G1 X11.906 Y12.900 F1999.800
G1 X12.137 Y12.581 F1999.800
G1 X12.488 Y12.188 F1999.800
G1 X12.887 Y11.794 F1999.800
G1 X13.400 Y11.381 F1999.800
G1 X13.900 Y11.094 F1999.800
G1 X14.262 Y10.912 F1999.800
G1 X14.750 Y10.731 F1999.800
G1 X15.225 Y10.619 F1999.800
G1 X15.688 Y10.581 F1999.800
G1 X16.044 Y10.581 F1999.800
G1 X16.469 Y10.637 F1999.800
G1 X16.869 Y10.713 F1999.800
G1 X17.438 Y10.906 F1999.800
G1 X17.863 Y11.100 F1999.800
G1 X18.269 Y11.363 F1999.800
G1 X18.562 Y11.594 F1999.800
G1 X18.875 Y11.906 F1999.800
G1 X19.156 Y12.225 F1999.800
G1 X19.481 Y12.706 F1999.800
G1 X19.706 Y13.125 F1999.800
G1 X19.900 Y13.575 F1999.800
G1 X20.050 Y14.069 F1999.800
G1 X20.150 Y14.550 F1999.800
G1 X20.200 Y15.044 F1999.800
G1 X20.200 Y15.544 F1999.800
G1 X20.150 Y16.038 F1999.800
G1 X20.031 Y16.519 F1999.800
G1 X19.900 Y16.894 F1999.800
G1 X19.725 Y17.319 F1999.800
G1 X19.450 Y17.837 F1999.800
G1 X19.119 Y18.344 F1999.800
G1 X18.750 Y18.744 F1999.800
G1 X18.469 Y19.012 F1999.800
G1 X18.075 Y19.312 F1999.800
G1 X17.688 Y19.575 F1999.800
G1 X17.113 Y19.875 F1999.800
G1 X16.625 Y20.075 F1999.800
G1 X16.100 Y20.206 F1999.800
G1 X15.688 Y20.275 F1999.800
G1 X15.200 Y20.306 F1999.800
G1 X14.725 Y20.319 F1999.800
G1 X13.994 Y20.244 F1999.800
G1 X13.463 Y20.119 F1999.800
G1 X13.044 Y19.994 F1999.800
G1 X12.537 Y19.775 F1999.800
G1 X12.100 Y19.525 F1999.800
G1 X11.694 Y19.250 F1999.800
G1 X11.306 Y18.919 F1999.800
G1 X10.956 Y18.556 F1999.800
G1 X10.644 Y18.163 F1999.800
G1 X10.369 Y17.738 F1999.800
G1 X10.137 Y17.288 F1999.800
G1 X9.950 Y16.819 F1999.800
G1 X9.787 Y16.344 F1999.800
G1 X9.656 Y15.713 F1999.800
G1 X9.588 Y15.175 F1999.800
G1 X9.588 Y14.619 F1999.800
G1 X9.625 Y14.162 F1999.800
G1 X9.719 Y13.656 F1999.800
G1 X9.863 Y13.169 F1999.800
G1 X10.044 Y12.713 F1999.800
G1 X10.256 Y12.256 F1999.800
G1 X10.594 Y11.706 F1999.800
G1 X10.912 Y11.275 F1999.800
G1 X11.275 Y10.856 F1999.800
G1 X11.675 Y10.444 F1999.800
G1 X12.238 Y9.975 F1999.800
G1 X12.731 Y9.619 F1999.800
G1 X13.294 Y9.331 F1999.800
G1 X13.675 Y9.162 F1999.800
G1 X14.188 Y9.000 F1999.800
G1 X14.681 Y8.881 F1999.800
G1 X15.306 Y8.794 F1999.800
G1 X15.856 Y8.762 F1999.800
G1 X16.413 Y8.781 F1999.800
G1 X16.981 Y8.881 F1999.800
G1 X17.406 Y8.988 F1999.800
G1 X17.894 Y9.162 F1999.800
G1 X18.356 Y9.356 F1999.800
G1 X18.956 Y9.688 F1999.800
G1 X19.419 Y10.000 F1999.800
G1 X19.869 Y10.350 F1999.800
G1 X20.306 Y10.762 F1999.800
G1 X20.663 Y11.213 F1999.800
G1 X20.913 Y11.569 F1999.800
G1 X21.188 Y12.019 F1999.800
G1 X21.462 Y12.637 F1999.800
G1 X21.644 Y13.131 F1999.800
G1 X21.800 Y13.681 F1999.800
G1 X21.900 Y14.256 F1999.800
G1 X21.950 Y14.812 F1999.800
G1 X21.950 Y15.381 F1999.800
G1 X21.900 Y15.950 F1999.800
G1 X21.806 Y16.506 F1999.800
G1 X21.663 Y17.062 F1999.800
G1 X21.500 Y17.613 F1999.800
G1 X21.219 Y18.306 F1999.800
G1 X20.900 Y18.869 F1999.800
G1 X20.625 Y19.262 F1999.800
G1 X20.312 Y19.644 F1999.800
G1 X19.956 Y20.038 F1999.800
G1 X19.406 Y20.519 F1999.800
G1 X18.950 Y20.863 F1999.800
G1 X18.444 Y21.188 F1999.800
G1 X17.887 Y21.475 F1999.800
G1 X17.331 Y21.712 F1999.800
G1 X16.756 Y21.906 F1999.800
G1 X16.156 Y22.050 F1999.800
G1 X15.556 Y22.144 F1999.800
G1 X14.956 Y22.156 F1999.800
G1 X14.106 Y22.106 F1999.800
G1 X13.363 Y22.000 F1999.800
G1 X12.281 Y21.619 F1999.800
G1 X11.500 Y21.269 F1999.800
G1 X10.900 Y20.906 F1999.800
G1 X10.194 Y20.294 F1999.800
G1 X9.519 Y19.600 F1999.800
G1 X8.831 Y18.650 F1999.800
G1 X8.294 Y17.606 F1999.800
G1 X7.881 Y16.212 F1999.800
G1 X7.713 Y14.912 F1999.800
G1 X7.800 Y13.512 F1999.800
G1 X8.194 Y12.131 F1999.800
G1 X8.637 Y11.119 F1999.800
G1 X9.162 Y10.256 F1999.800
G1 X10.056 Y9.162 F1999.800
G1 X10.631 Y8.619 F1999.800
G1 X11.600 Y7.912 F1999.800
G1 X12.475 Y7.456 F1999.800
G1 X12.850 Y7.312 F1999.800
G1 X14.069 Y7.075 F1999.800
G1 X15.194 Y7.031 F1999.800
G1 X16.225 Y7.125 F1999.800
G1 X17.163 Y7.331 F1999.800
G1 X18.419 Y7.800 F1999.800
G1 X19.262 Y8.262 F1999.800
G1 X20.244 Y9.000 F1999.800
G1 X21.000 Y9.756 F1999.800
G1 X21.531 Y10.431 F1999.800
G1 X22.163 Y11.512 F1999.800
G1 X22.594 Y12.569 F1999.800
G1 X22.856 Y13.600 F1999.800
G1 X22.962 Y15.194 F1999.800
G1 X22.856 Y16.319 F1999.800
G1 X22.700 Y17.069 F1999.800
G1 X22.212 Y18.381 F1999.800
G1 X21.688 Y19.337 F1999.800
G1 X21.156 Y20.062 F1999.800
G1 X20.256 Y20.988 F1999.800
G1 X19.625 Y21.488 F1999.800
G1 X18.306 Y22.238 F1999.800
G1 X17.081 Y22.688 F1999.800
G1 X15.881 Y22.919 F1999.800
G1 X14.681 Y22.962 F1999.800
G1 X13.881 Y22.894 F1999.800
G1 X12.881 Y22.681 F1999.800
G1 X11.494 Y22.156 F1999.800
G1 X10.850 Y21.806 F1999.800
G1 X10.081 Y21.256 F1999.800
G1 X9.363 Y20.637 F1999.800
G1 X8.537 Y19.663 F1999.800
G1 X7.888 Y18.594 F1999.800
G1 X7.450 Y17.556 F1999.800
G1 X7.138 Y16.356 F1999.800
G1 X7.037 Y15.356 F1999.800
G1 X7.050 Y14.356 F1999.800
G1 X7.250 Y13.156 F1999.800
G1 X7.513 Y12.256 F1999.800
G1 X7.975 Y11.225 F1999.800
G1 X8.394 Y10.537 F1999.800
G1 X8.806 Y9.969 F1999.800
G1 X9.769 Y8.981 F1999.800
G1 X9.769 Y8.981 F1999.800
G1 X9.806 Y8.950 F1999.800
G1 X9.819 Y8.950 F1999.800
G1 X9.838 Y8.925 F1999.800
G1 X9.838 Y8.925 F1999.800
G1 X10.456 Y8.444 F1999.800
G1 X10.456 Y8.444 F1999.800
G1 X10.644 Y8.287 F1999.800
G1 X10.869 Y8.188 F1999.800
G1 X10.869 Y8.188 F1999.800
G1 X11.125 Y7.975 F1999.800
G1 X11.125 Y7.975 F1999.800
G1 X11.300 Y7.806 F1999.800
G1 X11.519 Y7.688 F1999.800
G1 X11.519 Y7.688 F1999.800
G1 X12.200 Y7.400 F1999.800
G1 X12.425 Y7.319 F1999.800
G1 X12.969 Y7.162 F1999.800
G1 X13.994 Y6.963 F1999.800
G1 X15.069 Y6.912 F1999.800
G1 X16.188 Y7.000 F1999.800
G1 X17.206 Y7.213 F1999.800
G1 X18.456 Y7.688 F1999.800
G1 X19.294 Y8.137 F1999.800
G1 X20.344 Y8.931 F1999.800
G1 X21.038 Y9.619 F1999.800
G1 X21.681 Y10.444 F1999.800
G1 X22.244 Y11.406 F1999.800
G1 X22.706 Y12.537 F1999.800
G1 X22.975 Y13.594 F1999.800
G1 X23.081 Y14.931 F1999.800
G1 X23.069 Y15.344 F1999.800
G1 X22.981 Y16.281 F1999.800
G1 X22.781 Y17.219 F1999.800
G1 X22.337 Y18.394 F1999.800
G1 X21.775 Y19.425 F1999.800
G1 X21.244 Y20.137 F1999.800
G1 X20.469 Y20.950 F1999.800
G1 X20.312 Y21.094 F1999.800
G1 X19.731 Y21.556 F1999.800
G1 X18.419 Y22.319 F1999.800
G1 X17.100 Y22.812 F1999.800
G1 X15.950 Y23.038 F1999.800
G1 X14.794 Y23.081 F1999.800
G1 X13.869 Y23.006 F1999.800
G1 X12.850 Y22.794 F1999.800
G1 X11.619 Y22.350 F1999.800
G1 X10.850 Y21.950 F1999.800
G1 X10.069 Y21.400 F1999.800
G1 X9.225 Y20.663 F1999.800
G1 X8.419 Y19.706 F1999.800
G1 X7.787 Y18.675 F1999.800
G1 X7.331 Y17.556 F1999.800
G1 X7.013 Y16.331 F1999.800
G1 X6.919 Y15.238 F1999.800
G1 X6.944 Y14.287 F1999.800
G1 X7.131 Y13.088 F1999.800
G1 X7.400 Y12.225 F1999.800
G1 X7.900 Y11.106 F1999.800
G1 X8.094 Y10.775 F1999.800
G1 X8.769 Y9.831 F1999.800
G1 X9.644 Y8.944 F1999.800
G1 X10.456 Y8.306 F1999.800
G1 X11.312 Y7.794 F1999.800
G1 X11.519 Y7.688 F1999.800
G1 X11.519 Y7.688 F1999.800
G0 Z6.000
(helix to depth: -3.000000)
G0 X16.887 Y13.796 Z6.000
G0 X16.887 Y13.796 Z4.000
G1 X16.887 Y13.796 Z-2.000 F300.000
G1 X16.887 Y13.796 Z-2.000 F300.000
G1 X17.084 Y14.189 Z-2.039 F300.000
G1 X17.201 Y14.612 Z-2.077 F300.000
G1 X17.233 Y15.050 Z-2.116 F300.000
G1 X17.179 Y15.486 Z-2.155 F300.000
G1 X17.041 Y15.903 Z-2.193 F300.000
G1 X16.824 Y16.285 Z-2.232 F300.000
G1 X16.537 Y16.617 Z-2.271 F300.000
G1 X16.191 Y16.887 Z-2.309 F300.000
G1 X15.799 Y17.084 Z-2.348 F300.000
G1 X15.376 Y17.201 Z-2.387 F300.000
G1 X14.938 Y17.233 Z-2.425 F300.000
G1 X14.502 Y17.179 Z-2.464 F300.000
G1 X14.085 Y17.041 Z-2.502 F300.000
G1 X13.703 Y16.824 Z-2.541 F300.000
G1 X13.371 Y16.537 Z-2.580 F300.000
G1 X13.101 Y16.191 Z-2.618 F300.000
G1 X12.903 Y15.799 Z-2.657 F300.000
G1 X12.787 Y15.376 Z-2.696 F300.000
G1 X12.754 Y14.938 Z-2.734 F300.000
G1 X12.808 Y14.502 Z-2.773 F300.000
G1 X12.946 Y14.085 Z-2.812 F300.000
G1 X13.163 Y13.703 Z-2.850 F300.000
G1 X13.450 Y13.371 Z-2.889 F300.000
G1 X13.796 Y13.101 Z-2.928 F300.000
G1 X14.189 Y12.903 Z-2.966 F300.000
G1 X14.612 Y12.787 Z-3.000 F1999.800
G1 X15.050 Y12.754 Z-3.000 F1999.800
G1 X15.486 Y12.808 Z-3.000 F1999.800
G1 X15.903 Y12.946 Z-3.000 F1999.800
G1 X16.285 Y13.163 Z-3.000 F1999.800
G1 X16.617 Y13.450 Z-3.000 F1999.800
G1 X16.887 Y13.796 Z-3.000 F1999.800
G1 X17.084 Y14.189 Z-3.000 F1999.800
G1 X17.201 Y14.612 Z-3.000 F1999.800
G1 X17.233 Y15.050 Z-3.000 F1999.800
G1 X17.179 Y15.486 Z-3.000 F1999.800
G1 X17.041 Y15.903 Z-3.000 F1999.800
G1 X16.824 Y16.285 Z-3.000 F1999.800
G1 X16.537 Y16.617 Z-3.000 F1999.800
G1 X16.191 Y16.887 Z-3.000 F1999.800
G1 X15.799 Y17.084 Z-3.000 F1999.800
G1 X15.376 Y17.201 Z-3.000 F1999.800
G1 X14.938 Y17.233 Z-3.000 F1999.800
G1 X14.502 Y17.179 Z-3.000 F1999.800
G1 X14.085 Y17.041 Z-3.000 F1999.800
G1 X13.703 Y16.824 Z-3.000 F1999.800
G1 X13.371 Y16.537 Z-3.000 F1999.800
G1 X13.101 Y16.191 Z-3.000 F1999.800
G1 X12.903 Y15.799 Z-3.000 F1999.800
G1 X12.787 Y15.376 Z-3.000 F1999.800
G1 X12.754 Y14.938 Z-3.000 F1999.800
G1 X12.808 Y14.502 Z-3.000 F1999.800
G1 X12.946 Y14.085 Z-3.000 F1999.800
G1 X13.163 Y13.703 Z-3.000 F1999.800
G1 X13.450 Y13.371 Z-3.000 F1999.800
G1 X13.796 Y13.101 Z-3.000 F1999.800
G1 X14.189 Y12.903 Z-3.000 F1999.800
(Adaptive - depth: -3.000000)
G1 X14.994 Y12.744 F1999.800
G1 X15.062 Y12.669 F1999.800
G1 X15.113 Y12.581 F1999.800
G1 X15.181 Y12.506 F1999.800
G1 X15.438 Y12.350 F1999.800
G1 X15.713 Y12.256 F1999.800
G1 X16.300 Y12.238 F1999.800
G1 X16.688 Y12.319 F1999.800
G1 X16.925 Y12.406 F1999.800
G1 X17.156 Y12.519 F1999.800
G1 X17.456 Y12.713 F1999.800
G1 X17.762 Y13.006 F1999.800
G1 X17.981 Y13.262 F1999.800
G1 X18.181 Y13.575 F1999.800
G1 X18.337 Y13.919 F1999.800
G1 X18.444 Y14.262 F1999.800
G1 X18.531 Y14.625 F1999.800
G1 X18.569 Y15.137 F1999.800
G1 X18.556 Y15.537 F1999.800
G1 X18.481 Y15.956 F1999.800
G1 X18.375 Y16.306 F1999.800
G1 X18.212 Y16.669 F1999.800
G1 X18.019 Y17.012 F1999.800
G1 X17.731 Y17.400 F1999.800
G1 X17.444 Y17.706 F1999.800
G1 X17.119 Y17.988 F1999.800
G1 X16.750 Y18.231 F1999.800
G1 X16.356 Y18.406 F1999.800
G1 X16.025 Y18.519 F1999.800
G1 X15.631 Y18.613 F1999.800
G1 X15.156 Y18.650 F1999.800
G1 X14.756 Y18.644 F1999.800
G1 X14.331 Y18.587 F1999.800
G1 X13.906 Y18.500 F1999.800
G1 X13.375 Y18.319 F1999.800
G1 X12.969 Y18.087 F1999.800
G1 X12.694 Y17.894 F1999.800
G1 X12.425 Y17.663 F1999.800
G1 X12.106 Y17.319 F1999.800
G1 X11.825 Y16.931 F1999.800
G1 X11.625 Y16.550 F1999.800
G1 X11.481 Y16.200 F1999.800
G1 X11.375 Y15.794 F1999.800
G1 X11.319 Y15.387 F1999.800
G1 X11.281 Y14.988 F1999.800
G1 X11.319 Y14.419 F1999.800
G1 X11.394 Y13.981 F1999.800
G1 X11.550 Y13.544 F1999.800
G1 X11.688 Y13.244 F1999.800
G1 X11.906 Y12.900 F1999.800
G1 X12.137 Y12.581 F1999.800
G1 X12.488 Y12.188 F1999.800
G1 X12.887 Y11.794 F1999.800
G1 X13.400 Y11.381 F1999.800
G1 X13.900 Y11.094 F1999.800
G1 X14.262 Y10.912 F1999.800
G1 X14.750 Y10.731 F1999.800
G1 X15.225 Y10.619 F1999.800
G1 X15.688 Y10.581 F1999.800
G1 X16.044 Y10.581 F1999.800
G1 X16.469 Y10.637 F1999.800
G1 X16.869 Y10.713 F1999.800
G1 X17.438 Y10.906 F1999.800
G1 X17.863 Y11.100 F1999.800
G1 X18.269 Y11.363 F1999.800
G1 X18.562 Y11.594 F1999.800
G1 X18.875 Y11.906 F1999.800
G1 X19.156 Y12.225 F1999.800
G1 X19.481 Y12.706 F1999.800
G1 X19.706 Y13.125 F1999.800
G1 X19.900 Y13.575 F1999.800
G1 X20.050 Y14.069 F1999.800
G1 X20.150 Y14.550 F1999.800
G1 X20.200 Y15.044 F1999.800
G1 X20.200 Y15.544 F1999.800
G1 X20.150 Y16.038 F1999.800
G1 X20.031 Y16.519 F1999.800
G1 X19.900 Y16.894 F1999.800
G1 X19.725 Y17.319 F1999.800
G1 X19.450 Y17.837 F1999.800
G1 X19.119 Y18.344 F1999.800
G1 X18.750 Y18.744 F1999.800
G1 X18.469 Y19.012 F1999.800
G1 X18.075 Y19.312 F1999.800
G1 X17.688 Y19.575 F1999.800
G1 X17.113 Y19.875 F1999.800
G1 X16.625 Y20.075 F1999.800
G1 X16.100 Y20.206 F1999.800
G1 X15.688 Y20.275 F1999.800
G1 X15.200 Y20.306 F1999.800
G1 X14.725 Y20.319 F1999.800
G1 X13.994 Y20.244 F1999.800
G1 X13.463 Y20.119 F1999.800
G1 X13.044 Y19.994 F1999.800
G1 X12.537 Y19.775 F1999.800
G1 X12.100 Y19.525 F1999.800
G1 X11.694 Y19.250 F1999.800
G1 X11.306 Y18.919 F1999.800
G1 X10.956 Y18.556 F1999.800
G1 X10.644 Y18.163 F1999.800
G1 X10.369 Y17.738 F1999.800
G1 X10.137 Y17.288 F1999.800
G1 X9.950 Y16.819 F1999.800
G1 X9.787 Y16.344 F1999.800
G1 X9.656 Y15.713 F1999.800
G1 X9.588 Y15.175 F1999.800
G1 X9.588 Y14.619 F1999.800
G1 X9.625 Y14.162 F1999.800
G1 X9.719 Y13.656 F1999.800
G1 X9.863 Y13.169 F1999.800
G1 X10.044 Y12.713 F1999.800
G1 X10.256 Y12.256 F1999.800
G1 X10.594 Y11.706 F1999.800
G1 X10.912 Y11.275 F1999.800
G1 X11.275 Y10.856 F1999.800
G1 X11.675 Y10.444 F1999.800
G1 X12.238 Y9.975 F1999.800
G1 X12.731 Y9.619 F1999.800
G1 X13.294 Y9.331 F1999.800
G1 X13.675 Y9.162 F1999.800
G1 X14.188 Y9.000 F1999.800
G1 X14.681 Y8.881 F1999.800
G1 X15.306 Y8.794 F1999.800
G1 X15.856 Y8.762 F1999.800
G1 X16.413 Y8.781 F1999.800
G1 X16.981 Y8.881 F1999.800
G1 X17.406 Y8.988 F1999.800
G1 X17.894 Y9.162 F1999.800
G1 X18.356 Y9.356 F1999.800
G1 X18.956 Y9.688 F1999.800
G1 X19.419 Y10.000 F1999.800
G1 X19.869 Y10.350 F1999.800
G1 X20.306 Y10.762 F1999.800
G1 X20.663 Y11.213 F1999.800
G1 X20.913 Y11.569 F1999.800
G1 X21.188 Y12.019 F1999.800
G1 X21.462 Y12.637 F1999.800
G1 X21.644 Y13.131 F1999.800
G1 X21.800 Y13.681 F1999.800
G1 X21.900 Y14.256 F1999.800
G1 X21.950 Y14.812 F1999.800
G1 X21.950 Y15.381 F1999.800
G1 X21.900 Y15.950 F1999.800
G1 X21.806 Y16.506 F1999.800
G1 X21.663 Y17.062 F1999.800
G1 X21.500 Y17.613 F1999.800
G1 X21.219 Y18.306 F1999.800
G1 X20.900 Y18.869 F1999.800
G1 X20.625 Y19.262 F1999.800
G1 X20.312 Y19.644 F1999.800
G1 X19.956 Y20.038 F1999.800
G1 X19.406 Y20.519 F1999.800
G1 X18.950 Y20.863 F1999.800
G1 X18.444 Y21.188 F1999.800
G1 X17.887 Y21.475 F1999.800
G1 X17.331 Y21.712 F1999.800
G1 X16.756 Y21.906 F1999.800
G1 X16.156 Y22.050 F1999.800
G1 X15.556 Y22.144 F1999.800
G1 X14.956 Y22.156 F1999.800
G1 X14.106 Y22.106 F1999.800
G1 X13.363 Y22.000 F1999.800
G1 X12.281 Y21.619 F1999.800
G1 X11.500 Y21.269 F1999.800
G1 X10.900 Y20.906 F1999.800
G1 X10.194 Y20.294 F1999.800
G1 X9.519 Y19.600 F1999.800
G1 X8.831 Y18.650 F1999.800
G1 X8.294 Y17.606 F1999.800
G1 X7.881 Y16.212 F1999.800
G1 X7.713 Y14.912 F1999.800
G1 X7.800 Y13.512 F1999.800
G1 X8.194 Y12.131 F1999.800
G1 X8.637 Y11.119 F1999.800
G1 X9.162 Y10.256 F1999.800
G1 X10.056 Y9.162 F1999.800
G1 X10.631 Y8.619 F1999.800
G1 X11.600 Y7.912 F1999.800
G1 X12.475 Y7.456 F1999.800
G1 X12.850 Y7.312 F1999.800
G1 X14.069 Y7.075 F1999.800
G1 X15.194 Y7.031 F1999.800
G1 X16.225 Y7.125 F1999.800
G1 X17.163 Y7.331 F1999.800
G1 X18.419 Y7.800 F1999.800
G1 X19.262 Y8.262 F1999.800
G1 X20.244 Y9.000 F1999.800
G1 X21.000 Y9.756 F1999.800
G1 X21.531 Y10.431 F1999.800
G1 X22.163 Y11.512 F1999.800
G1 X22.594 Y12.569 F1999.800
G1 X22.856 Y13.600 F1999.800
G1 X22.962 Y15.194 F1999.800
G1 X22.856 Y16.319 F1999.800
G1 X22.700 Y17.069 F1999.800
G1 X22.212 Y18.381 F1999.800
G1 X21.688 Y19.337 F1999.800
G1 X21.156 Y20.062 F1999.800
G1 X20.256 Y20.988 F1999.800
G1 X19.625 Y21.488 F1999.800
G1 X18.306 Y22.238 F1999.800
G1 X17.081 Y22.688 F1999.800
G1 X15.881 Y22.919 F1999.800
G1 X14.681 Y22.962 F1999.800
G1 X13.881 Y22.894 F1999.800
G1 X12.881 Y22.681 F1999.800
G1 X11.494 Y22.156 F1999.800
G1 X10.850 Y21.806 F1999.800
G1 X10.081 Y21.256 F1999.800
G1 X9.363 Y20.637 F1999.800
G1 X8.537 Y19.663 F1999.800
G1 X7.888 Y18.594 F1999.800
G1 X7.450 Y17.556 F1999.800
G1 X7.138 Y16.356 F1999.800
G1 X7.037 Y15.356 F1999.800
G1 X7.050 Y14.356 F1999.800
G1 X7.250 Y13.156 F1999.800
G1 X7.513 Y12.256 F1999.800
G1 X7.975 Y11.225 F1999.800
G1 X8.394 Y10.537 F1999.800
G1 X8.806 Y9.969 F1999.800
G1 X9.769 Y8.981 F1999.800
G1 X9.769 Y8.981 F1999.800
G1 X9.806 Y8.950 F1999.800
G1 X9.819 Y8.950 F1999.800
G1 X9.838 Y8.925 F1999.800
G1 X9.838 Y8.925 F1999.800
G1 X10.456 Y8.444 F1999.800
G1 X10.456 Y8.444 F1999.800
G1 X10.644 Y8.287 F1999.800
G1 X10.869 Y8.188 F1999.800
G1 X10.869 Y8.188 F1999.800
G1 X11.125 Y7.975 F1999.800
G1 X11.125 Y7.975 F1999.800
G1 X11.300 Y7.806 F1999.800
G1 X11.519 Y7.688 F1999.800
G1 X11.519 Y7.688 F1999.800
G1 X12.200 Y7.400 F1999.800
G1 X12.425 Y7.319 F1999.800
G1 X12.969 Y7.162 F1999.800
G1 X13.994 Y6.963 F1999.800
G1 X15.069 Y6.912 F1999.800
G1 X16.188 Y7.000 F1999.800
G1 X17.206 Y7.213 F1999.800
G1 X18.456 Y7.688 F1999.800
G1 X19.294 Y8.137 F1999.800
G1 X20.344 Y8.931 F1999.800
G1 X21.038 Y9.619 F1999.800
G1 X21.681 Y10.444 F1999.800
G1 X22.244 Y11.406 F1999.800
G1 X22.706 Y12.537 F1999.800
G1 X22.975 Y13.594 F1999.800
G1 X23.081 Y14.931 F1999.800
G1 X23.069 Y15.344 F1999.800
G1 X22.981 Y16.281 F1999.800
G1 X22.781 Y17.219 F1999.800
G1 X22.337 Y18.394 F1999.800
G1 X21.775 Y19.425 F1999.800
G1 X21.244 Y20.137 F1999.800
G1 X20.469 Y20.950 F1999.800
G1 X20.312 Y21.094 F1999.800
G1 X19.731 Y21.556 F1999.800
G1 X18.419 Y22.319 F1999.800
G1 X17.100 Y22.812 F1999.800
G1 X15.950 Y23.038 F1999.800
G1 X14.794 Y23.081 F1999.800
G1 X13.869 Y23.006 F1999.800
G1 X12.850 Y22.794 F1999.800
G1 X11.619 Y22.350 F1999.800
G1 X10.850 Y21.950 F1999.800
G1 X10.069 Y21.400 F1999.800
G1 X9.225 Y20.663 F1999.800
G1 X8.419 Y19.706 F1999.800
G1 X7.787 Y18.675 F1999.800
G1 X7.331 Y17.556 F1999.800
G1 X7.013 Y16.331 F1999.800
G1 X6.919 Y15.238 F1999.800
G1 X6.944 Y14.287 F1999.800
G1 X7.131 Y13.088 F1999.800
G1 X7.400 Y12.225 F1999.800
G1 X7.900 Y11.106 F1999.800
G1 X8.094 Y10.775 F1999.800
G1 X8.769 Y9.831 F1999.800
G1 X9.644 Y8.944 F1999.800
G1 X10.456 Y8.306 F1999.800
G1 X11.312 Y7.794 F1999.800
G1 X11.519 Y7.688 F1999.800
G1 X11.519 Y7.688 F1999.800
G0 Z6.000
(helix to depth: -4.000000)
G0 X16.887 Y13.796 Z6.000
G0 X16.887 Y13.796 Z4.000
G1 X16.887 Y13.796 Z-3.000 F300.000
G1 X16.887 Y13.796 Z-3.000 F300.000
G1 X17.084 Y14.189 Z-3.039 F300.000
G1 X17.201 Y14.612 Z-3.077 F300.000
G1 X17.233 Y15.050 Z-3.116 F300.000
G1 X17.179 Y15.486 Z-3.155 F300.000
G1 X17.041 Y15.903 Z-3.193 F300.000
G1 X16.824 Y16.285 Z-3.232 F300.000
G1 X16.537 Y16.617 Z-3.271 F300.000
G1 X16.191 Y16.887 Z-3.309 F300.000
G1 X15.799 Y17.084 Z-3.348 F300.000
G1 X15.376 Y17.201 Z-3.387 F300.000
G1 X14.938 Y17.233 Z-3.425 F300.000
G1 X14.502 Y17.179 Z-3.464 F300.000
G1 X14.085 Y17.041 Z-3.502 F300.000
G1 X13.703 Y16.824 Z-3.541 F300.000
G1 X13.371 Y16.537 Z-3.580 F300.000
G1 X13.101 Y16.191 Z-3.618 F300.000
G1 X12.903 Y15.799 Z-3.657 F300.000
G1 X12.787 Y15.376 Z-3.696 F300.000
G1 X12.754 Y14.938 Z-3.734 F300.000
G1 X12.808 Y14.502 Z-3.773 F300.000
G1 X12.946 Y14.085 Z-3.812 F300.000
G1 X13.163 Y13.703 Z-3.850 F300.000
G1 X13.450 Y13.371 Z-3.889 F300.000
G1 X13.796 Y13.101 Z-3.928 F300.000
G1 X14.189 Y12.903 Z-3.966 F300.000
G1 X14.612 Y12.787 Z-4.000 F1999.800
G1 X15.050 Y12.754 Z-4.000 F1999.800
G1 X15.486 Y12.808 Z-4.000 F1999.800
G1 X15.903 Y12.946 Z-4.000 F1999.800
G1 X16.285 Y13.163 Z-4.000 F1999.800
G1 X16.617 Y13.450 Z-4.000 F1999.800
G1 X16.887 Y13.796 Z-4.000 F1999.800
G1 X17.084 Y14.189 Z-4.000 F1999.800
G1 X17.201 Y14.612 Z-4.000 F1999.800
G1 X17.233 Y15.050 Z-4.000 F1999.800
G1 X17.179 Y15.486 Z-4.000 F1999.800
G1 X17.041 Y15.903 Z-4.000 F1999.800
G1 X16.824 Y16.285 Z-4.000 F1999.800
G1 X16.537 Y16.617 Z-4.000 F1999.800
G1 X16.191 Y16.887 Z-4.000 F1999.800
G1 X15.799 Y17.084 Z-4.000 F1999.800
G1 X15.376 Y17.201 Z-4.000 F1999.800
G1 X14.938 Y17.233 Z-4.000 F1999.800
G1 X14.502 Y17.179 Z-4.000 F1999.800
G1 X14.085 Y17.041 Z-4.000 F1999.800
G1 X13.703 Y16.824 Z-4.000 F1999.800
G1 X13.371 Y16.537 Z-4.000 F1999.800
G1 X13.101 Y16.191 Z-4.000 F1999.800
G1 X12.903 Y15.799 Z-4.000 F1999.800
G1 X12.787 Y15.376 Z-4.000 F1999.800
G1 X12.754 Y14.938 Z-4.000 F1999.800
G1 X12.808 Y14.502 Z-4.000 F1999.800
G1 X12.946 Y14.085 Z-4.000 F1999.800
G1 X13.163 Y13.703 Z-4.000 F1999.800
G1 X13.450 Y13.371 Z-4.000 F1999.800
G1 X13.796 Y13.101 Z-4.000 F1999.800
G1 X14.189 Y12.903 Z-4.000 F1999.800
(Adaptive - depth: -4.000000)
G1 X14.994 Y12.744 F1999.800
G1 X15.062 Y12.669 F1999.800
G1 X15.113 Y12.581 F1999.800
G1 X15.181 Y12.506 F1999.800
G1 X15.438 Y12.350 F1999.800
G1 X15.713 Y12.256 F1999.800
G1 X16.300 Y12.238 F1999.800
G1 X16.688 Y12.319 F1999.800
G1 X16.925 Y12.406 F1999.800
G1 X17.156 Y12.519 F1999.800
G1 X17.456 Y12.713 F1999.800
G1 X17.762 Y13.006 F1999.800
G1 X17.981 Y13.262 F1999.800
G1 X18.181 Y13.575 F1999.800
G1 X18.337 Y13.919 F1999.800
G1 X18.444 Y14.262 F1999.800
G1 X18.531 Y14.625 F1999.800
G1 X18.569 Y15.137 F1999.800
G1 X18.556 Y15.537 F1999.800
G1 X18.481 Y15.956 F1999.800
G1 X18.375 Y16.306 F1999.800
G1 X18.212 Y16.669 F1999.800
G1 X18.019 Y17.012 F1999.800
G1 X17.731 Y17.400 F1999.800
G1 X17.444 Y17.706 F1999.800
G1 X17.119 Y17.988 F1999.800
G1 X16.750 Y18.231 F1999.800
G1 X16.356 Y18.406 F1999.800
G1 X16.025 Y18.519 F1999.800
G1 X15.631 Y18.613 F1999.800
G1 X15.156 Y18.650 F1999.800
G1 X14.756 Y18.644 F1999.800
G1 X14.331 Y18.587 F1999.800
G1 X13.906 Y18.500 F1999.800
G1 X13.375 Y18.319 F1999.800
G1 X12.969 Y18.087 F1999.800
G1 X12.694 Y17.894 F1999.800
G1 X12.425 Y17.663 F1999.800
G1 X12.106 Y17.319 F1999.800
G1 X11.825 Y16.931 F1999.800
G1 X11.625 Y16.550 F1999.800
G1 X11.481 Y16.200 F1999.800
G1 X11.375 Y15.794 F1999.800
G1 X11.319 Y15.387 F1999.800
G1 X11.281 Y14.988 F1999.800
G1 X11.319 Y14.419 F1999.800
G1 X11.394 Y13.981 F1999.800
G1 X11.550 Y13.544 F1999.800
G1 X11.688 Y13.244 F1999.800
G1 X11.906 Y12.900 F1999.800
G1 X12.137 Y12.581 F1999.800
G1 X12.488 Y12.188 F1999.800
G1 X12.887 Y11.794 F1999.800
G1 X13.400 Y11.381 F1999.800
G1 X13.900 Y11.094 F1999.800
G1 X14.262 Y10.912 F1999.800
G1 X14.750 Y10.731 F1999.800
G1 X15.225 Y10.619 F1999.800
G1 X15.688 Y10.581 F1999.800
G1 X16.044 Y10.581 F1999.800
G1 X16.469 Y10.637 F1999.800
G1 X16.869 Y10.713 F1999.800
G1 X17.438 Y10.906 F1999.800
G1 X17.863 Y11.100 F1999.800
G1 X18.269 Y11.363 F1999.800
G1 X18.562 Y11.594 F1999.800
G1 X18.875 Y11.906 F1999.800
G1 X19.156 Y12.225 F1999.800
G1 X19.481 Y12.706 F1999.800
G1 X19.706 Y13.125 F1999.800
G1 X19.900 Y13.575 F1999.800
G1 X20.050 Y14.069 F1999.800
G1 X20.150 Y14.550 F1999.800
G1 X20.200 Y15.044 F1999.800
G1 X20.200 Y15.544 F1999.800
G1 X20.150 Y16.038 F1999.800
G1 X20.031 Y16.519 F1999.800
G1 X19.900 Y16.894 F1999.800
G1 X19.725 Y17.319 F1999.800
G1 X19.450 Y17.837 F1999.800
G1 X19.119 Y18.344 F1999.800
G1 X18.750 Y18.744 F1999.800
G1 X18.469 Y19.012 F1999.800
G1 X18.075 Y19.312 F1999.800
G1 X17.688 Y19.575 F1999.800
G1 X17.113 Y19.875 F1999.800
G1 X16.625 Y20.075 F1999.800
G1 X16.100 Y20.206 F1999.800
G1 X15.688 Y20.275 F1999.800
G1 X15.200 Y20.306 F1999.800
G1 X14.725 Y20.319 F1999.800
G1 X13.994 Y20.244 F1999.800
G1 X13.463 Y20.119 F1999.800
G1 X13.044 Y19.994 F1999.800
G1 X12.537 Y19.775 F1999.800
G1 X12.100 Y19.525 F1999.800
G1 X11.694 Y19.250 F1999.800
G1 X11.306 Y18.919 F1999.800
G1 X10.956 Y18.556 F1999.800
G1 X10.644 Y18.163 F1999.800
G1 X10.369 Y17.738 F1999.800
G1 X10.137 Y17.288 F1999.800
G1 X9.950 Y16.819 F1999.800
G1 X9.787 Y16.344 F1999.800
G1 X9.656 Y15.713 F1999.800
G1 X9.588 Y15.175 F1999.800
G1 X9.588 Y14.619 F1999.800
G1 X9.625 Y14.162 F1999.800
G1 X9.719 Y13.656 F1999.800
G1 X9.863 Y13.169 F1999.800
G1 X10.044 Y12.713 F1999.800
G1 X10.256 Y12.256 F1999.800
G1 X10.594 Y11.706 F1999.800
G1 X10.912 Y11.275 F1999.800
G1 X11.275 Y10.856 F1999.800
G1 X11.675 Y10.444 F1999.800
G1 X12.238 Y9.975 F1999.800
G1 X12.731 Y9.619 F1999.800
G1 X13.294 Y9.331 F1999.800
G1 X13.675 Y9.162 F1999.800
G1 X14.188 Y9.000 F1999.800
G1 X14.681 Y8.881 F1999.800
G1 X15.306 Y8.794 F1999.800
G1 X15.856 Y8.762 F1999.800
G1 X16.413 Y8.781 F1999.800
G1 X16.981 Y8.881 F1999.800
G1 X17.406 Y8.988 F1999.800
G1 X17.894 Y9.162 F1999.800
G1 X18.356 Y9.356 F1999.800
G1 X18.956 Y9.688 F1999.800
G1 X19.419 Y10.000 F1999.800
G1 X19.869 Y10.350 F1999.800
G1 X20.306 Y10.762 F1999.800
G1 X20.663 Y11.213 F1999.800
G1 X20.913 Y11.569 F1999.800
G1 X21.188 Y12.019 F1999.800
G1 X21.462 Y12.637 F1999.800
G1 X21.644 Y13.131 F1999.800
G1 X21.800 Y13.681 F1999.800
G1 X21.900 Y14.256 F1999.800
G1 X21.950 Y14.812 F1999.800
G1 X21.950 Y15.381 F1999.800
G1 X21.900 Y15.950 F1999.800
G1 X21.806 Y16.506 F1999.800
G1 X21.663 Y17.062 F1999.800
G1 X21.500 Y17.613 F1999.800
G1 X21.219 Y18.306 F1999.800
G1 X20.900 Y18.869 F1999.800
G1 X20.625 Y19.262 F1999.800
G1 X20.312 Y19.644 F1999.800
G1 X19.956 Y20.038 F1999.800
G1 X19.406 Y20.519 F1999.800
G1 X18.950 Y20.863 F1999.800
G1 X18.444 Y21.188 F1999.800
G1 X17.887 Y21.475 F1999.800
G1 X17.331 Y21.712 F1999.800
G1 X16.756 Y21.906 F1999.800
G1 X16.156 Y22.050 F1999.800
G1 X15.556 Y22.144 F1999.800
G1 X14.956 Y22.156 F1999.800
G1 X14.106 Y22.106 F1999.800
G1 X13.363 Y22.000 F1999.800
G1 X12.281 Y21.619 F1999.800
G1 X11.500 Y21.269 F1999.800
G1 X10.900 Y20.906 F1999.800
G1 X10.194 Y20.294 F1999.800
G1 X9.519 Y19.600 F1999.800
G1 X8.831 Y18.650 F1999.800
G1 X8.294 Y17.606 F1999.800
G1 X7.881 Y16.212 F1999.800
G1 X7.713 Y14.912 F1999.800
G1 X7.800 Y13.512 F1999.800
G1 X8.194 Y12.131 F1999.800
G1 X8.637 Y11.119 F1999.800
G1 X9.162 Y10.256 F1999.800
G1 X10.056 Y9.162 F1999.800
G1 X10.631 Y8.619 F1999.800
G1 X11.600 Y7.912 F1999.800
G1 X12.475 Y7.456 F1999.800
G1 X12.850 Y7.312 F1999.800
G1 X14.069 Y7.075 F1999.800
G1 X15.194 Y7.031 F1999.800
G1 X16.225 Y7.125 F1999.800
G1 X17.163 Y7.331 F1999.800
G1 X18.419 Y7.800 F1999.800
G1 X19.262 Y8.262 F1999.800
G1 X20.244 Y9.000 F1999.800
G1 X21.000 Y9.756 F1999.800
G1 X21.531 Y10.431 F1999.800
G1 X22.163 Y11.512 F1999.800
G1 X22.594 Y12.569 F1999.800
G1 X22.856 Y13.600 F1999.800
G1 X22.962 Y15.194 F1999.800
G1 X22.856 Y16.319 F1999.800
G1 X22.700 Y17.069 F1999.800
G1 X22.212 Y18.381 F1999.800
G1 X21.688 Y19.337 F1999.800
G1 X21.156 Y20.062 F1999.800
G1 X20.256 Y20.988 F1999.800
G1 X19.625 Y21.488 F1999.800
G1 X18.306 Y22.238 F1999.800
G1 X17.081 Y22.688 F1999.800
G1 X15.881 Y22.919 F1999.800
G1 X14.681 Y22.962 F1999.800
G1 X13.881 Y22.894 F1999.800
G1 X12.881 Y22.681 F1999.800
G1 X11.494 Y22.156 F1999.800
G1 X10.850 Y21.806 F1999.800
G1 X10.081 Y21.256 F1999.800
G1 X9.363 Y20.637 F1999.800
G1 X8.537 Y19.663 F1999.800
G1 X7.888 Y18.594 F1999.800
G1 X7.450 Y17.556 F1999.800
G1 X7.138 Y16.356 F1999.800
G1 X7.037 Y15.356 F1999.800
G1 X7.050 Y14.356 F1999.800
G1 X7.250 Y13.156 F1999.800
G1 X7.513 Y12.256 F1999.800
G1 X7.975 Y11.225 F1999.800
G1 X8.394 Y10.537 F1999.800
G1 X8.806 Y9.969 F1999.800
G1 X9.769 Y8.981 F1999.800
G1 X9.769 Y8.981 F1999.800
G1 X9.806 Y8.950 F1999.800
G1 X9.819 Y8.950 F1999.800
G1 X9.838 Y8.925 F1999.800
G1 X9.838 Y8.925 F1999.800
G1 X10.456 Y8.444 F1999.800
G1 X10.456 Y8.444 F1999.800
G1 X10.644 Y8.287 F1999.800
G1 X10.869 Y8.188 F1999.800
G1 X10.869 Y8.188 F1999.800
G1 X11.125 Y7.975 F1999.800
G1 X11.125 Y7.975 F1999.800
G1 X11.300 Y7.806 F1999.800
G1 X11.519 Y7.688 F1999.800
G1 X11.519 Y7.688 F1999.800
G1 X12.200 Y7.400 F1999.800
G1 X12.425 Y7.319 F1999.800
G1 X12.969 Y7.162 F1999.800
G1 X13.994 Y6.963 F1999.800
G1 X15.069 Y6.912 F1999.800
G1 X16.188 Y7.000 F1999.800
G1 X17.206 Y7.213 F1999.800
G1 X18.456 Y7.688 F1999.800
G1 X19.294 Y8.137 F1999.800
G1 X20.344 Y8.931 F1999.800
G1 X21.038 Y9.619 F1999.800
G1 X21.681 Y10.444 F1999.800
G1 X22.244 Y11.406 F1999.800
G1 X22.706 Y12.537 F1999.800
G1 X22.975 Y13.594 F1999.800
G1 X23.081 Y14.931 F1999.800
G1 X23.069 Y15.344 F1999.800
G1 X22.981 Y16.281 F1999.800
G1 X22.781 Y17.219 F1999.800
G1 X22.337 Y18.394 F1999.800
G1 X21.775 Y19.425 F1999.800
G1 X21.244 Y20.137 F1999.800
G1 X20.469 Y20.950 F1999.800
G1 X20.312 Y21.094 F1999.800
G1 X19.731 Y21.556 F1999.800
G1 X18.419 Y22.319 F1999.800
G1 X17.100 Y22.812 F1999.800
G1 X15.950 Y23.038 F1999.800
G1 X14.794 Y23.081 F1999.800
G1 X13.869 Y23.006 F1999.800
G1 X12.850 Y22.794 F1999.800
G1 X11.619 Y22.350 F1999.800
G1 X10.850 Y21.950 F1999.800
G1 X10.069 Y21.400 F1999.800
G1 X9.225 Y20.663 F1999.800
G1 X8.419 Y19.706 F1999.800
G1 X7.787 Y18.675 F1999.800
G1 X7.331 Y17.556 F1999.800
G1 X7.013 Y16.331 F1999.800
G1 X6.919 Y15.238 F1999.800
G1 X6.944 Y14.287 F1999.800
G1 X7.131 Y13.088 F1999.800
G1 X7.400 Y12.225 F1999.800
G1 X7.900 Y11.106 F1999.800
G1 X8.094 Y10.775 F1999.800
G1 X8.769 Y9.831 F1999.800
G1 X9.644 Y8.944 F1999.800
G1 X10.456 Y8.306 F1999.800
G1 X11.312 Y7.794 F1999.800
G1 X11.519 Y7.688 F1999.800
G1 X11.519 Y7.688 F1999.800
G0 Z6.000
(helix to depth: -5.000000)
G0 X16.887 Y13.796 Z6.000
G0 X16.887 Y13.796 Z4.000
G1 X16.887 Y13.796 Z-4.000 F300.000
G1 X16.887 Y13.796 Z-4.000 F300.000
G1 X17.084 Y14.189 Z-4.039 F300.000
G1 X17.201 Y14.612 Z-4.077 F300.000
G1 X17.233 Y15.050 Z-4.116 F300.000
G1 X17.179 Y15.486 Z-4.155 F300.000
G1 X17.041 Y15.903 Z-4.193 F300.000
G1 X16.824 Y16.285 Z-4.232 F300.000
G1 X16.537 Y16.617 Z-4.271 F300.000
G1 X16.191 Y16.887 Z-4.309 F300.000
G1 X15.799 Y17.084 Z-4.348 F300.000
G1 X15.376 Y17.201 Z-4.387 F300.000
G1 X14.938 Y17.233 Z-4.425 F300.000
G1 X14.502 Y17.179 Z-4.464 F300.000
G1 X14.085 Y17.041 Z-4.502 F300.000
G1 X13.703 Y16.824 Z-4.541 F300.000
G1 X13.371 Y16.537 Z-4.580 F300.000
G1 X13.101 Y16.191 Z-4.618 F300.000
G1 X12.903 Y15.799 Z-4.657 F300.000
G1 X12.787 Y15.376 Z-4.696 F300.000
G1 X12.754 Y14.938 Z-4.734 F300.000
G1 X12.808 Y14.502 Z-4.773 F300.000
G1 X12.946 Y14.085 Z-4.812 F300.000
G1 X13.163 Y13.703 Z-4.850 F300.000
G1 X13.450 Y13.371 Z-4.889 F300.000
G1 X13.796 Y13.101 Z-4.928 F300.000
G1 X14.189 Y12.903 Z-4.966 F300.000
G1 X14.612 Y12.787 Z-5.000 F1999.800
G1 X15.050 Y12.754 Z-5.000 F1999.800
G1 X15.486 Y12.808 Z-5.000 F1999.800
G1 X15.903 Y12.946 Z-5.000 F1999.800
G1 X16.285 Y13.163 Z-5.000 F1999.800
G1 X16.617 Y13.450 Z-5.000 F1999.800
G1 X16.887 Y13.796 Z-5.000 F1999.800
G1 X17.084 Y14.189 Z-5.000 F1999.800
G1 X17.201 Y14.612 Z-5.000 F1999.800
G1 X17.233 Y15.050 Z-5.000 F1999.800
G1 X17.179 Y15.486 Z-5.000 F1999.800
G1 X17.041 Y15.903 Z-5.000 F1999.800
G1 X16.824 Y16.285 Z-5.000 F1999.800
G1 X16.537 Y16.617 Z-5.000 F1999.800
G1 X16.191 Y16.887 Z-5.000 F1999.800
G1 X15.799 Y17.084 Z-5.000 F1999.800
G1 X15.376 Y17.201 Z-5.000 F1999.800
G1 X14.938 Y17.233 Z-5.000 F1999.800
G1 X14.502 Y17.179 Z-5.000 F1999.800
G1 X14.085 Y17.041 Z-5.000 F1999.800
G1 X13.703 Y16.824 Z-5.000 F1999.800
G1 X13.371 Y16.537 Z-5.000 F1999.800
G1 X13.101 Y16.191 Z-5.000 F1999.800
G1 X12.903 Y15.799 Z-5.000 F1999.800
G1 X12.787 Y15.376 Z-5.000 F1999.800
G1 X12.754 Y14.938 Z-5.000 F1999.800
G1 X12.808 Y14.502 Z-5.000 F1999.800
G1 X12.946 Y14.085 Z-5.000 F1999.800
G1 X13.163 Y13.703 Z-5.000 F1999.800
G1 X13.450 Y13.371 Z-5.000 F1999.800
G1 X13.796 Y13.101 Z-5.000 F1999.800
G1 X14.189 Y12.903 Z-5.000 F1999.800
(Adaptive - depth: -5.000000)
G1 X14.994 Y12.744 F1999.800
G1 X15.062 Y12.669 F1999.800
G1 X15.113 Y12.581 F1999.800
G1 X15.181 Y12.506 F1999.800
G1 X15.438 Y12.350 F1999.800
G1 X15.713 Y12.256 F1999.800
G1 X16.300 Y12.238 F1999.800
G1 X16.688 Y12.319 F1999.800
G1 X16.925 Y12.406 F1999.800
G1 X17.156 Y12.519 F1999.800
G1 X17.456 Y12.713 F1999.800
G1 X17.762 Y13.006 F1999.800
G1 X17.981 Y13.262 F1999.800
G1 X18.181 Y13.575 F1999.800
G1 X18.337 Y13.919 F1999.800
G1 X18.444 Y14.262 F1999.800
G1 X18.531 Y14.625 F1999.800
G1 X18.569 Y15.137 F1999.800
G1 X18.556 Y15.537 F1999.800
G1 X18.481 Y15.956 F1999.800
G1 X18.375 Y16.306 F1999.800
G1 X18.212 Y16.669 F1999.800
G1 X18.019 Y17.012 F1999.800
G1 X17.731 Y17.400 F1999.800
G1 X17.444 Y17.706 F1999.800
G1 X17.119 Y17.988 F1999.800
G1 X16.750 Y18.231 F1999.800
G1 X16.356 Y18.406 F1999.800
G1 X16.025 Y18.519 F1999.800
G1 X15.631 Y18.613 F1999.800
G1 X15.156 Y18.650 F1999.800
G1 X14.756 Y18.644 F1999.800
G1 X14.331 Y18.587 F1999.800
G1 X13.906 Y18.500 F1999.800
G1 X13.375 Y18.319 F1999.800
G1 X12.969 Y18.087 F1999.800
G1 X12.694 Y17.894 F1999.800
G1 X12.425 Y17.663 F1999.800
G1 X12.106 Y17.319 F1999.800
G1 X11.825 Y16.931 F1999.800
G1 X11.625 Y16.550 F1999.800
G1 X11.481 Y16.200 F1999.800
G1 X11.375 Y15.794 F1999.800
G1 X11.319 Y15.387 F1999.800
G1 X11.281 Y14.988 F1999.800
G1 X11.319 Y14.419 F1999.800
G1 X11.394 Y13.981 F1999.800
G1 X11.550 Y13.544 F1999.800
G1 X11.688 Y13.244 F1999.800
G1 X11.906 Y12.900 F1999.800
G1 X12.137 Y12.581 F1999.800
G1 X12.488 Y12.188 F1999.800
G1 X12.887 Y11.794 F1999.800
G1 X13.400 Y11.381 F1999.800
G1 X13.900 Y11.094 F1999.800
G1 X14.262 Y10.912 F1999.800
G1 X14.750 Y10.731 F1999.800
G1 X15.225 Y10.619 F1999.800
G1 X15.688 Y10.581 F1999.800
G1 X16.044 Y10.581 F1999.800
G1 X16.469 Y10.637 F1999.800
G1 X16.869 Y10.713 F1999.800
G1 X17.438 Y10.906 F1999.800
G1 X17.863 Y11.100 F1999.800
G1 X18.269 Y11.363 F1999.800
G1 X18.562 Y11.594 F1999.800
G1 X18.875 Y11.906 F1999.800
G1 X19.156 Y12.225 F1999.800
G1 X19.481 Y12.706 F1999.800
G1 X19.706 Y13.125 F1999.800
G1 X19.900 Y13.575 F1999.800
G1 X20.050 Y14.069 F1999.800
G1 X20.150 Y14.550 F1999.800
G1 X20.200 Y15.044 F1999.800
G1 X20.200 Y15.544 F1999.800
G1 X20.150 Y16.038 F1999.800
G1 X20.031 Y16.519 F1999.800
G1 X19.900 Y16.894 F1999.800
G1 X19.725 Y17.319 F1999.800
G1 X19.450 Y17.837 F1999.800
G1 X19.119 Y18.344 F1999.800
G1 X18.750 Y18.744 F1999.800
G1 X18.469 Y19.012 F1999.800
G1 X18.075 Y19.312 F1999.800
G1 X17.688 Y19.575 F1999.800
G1 X17.113 Y19.875 F1999.800
G1 X16.625 Y20.075 F1999.800
G1 X16.100 Y20.206 F1999.800
G1 X15.688 Y20.275 F1999.800
G1 X15.200 Y20.306 F1999.800
G1 X14.725 Y20.319 F1999.800
G1 X13.994 Y20.244 F1999.800
G1 X13.463 Y20.119 F1999.800
G1 X13.044 Y19.994 F1999.800
G1 X12.537 Y19.775 F1999.800
G1 X12.100 Y19.525 F1999.800
G1 X11.694 Y19.250 F1999.800
G1 X11.306 Y18.919 F1999.800
G1 X10.956 Y18.556 F1999.800
G1 X10.644 Y18.163 F1999.800
G1 X10.369 Y17.738 F1999.800
G1 X10.137 Y17.288 F1999.800
G1 X9.950 Y16.819 F1999.800
G1 X9.787 Y16.344 F1999.800
G1 X9.656 Y15.713 F1999.800
G1 X9.588 Y15.175 F1999.800
G1 X9.588 Y14.619 F1999.800
G1 X9.625 Y14.162 F1999.800
G1 X9.719 Y13.656 F1999.800
G1 X9.863 Y13.169 F1999.800
G1 X10.044 Y12.713 F1999.800
G1 X10.256 Y12.256 F1999.800
G1 X10.594 Y11.706 F1999.800
G1 X10.912 Y11.275 F1999.800
G1 X11.275 Y10.856 F1999.800
G1 X11.675 Y10.444 F1999.800
G1 X12.238 Y9.975 F1999.800
G1 X12.731 Y9.619 F1999.800
G1 X13.294 Y9.331 F1999.800
G1 X13.675 Y9.162 F1999.800
G1 X14.188 Y9.000 F1999.800
G1 X14.681 Y8.881 F1999.800
G1 X15.306 Y8.794 F1999.800
G1 X15.856 Y8.762 F1999.800
G1 X16.413 Y8.781 F1999.800
G1 X16.981 Y8.881 F1999.800
G1 X17.406 Y8.988 F1999.800
G1 X17.894 Y9.162 F1999.800
G1 X18.356 Y9.356 F1999.800
G1 X18.956 Y9.688 F1999.800
G1 X19.419 Y10.000 F1999.800
G1 X19.869 Y10.350 F1999.800
G1 X20.306 Y10.762 F1999.800
G1 X20.663 Y11.213 F1999.800
G1 X20.913 Y11.569 F1999.800
G1 X21.188 Y12.019 F1999.800
G1 X21.462 Y12.637 F1999.800
G1 X21.644 Y13.131 F1999.800
G1 X21.800 Y13.681 F1999.800
G1 X21.900 Y14.256 F1999.800
G1 X21.950 Y14.812 F1999.800
G1 X21.950 Y15.381 F1999.800
G1 X21.900 Y15.950 F1999.800
G1 X21.806 Y16.506 F1999.800
G1 X21.663 Y17.062 F1999.800
G1 X21.500 Y17.613 F1999.800
G1 X21.219 Y18.306 F1999.800
G1 X20.900 Y18.869 F1999.800
G1 X20.625 Y19.262 F1999.800
G1 X20.312 Y19.644 F1999.800
G1 X19.956 Y20.038 F1999.800
G1 X19.406 Y20.519 F1999.800
G1 X18.950 Y20.863 F1999.800
G1 X18.444 Y21.188 F1999.800
G1 X17.887 Y21.475 F1999.800
G1 X17.331 Y21.712 F1999.800
G1 X16.756 Y21.906 F1999.800
G1 X16.156 Y22.050 F1999.800
G1 X15.556 Y22.144 F1999.800
G1 X14.956 Y22.156 F1999.800
G1 X14.106 Y22.106 F1999.800
G1 X13.363 Y22.000 F1999.800
G1 X12.281 Y21.619 F1999.800
G1 X11.500 Y21.269 F1999.800
G1 X10.900 Y20.906 F1999.800
G1 X10.194 Y20.294 F1999.800
G1 X9.519 Y19.600 F1999.800
G1 X8.831 Y18.650 F1999.800
G1 X8.294 Y17.606 F1999.800
G1 X7.881 Y16.212 F1999.800
G1 X7.713 Y14.912 F1999.800
G1 X7.800 Y13.512 F1999.800
G1 X8.194 Y12.131 F1999.800
G1 X8.637 Y11.119 F1999.800
G1 X9.162 Y10.256 F1999.800
G1 X10.056 Y9.162 F1999.800
G1 X10.631 Y8.619 F1999.800
G1 X11.600 Y7.912 F1999.800
G1 X12.475 Y7.456 F1999.800
G1 X12.850 Y7.312 F1999.800
G1 X14.069 Y7.075 F1999.800
G1 X15.194 Y7.031 F1999.800
G1 X16.225 Y7.125 F1999.800
G1 X17.163 Y7.331 F1999.800
G1 X18.419 Y7.800 F1999.800
G1 X19.262 Y8.262 F1999.800
G1 X20.244 Y9.000 F1999.800
G1 X21.000 Y9.756 F1999.800
G1 X21.531 Y10.431 F1999.800
G1 X22.163 Y11.512 F1999.800
G1 X22.594 Y12.569 F1999.800
G1 X22.856 Y13.600 F1999.800
G1 X22.962 Y15.194 F1999.800
G1 X22.856 Y16.319 F1999.800
G1 X22.700 Y17.069 F1999.800
G1 X22.212 Y18.381 F1999.800
G1 X21.688 Y19.337 F1999.800
G1 X21.156 Y20.062 F1999.800
G1 X20.256 Y20.988 F1999.800
G1 X19.625 Y21.488 F1999.800
G1 X18.306 Y22.238 F1999.800
G1 X17.081 Y22.688 F1999.800
G1 X15.881 Y22.919 F1999.800
G1 X14.681 Y22.962 F1999.800
G1 X13.881 Y22.894 F1999.800
G1 X12.881 Y22.681 F1999.800
G1 X11.494 Y22.156 F1999.800
G1 X10.850 Y21.806 F1999.800
G1 X10.081 Y21.256 F1999.800
G1 X9.363 Y20.637 F1999.800
G1 X8.537 Y19.663 F1999.800
G1 X7.888 Y18.594 F1999.800
G1 X7.450 Y17.556 F1999.800
G1 X7.138 Y16.356 F1999.800
G1 X7.037 Y15.356 F1999.800
G1 X7.050 Y14.356 F1999.800
G1 X7.250 Y13.156 F1999.800
G1 X7.513 Y12.256 F1999.800
G1 X7.975 Y11.225 F1999.800
G1 X8.394 Y10.537 F1999.800
G1 X8.806 Y9.969 F1999.800
G1 X9.769 Y8.981 F1999.800
G1 X9.769 Y8.981 F1999.800
G1 X9.806 Y8.950 F1999.800
G1 X9.819 Y8.950 F1999.800
G1 X9.838 Y8.925 F1999.800
G1 X9.838 Y8.925 F1999.800
G1 X10.456 Y8.444 F1999.800
G1 X10.456 Y8.444 F1999.800
G1 X10.644 Y8.287 F1999.800
G1 X10.869 Y8.188 F1999.800
G1 X10.869 Y8.188 F1999.800
G1 X11.125 Y7.975 F1999.800
G1 X11.125 Y7.975 F1999.800
G1 X11.300 Y7.806 F1999.800
G1 X11.519 Y7.688 F1999.800
G1 X11.519 Y7.688 F1999.800
G1 X12.200 Y7.400 F1999.800
G1 X12.425 Y7.319 F1999.800
G1 X12.969 Y7.162 F1999.800
G1 X13.994 Y6.963 F1999.800
G1 X15.069 Y6.912 F1999.800
G1 X16.188 Y7.000 F1999.800
G1 X17.206 Y7.213 F1999.800
G1 X18.456 Y7.688 F1999.800
G1 X19.294 Y8.137 F1999.800
G1 X20.344 Y8.931 F1999.800
G1 X21.038 Y9.619 F1999.800
G1 X21.681 Y10.444 F1999.800
G1 X22.244 Y11.406 F1999.800
G1 X22.706 Y12.537 F1999.800
G1 X22.975 Y13.594 F1999.800
G1 X23.081 Y14.931 F1999.800
G1 X23.069 Y15.344 F1999.800
G1 X22.981 Y16.281 F1999.800
G1 X22.781 Y17.219 F1999.800
G1 X22.337 Y18.394 F1999.800
G1 X21.775 Y19.425 F1999.800
G1 X21.244 Y20.137 F1999.800
G1 X20.469 Y20.950 F1999.800
G1 X20.312 Y21.094 F1999.800
G1 X19.731 Y21.556 F1999.800
G1 X18.419 Y22.319 F1999.800
G1 X17.100 Y22.812 F1999.800
G1 X15.950 Y23.038 F1999.800
G1 X14.794 Y23.081 F1999.800
G1 X13.869 Y23.006 F1999.800
G1 X12.850 Y22.794 F1999.800
G1 X11.619 Y22.350 F1999.800
G1 X10.850 Y21.950 F1999.800
G1 X10.069 Y21.400 F1999.800
G1 X9.225 Y20.663 F1999.800
G1 X8.419 Y19.706 F1999.800
G1 X7.787 Y18.675 F1999.800
G1 X7.331 Y17.556 F1999.800
G1 X7.013 Y16.331 F1999.800
G1 X6.919 Y15.238 F1999.800
G1 X6.944 Y14.287 F1999.800
G1 X7.131 Y13.088 F1999.800
G1 X7.400 Y12.225 F1999.800
G1 X7.900 Y11.106 F1999.800
G1 X8.094 Y10.775 F1999.800
G1 X8.769 Y9.831 F1999.800
G1 X9.644 Y8.944 F1999.800
G1 X10.456 Y8.306 F1999.800
G1 X11.312 Y7.794 F1999.800
G1 X11.519 Y7.688 F1999.800
G1 X11.519 Y7.688 F1999.800
G0 Z6.000
(helix to depth: -6.000000)
G0 X16.887 Y13.796 Z6.000
G0 X16.887 Y13.796 Z4.000
G1 X16.887 Y13.796 Z-5.000 F300.000
G1 X16.887 Y13.796 Z-5.000 F300.000
G1 X17.084 Y14.189 Z-5.039 F300.000
G1 X17.201 Y14.612 Z-5.077 F300.000
G1 X17.233 Y15.050 Z-5.116 F300.000
G1 X17.179 Y15.486 Z-5.155 F300.000
G1 X17.041 Y15.903 Z-5.193 F300.000
G1 X16.824 Y16.285 Z-5.232 F300.000
G1 X16.537 Y16.617 Z-5.271 F300.000
G1 X16.191 Y16.887 Z-5.309 F300.000
G1 X15.799 Y17.084 Z-5.348 F300.000
G1 X15.376 Y17.201 Z-5.387 F300.000
G1 X14.938 Y17.233 Z-5.425 F300.000
G1 X14.502 Y17.179 Z-5.464 F300.000
G1 X14.085 Y17.041 Z-5.502 F300.000
G1 X13.703 Y16.824 Z-5.541 F300.000
G1 X13.371 Y16.537 Z-5.580 F300.000
G1 X13.101 Y16.191 Z-5.618 F300.000
G1 X12.903 Y15.799 Z-5.657 F300.000
G1 X12.787 Y15.376 Z-5.696 F300.000
G1 X12.754 Y14.938 Z-5.734 F300.000
G1 X12.808 Y14.502 Z-5.773 F300.000
G1 X12.946 Y14.085 Z-5.812 F300.000
G1 X13.163 Y13.703 Z-5.850 F300.000
G1 X13.450 Y13.371 Z-5.889 F300.000
G1 X13.796 Y13.101 Z-5.928 F300.000
G1 X14.189 Y12.903 Z-5.966 F300.000
G1 X14.612 Y12.787 Z-6.000 F1999.800
G1 X15.050 Y12.754 Z-6.000 F1999.800
G1 X15.486 Y12.808 Z-6.000 F1999.800
G1 X15.903 Y12.946 Z-6.000 F1999.800
G1 X16.285 Y13.163 Z-6.000 F1999.800
G1 X16.617 Y13.450 Z-6.000 F1999.800
G1 X16.887 Y13.796 Z-6.000 F1999.800
G1 X17.084 Y14.189 Z-6.000 F1999.800
G1 X17.201 Y14.612 Z-6.000 F1999.800
G1 X17.233 Y15.050 Z-6.000 F1999.800
G1 X17.179 Y15.486 Z-6.000 F1999.800
G1 X17.041 Y15.903 Z-6.000 F1999.800
G1 X16.824 Y16.285 Z-6.000 F1999.800
G1 X16.537 Y16.617 Z-6.000 F1999.800
G1 X16.191 Y16.887 Z-6.000 F1999.800
G1 X15.799 Y17.084 Z-6.000 F1999.800
G1 X15.376 Y17.201 Z-6.000 F1999.800
G1 X14.938 Y17.233 Z-6.000 F1999.800
G1 X14.502 Y17.179 Z-6.000 F1999.800
G1 X14.085 Y17.041 Z-6.000 F1999.800
G1 X13.703 Y16.824 Z-6.000 F1999.800
G1 X13.371 Y16.537 Z-6.000 F1999.800
G1 X13.101 Y16.191 Z-6.000 F1999.800
G1 X12.903 Y15.799 Z-6.000 F1999.800
G1 X12.787 Y15.376 Z-6.000 F1999.800
G1 X12.754 Y14.938 Z-6.000 F1999.800
G1 X12.808 Y14.502 Z-6.000 F1999.800
G1 X12.946 Y14.085 Z-6.000 F1999.800
G1 X13.163 Y13.703 Z-6.000 F1999.800
G1 X13.450 Y13.371 Z-6.000 F1999.800
G1 X13.796 Y13.101 Z-6.000 F1999.800
G1 X14.189 Y12.903 Z-6.000 F1999.800
(Adaptive - depth: -6.000000)
G1 X14.994 Y12.744 F1999.800
G1 X15.062 Y12.669 F1999.800
G1 X15.113 Y12.581 F1999.800
G1 X15.181 Y12.506 F1999.800
G1 X15.438 Y12.350 F1999.800
G1 X15.713 Y12.256 F1999.800
G1 X16.300 Y12.238 F1999.800
G1 X16.688 Y12.319 F1999.800
G1 X16.925 Y12.406 F1999.800
G1 X17.156 Y12.519 F1999.800
G1 X17.456 Y12.713 F1999.800
G1 X17.762 Y13.006 F1999.800
G1 X17.981 Y13.262 F1999.800
G1 X18.181 Y13.575 F1999.800
G1 X18.337 Y13.919 F1999.800
G1 X18.444 Y14.262 F1999.800
G1 X18.531 Y14.625 F1999.800
G1 X18.569 Y15.137 F1999.800
G1 X18.556 Y15.537 F1999.800
G1 X18.481 Y15.956 F1999.800
G1 X18.375 Y16.306 F1999.800
G1 X18.212 Y16.669 F1999.800
G1 X18.019 Y17.012 F1999.800
G1 X17.731 Y17.400 F1999.800
G1 X17.444 Y17.706 F1999.800
G1 X17.119 Y17.988 F1999.800
G1 X16.750 Y18.231 F1999.800
G1 X16.356 Y18.406 F1999.800
G1 X16.025 Y18.519 F1999.800
G1 X15.631 Y18.613 F1999.800
G1 X15.156 Y18.650 F1999.800
G1 X14.756 Y18.644 F1999.800
G1 X14.331 Y18.587 F1999.800
G1 X13.906 Y18.500 F1999.800
G1 X13.375 Y18.319 F1999.800
G1 X12.969 Y18.087 F1999.800
G1 X12.694 Y17.894 F1999.800
G1 X12.425 Y17.663 F1999.800
G1 X12.106 Y17.319 F1999.800
G1 X11.825 Y16.931 F1999.800
G1 X11.625 Y16.550 F1999.800
G1 X11.481 Y16.200 F1999.800
G1 X11.375 Y15.794 F1999.800
G1 X11.319 Y15.387 F1999.800
G1 X11.281 Y14.988 F1999.800
G1 X11.319 Y14.419 F1999.800
G1 X11.394 Y13.981 F1999.800
G1 X11.550 Y13.544 F1999.800
G1 X11.688 Y13.244 F1999.800
G1 X11.906 Y12.900 F1999.800
G1 X12.137 Y12.581 F1999.800
G1 X12.488 Y12.188 F1999.800
G1 X12.887 Y11.794 F1999.800
G1 X13.400 Y11.381 F1999.800
G1 X13.900 Y11.094 F1999.800
G1 X14.262 Y10.912 F1999.800
G1 X14.750 Y10.731 F1999.800
G1 X15.225 Y10.619 F1999.800
G1 X15.688 Y10.581 F1999.800
G1 X16.044 Y10.581 F1999.800
G1 X16.469 Y10.637 F1999.800
G1 X16.869 Y10.713 F1999.800
G1 X17.438 Y10.906 F1999.800
G1 X17.863 Y11.100 F1999.800
G1 X18.269 Y11.363 F1999.800
G1 X18.562 Y11.594 F1999.800
G1 X18.875 Y11.906 F1999.800
G1 X19.156 Y12.225 F1999.800
G1 X19.481 Y12.706 F1999.800
G1 X19.706 Y13.125 F1999.800
G1 X19.900 Y13.575 F1999.800
G1 X20.050 Y14.069 F1999.800
G1 X20.150 Y14.550 F1999.800
G1 X20.200 Y15.044 F1999.800
G1 X20.200 Y15.544 F1999.800
G1 X20.150 Y16.038 F1999.800
G1 X20.031 Y16.519 F1999.800
G1 X19.900 Y16.894 F1999.800
G1 X19.725 Y17.319 F1999.800
G1 X19.450 Y17.837 F1999.800
G1 X19.119 Y18.344 F1999.800
G1 X18.750 Y18.744 F1999.800
G1 X18.469 Y19.012 F1999.800
G1 X18.075 Y19.312 F1999.800
G1 X17.688 Y19.575 F1999.800
G1 X17.113 Y19.875 F1999.800
G1 X16.625 Y20.075 F1999.800
G1 X16.100 Y20.206 F1999.800
G1 X15.688 Y20.275 F1999.800
G1 X15.200 Y20.306 F1999.800
G1 X14.725 Y20.319 F1999.800
G1 X13.994 Y20.244 F1999.800
G1 X13.463 Y20.119 F1999.800
G1 X13.044 Y19.994 F1999.800
G1 X12.537 Y19.775 F1999.800
G1 X12.100 Y19.525 F1999.800
G1 X11.694 Y19.250 F1999.800
G1 X11.306 Y18.919 F1999.800
G1 X10.956 Y18.556 F1999.800
G1 X10.644 Y18.163 F1999.800
G1 X10.369 Y17.738 F1999.800
G1 X10.137 Y17.288 F1999.800
G1 X9.950 Y16.819 F1999.800
G1 X9.787 Y16.344 F1999.800
G1 X9.656 Y15.713 F1999.800
G1 X9.588 Y15.175 F1999.800
G1 X9.588 Y14.619 F1999.800
G1 X9.625 Y14.162 F1999.800
G1 X9.719 Y13.656 F1999.800
G1 X9.863 Y13.169 F1999.800
G1 X10.044 Y12.713 F1999.800
G1 X10.256 Y12.256 F1999.800
G1 X10.594 Y11.706 F1999.800
G1 X10.912 Y11.275 F1999.800
G1 X11.275 Y10.856 F1999.800
G1 X11.675 Y10.444 F1999.800
G1 X12.238 Y9.975 F1999.800
G1 X12.731 Y9.619 F1999.800
G1 X13.294 Y9.331 F1999.800
G1 X13.675 Y9.162 F1999.800
G1 X14.188 Y9.000 F1999.800
G1 X14.681 Y8.881 F1999.800
G1 X15.306 Y8.794 F1999.800
G1 X15.856 Y8.762 F1999.800
G1 X16.413 Y8.781 F1999.800
G1 X16.981 Y8.881 F1999.800
G1 X17.406 Y8.988 F1999.800
G1 X17.894 Y9.162 F1999.800
G1 X18.356 Y9.356 F1999.800
G1 X18.956 Y9.688 F1999.800
G1 X19.419 Y10.000 F1999.800
G1 X19.869 Y10.350 F1999.800
G1 X20.306 Y10.762 F1999.800
G1 X20.663 Y11.213 F1999.800
G1 X20.913 Y11.569 F1999.800
G1 X21.188 Y12.019 F1999.800
G1 X21.462 Y12.637 F1999.800
G1 X21.644 Y13.131 F1999.800
G1 X21.800 Y13.681 F1999.800
G1 X21.900 Y14.256 F1999.800
G1 X21.950 Y14.812 F1999.800
G1 X21.950 Y15.381 F1999.800
G1 X21.900 Y15.950 F1999.800
G1 X21.806 Y16.506 F1999.800
G1 X21.663 Y17.062 F1999.800
G1 X21.500 Y17.613 F1999.800
G1 X21.219 Y18.306 F1999.800
G1 X20.900 Y18.869 F1999.800
G1 X20.625 Y19.262 F1999.800
G1 X20.312 Y19.644 F1999.800
G1 X19.956 Y20.038 F1999.800
G1 X19.406 Y20.519 F1999.800
G1 X18.950 Y20.863 F1999.800
G1 X18.444 Y21.188 F1999.800
G1 X17.887 Y21.475 F1999.800
G1 X17.331 Y21.712 F1999.800
G1 X16.756 Y21.906 F1999.800
G1 X16.156 Y22.050 F1999.800
G1 X15.556 Y22.144 F1999.800
G1 X14.956 Y22.156 F1999.800
G1 X14.106 Y22.106 F1999.800
G1 X13.363 Y22.000 F1999.800
G1 X12.281 Y21.619 F1999.800
G1 X11.500 Y21.269 F1999.800
G1 X10.900 Y20.906 F1999.800
G1 X10.194 Y20.294 F1999.800
G1 X9.519 Y19.600 F1999.800
G1 X8.831 Y18.650 F1999.800
G1 X8.294 Y17.606 F1999.800
G1 X7.881 Y16.212 F1999.800
G1 X7.713 Y14.912 F1999.800
G1 X7.800 Y13.512 F1999.800
G1 X8.194 Y12.131 F1999.800
G1 X8.637 Y11.119 F1999.800
G1 X9.162 Y10.256 F1999.800
G1 X10.056 Y9.162 F1999.800
G1 X10.631 Y8.619 F1999.800
G1 X11.600 Y7.912 F1999.800
G1 X12.475 Y7.456 F1999.800
G1 X12.850 Y7.312 F1999.800
G1 X14.069 Y7.075 F1999.800
G1 X15.194 Y7.031 F1999.800
G1 X16.225 Y7.125 F1999.800
G1 X17.163 Y7.331 F1999.800
G1 X18.419 Y7.800 F1999.800
G1 X19.262 Y8.262 F1999.800
G1 X20.244 Y9.000 F1999.800
G1 X21.000 Y9.756 F1999.800
G1 X21.531 Y10.431 F1999.800
G1 X22.163 Y11.512 F1999.800
G1 X22.594 Y12.569 F1999.800
G1 X22.856 Y13.600 F1999.800
G1 X22.962 Y15.194 F1999.800
G1 X22.856 Y16.319 F1999.800
G1 X22.700 Y17.069 F1999.800
G1 X22.212 Y18.381 F1999.800
G1 X21.688 Y19.337 F1999.800
G1 X21.156 Y20.062 F1999.800
G1 X20.256 Y20.988 F1999.800
G1 X19.625 Y21.488 F1999.800
G1 X18.306 Y22.238 F1999.800
G1 X17.081 Y22.688 F1999.800
G1 X15.881 Y22.919 F1999.800
G1 X14.681 Y22.962 F1999.800
G1 X13.881 Y22.894 F1999.800
G1 X12.881 Y22.681 F1999.800
G1 X11.494 Y22.156 F1999.800
G1 X10.850 Y21.806 F1999.800
G1 X10.081 Y21.256 F1999.800
G1 X9.363 Y20.637 F1999.800
G1 X8.537 Y19.663 F1999.800
G1 X7.888 Y18.594 F1999.800
G1 X7.450 Y17.556 F1999.800
G1 X7.138 Y16.356 F1999.800
G1 X7.037 Y15.356 F1999.800
G1 X7.050 Y14.356 F1999.800
G1 X7.250 Y13.156 F1999.800
G1 X7.513 Y12.256 F1999.800
G1 X7.975 Y11.225 F1999.800
G1 X8.394 Y10.537 F1999.800
G1 X8.806 Y9.969 F1999.800
G1 X9.769 Y8.981 F1999.800
G1 X9.769 Y8.981 F1999.800
G1 X9.806 Y8.950 F1999.800
G1 X9.819 Y8.950 F1999.800
G1 X9.838 Y8.925 F1999.800
G1 X9.838 Y8.925 F1999.800
G1 X10.456 Y8.444 F1999.800
G1 X10.456 Y8.444 F1999.800
G1 X10.644 Y8.287 F1999.800
G1 X10.869 Y8.188 F1999.800
G1 X10.869 Y8.188 F1999.800
G1 X11.125 Y7.975 F1999.800
G1 X11.125 Y7.975 F1999.800
G1 X11.300 Y7.806 F1999.800
G1 X11.519 Y7.688 F1999.800
G1 X11.519 Y7.688 F1999.800
G1 X12.200 Y7.400 F1999.800
G1 X12.425 Y7.319 F1999.800
G1 X12.969 Y7.162 F1999.800
G1 X13.994 Y6.963 F1999.800
G1 X15.069 Y6.912 F1999.800
G1 X16.188 Y7.000 F1999.800
G1 X17.206 Y7.213 F1999.800
G1 X18.456 Y7.688 F1999.800
G1 X19.294 Y8.137 F1999.800
G1 X20.344 Y8.931 F1999.800
G1 X21.038 Y9.619 F1999.800
G1 X21.681 Y10.444 F1999.800
G1 X22.244 Y11.406 F1999.800
G1 X22.706 Y12.537 F1999.800
G1 X22.975 Y13.594 F1999.800
G1 X23.081 Y14.931 F1999.800
G1 X23.069 Y15.344 F1999.800
G1 X22.981 Y16.281 F1999.800
G1 X22.781 Y17.219 F1999.800
G1 X22.337 Y18.394 F1999.800
G1 X21.775 Y19.425 F1999.800
G1 X21.244 Y20.137 F1999.800
G1 X20.469 Y20.950 F1999.800
G1 X20.312 Y21.094 F1999.800
G1 X19.731 Y21.556 F1999.800
G1 X18.419 Y22.319 F1999.800
G1 X17.100 Y22.812 F1999.800
G1 X15.950 Y23.038 F1999.800
G1 X14.794 Y23.081 F1999.800
G1 X13.869 Y23.006 F1999.800
G1 X12.850 Y22.794 F1999.800
G1 X11.619 Y22.350 F1999.800
G1 X10.850 Y21.950 F1999.800
G1 X10.069 Y21.400 F1999.800
G1 X9.225 Y20.663 F1999.800
G1 X8.419 Y19.706 F1999.800
G1 X7.787 Y18.675 F1999.800
G1 X7.331 Y17.556 F1999.800
G1 X7.013 Y16.331 F1999.800
G1 X6.919 Y15.238 F1999.800
G1 X6.944 Y14.287 F1999.800
G1 X7.131 Y13.088 F1999.800
G1 X7.400 Y12.225 F1999.800
G1 X7.900 Y11.106 F1999.800
G1 X8.094 Y10.775 F1999.800
G1 X8.769 Y9.831 F1999.800
G1 X9.644 Y8.944 F1999.800
G1 X10.456 Y8.306 F1999.800
G1 X11.312 Y7.794 F1999.800
G1 X11.519 Y7.688 F1999.800
G1 X11.519 Y7.688 F1999.800
G0 Z6.000
(helix to depth: -7.000000)
G0 X16.887 Y13.796 Z6.000
G0 X16.887 Y13.796 Z4.000
G1 X16.887 Y13.796 Z-6.000 F300.000
G1 X16.887 Y13.796 Z-6.000 F300.000
G1 X17.084 Y14.189 Z-6.039 F300.000
G1 X17.201 Y14.612 Z-6.077 F300.000
G1 X17.233 Y15.050 Z-6.116 F300.000
G1 X17.179 Y15.486 Z-6.155 F300.000
G1 X17.041 Y15.903 Z-6.193 F300.000
G1 X16.824 Y16.285 Z-6.232 F300.000
G1 X16.537 Y16.617 Z-6.271 F300.000
G1 X16.191 Y16.887 Z-6.309 F300.000
G1 X15.799 Y17.084 Z-6.348 F300.000
G1 X15.376 Y17.201 Z-6.387 F300.000
G1 X14.938 Y17.233 Z-6.425 F300.000
G1 X14.502 Y17.179 Z-6.464 F300.000
G1 X14.085 Y17.041 Z-6.502 F300.000
G1 X13.703 Y16.824 Z-6.541 F300.000
G1 X13.371 Y16.537 Z-6.580 F300.000
G1 X13.101 Y16.191 Z-6.618 F300.000
G1 X12.903 Y15.799 Z-6.657 F300.000
G1 X12.787 Y15.376 Z-6.696 F300.000
G1 X12.754 Y14.938 Z-6.734 F300.000
G1 X12.808 Y14.502 Z-6.773 F300.000
G1 X12.946 Y14.085 Z-6.812 F300.000
G1 X13.163 Y13.703 Z-6.850 F300.000
G1 X13.450 Y13.371 Z-6.889 F300.000
G1 X13.796 Y13.101 Z-6.928 F300.000
G1 X14.189 Y12.903 Z-6.966 F300.000
G1 X14.612 Y12.787 Z-7.000 F1999.800
G1 X15.050 Y12.754 Z-7.000 F1999.800
G1 X15.486 Y12.808 Z-7.000 F1999.800
G1 X15.903 Y12.946 Z-7.000 F1999.800
G1 X16.285 Y13.163 Z-7.000 F1999.800
G1 X16.617 Y13.450 Z-7.000 F1999.800
G1 X16.887 Y13.796 Z-7.000 F1999.800
G1 X17.084 Y14.189 Z-7.000 F1999.800
G1 X17.201 Y14.612 Z-7.000 F1999.800
G1 X17.233 Y15.050 Z-7.000 F1999.800
G1 X17.179 Y15.486 Z-7.000 F1999.800
G1 X17.041 Y15.903 Z-7.000 F1999.800
G1 X16.824 Y16.285 Z-7.000 F1999.800
G1 X16.537 Y16.617 Z-7.000 F1999.800
G1 X16.191 Y16.887 Z-7.000 F1999.800
G1 X15.799 Y17.084 Z-7.000 F1999.800
G1 X15.376 Y17.201 Z-7.000 F1999.800
G1 X14.938 Y17.233 Z-7.000 F1999.800
G1 X14.502 Y17.179 Z-7.000 F1999.800
G1 X14.085 Y17.041 Z-7.000 F1999.800
G1 X13.703 Y16.824 Z-7.000 F1999.800
G1 X13.371 Y16.537 Z-7.000 F1999.800
G1 X13.101 Y16.191 Z-7.000 F1999.800
G1 X12.903 Y15.799 Z-7.000 F1999.800
G1 X12.787 Y15.376 Z-7.000 F1999.800
G1 X12.754 Y14.938 Z-7.000 F1999.800
G1 X12.808 Y14.502 Z-7.000 F1999.800
G1 X12.946 Y14.085 Z-7.000 F1999.800
G1 X13.163 Y13.703 Z-7.000 F1999.800
G1 X13.450 Y13.371 Z-7.000 F1999.800
G1 X13.796 Y13.101 Z-7.000 F1999.800
G1 X14.189 Y12.903 Z-7.000 F1999.800
(Adaptive - depth: -7.000000)
G1 X14.994 Y12.744 F1999.800
G1 X15.062 Y12.669 F1999.800
G1 X15.113 Y12.581 F1999.800
G1 X15.181 Y12.506 F1999.800
G1 X15.438 Y12.350 F1999.800
G1 X15.713 Y12.256 F1999.800
G1 X16.300 Y12.238 F1999.800
G1 X16.688 Y12.319 F1999.800
G1 X16.925 Y12.406 F1999.800
G1 X17.156 Y12.519 F1999.800
G1 X17.456 Y12.713 F1999.800
G1 X17.762 Y13.006 F1999.800
G1 X17.981 Y13.262 F1999.800
G1 X18.181 Y13.575 F1999.800
G1 X18.337 Y13.919 F1999.800
G1 X18.444 Y14.262 F1999.800
G1 X18.531 Y14.625 F1999.800
G1 X18.569 Y15.137 F1999.800
G1 X18.556 Y15.537 F1999.800
G1 X18.481 Y15.956 F1999.800
G1 X18.375 Y16.306 F1999.800
G1 X18.212 Y16.669 F1999.800
G1 X18.019 Y17.012 F1999.800
G1 X17.731 Y17.400 F1999.800
G1 X17.444 Y17.706 F1999.800
G1 X17.119 Y17.988 F1999.800
G1 X16.750 Y18.231 F1999.800
G1 X16.356 Y18.406 F1999.800
G1 X16.025 Y18.519 F1999.800
G1 X15.631 Y18.613 F1999.800
G1 X15.156 Y18.650 F1999.800
G1 X14.756 Y18.644 F1999.800
G1 X14.331 Y18.587 F1999.800
G1 X13.906 Y18.500 F1999.800
G1 X13.375 Y18.319 F1999.800
G1 X12.969 Y18.087 F1999.800
G1 X12.694 Y17.894 F1999.800
G1 X12.425 Y17.663 F1999.800
G1 X12.106 Y17.319 F1999.800
G1 X11.825 Y16.931 F1999.800
G1 X11.625 Y16.550 F1999.800
G1 X11.481 Y16.200 F1999.800
G1 X11.375 Y15.794 F1999.800
G1 X11.319 Y15.387 F1999.800
G1 X11.281 Y14.988 F1999.800
G1 X11.319 Y14.419 F1999.800
G1 X11.394 Y13.981 F1999.800
G1 X11.550 Y13.544 F1999.800
G1 X11.688 Y13.244 F1999.800
G1 X11.906 Y12.900 F1999.800
G1 X12.137 Y12.581 F1999.800
G1 X12.488 Y12.188 F1999.800
G1 X12.887 Y11.794 F1999.800
G1 X13.400 Y11.381 F1999.800
G1 X13.900 Y11.094 F1999.800
G1 X14.262 Y10.912 F1999.800
G1 X14.750 Y10.731 F1999.800
G1 X15.225 Y10.619 F1999.800
G1 X15.688 Y10.581 F1999.800
G1 X16.044 Y10.581 F1999.800
G1 X16.469 Y10.637 F1999.800
G1 X16.869 Y10.713 F1999.800
G1 X17.438 Y10.906 F1999.800
G1 X17.863 Y11.100 F1999.800
G1 X18.269 Y11.363 F1999.800
G1 X18.562 Y11.594 F1999.800
G1 X18.875 Y11.906 F1999.800
G1 X19.156 Y12.225 F1999.800
G1 X19.481 Y12.706 F1999.800
G1 X19.706 Y13.125 F1999.800
G1 X19.900 Y13.575 F1999.800
G1 X20.050 Y14.069 F1999.800
G1 X20.150 Y14.550 F1999.800
G1 X20.200 Y15.044 F1999.800
G1 X20.200 Y15.544 F1999.800
G1 X20.150 Y16.038 F1999.800
G1 X20.031 Y16.519 F1999.800
G1 X19.900 Y16.894 F1999.800
G1 X19.725 Y17.319 F1999.800
G1 X19.450 Y17.837 F1999.800
G1 X19.119 Y18.344 F1999.800
G1 X18.750 Y18.744 F1999.800
G1 X18.469 Y19.012 F1999.800
G1 X18.075 Y19.312 F1999.800
G1 X17.688 Y19.575 F1999.800
G1 X17.113 Y19.875 F1999.800
G1 X16.625 Y20.075 F1999.800
G1 X16.100 Y20.206 F1999.800
G1 X15.688 Y20.275 F1999.800
G1 X15.200 Y20.306 F1999.800
G1 X14.725 Y20.319 F1999.800
G1 X13.994 Y20.244 F1999.800
G1 X13.463 Y20.119 F1999.800
G1 X13.044 Y19.994 F1999.800
G1 X12.537 Y19.775 F1999.800
G1 X12.100 Y19.525 F1999.800
G1 X11.694 Y19.250 F1999.800
G1 X11.306 Y18.919 F1999.800
G1 X10.956 Y18.556 F1999.800
G1 X10.644 Y18.163 F1999.800
G1 X10.369 Y17.738 F1999.800
G1 X10.137 Y17.288 F1999.800
G1 X9.950 Y16.819 F1999.800
G1 X9.787 Y16.344 F1999.800
G1 X9.656 Y15.713 F1999.800
G1 X9.588 Y15.175 F1999.800
G1 X9.588 Y14.619 F1999.800
G1 X9.625 Y14.162 F1999.800
G1 X9.719 Y13.656 F1999.800
G1 X9.863 Y13.169 F1999.800
G1 X10.044 Y12.713 F1999.800
G1 X10.256 Y12.256 F1999.800
G1 X10.594 Y11.706 F1999.800
G1 X10.912 Y11.275 F1999.800
G1 X11.275 Y10.856 F1999.800
G1 X11.675 Y10.444 F1999.800
G1 X12.238 Y9.975 F1999.800
G1 X12.731 Y9.619 F1999.800
G1 X13.294 Y9.331 F1999.800
G1 X13.675 Y9.162 F1999.800
G1 X14.188 Y9.000 F1999.800
G1 X14.681 Y8.881 F1999.800
G1 X15.306 Y8.794 F1999.800
G1 X15.856 Y8.762 F1999.800
G1 X16.413 Y8.781 F1999.800
G1 X16.981 Y8.881 F1999.800
G1 X17.406 Y8.988 F1999.800
G1 X17.894 Y9.162 F1999.800
G1 X18.356 Y9.356 F1999.800
G1 X18.956 Y9.688 F1999.800
G1 X19.419 Y10.000 F1999.800
G1 X19.869 Y10.350 F1999.800
G1 X20.306 Y10.762 F1999.800
G1 X20.663 Y11.213 F1999.800
G1 X20.913 Y11.569 F1999.800
G1 X21.188 Y12.019 F1999.800
G1 X21.462 Y12.637 F1999.800
G1 X21.644 Y13.131 F1999.800
G1 X21.800 Y13.681 F1999.800
G1 X21.900 Y14.256 F1999.800
G1 X21.950 Y14.812 F1999.800
G1 X21.950 Y15.381 F1999.800
G1 X21.900 Y15.950 F1999.800
G1 X21.806 Y16.506 F1999.800
G1 X21.663 Y17.062 F1999.800
G1 X21.500 Y17.613 F1999.800
G1 X21.219 Y18.306 F1999.800
G1 X20.900 Y18.869 F1999.800
G1 X20.625 Y19.262 F1999.800
G1 X20.312 Y19.644 F1999.800
G1 X19.956 Y20.038 F1999.800
G1 X19.406 Y20.519 F1999.800
G1 X18.950 Y20.863 F1999.800
G1 X18.444 Y21.188 F1999.800
G1 X17.887 Y21.475 F1999.800
G1 X17.331 Y21.712 F1999.800
G1 X16.756 Y21.906 F1999.800
G1 X16.156 Y22.050 F1999.800
G1 X15.556 Y22.144 F1999.800
G1 X14.956 Y22.156 F1999.800
G1 X14.106 Y22.106 F1999.800
G1 X13.363 Y22.000 F1999.800
G1 X12.281 Y21.619 F1999.800
G1 X11.500 Y21.269 F1999.800
G1 X10.900 Y20.906 F1999.800
G1 X10.194 Y20.294 F1999.800
G1 X9.519 Y19.600 F1999.800
G1 X8.831 Y18.650 F1999.800
G1 X8.294 Y17.606 F1999.800
G1 X7.881 Y16.212 F1999.800
G1 X7.713 Y14.912 F1999.800
G1 X7.800 Y13.512 F1999.800
G1 X8.194 Y12.131 F1999.800
G1 X8.637 Y11.119 F1999.800
G1 X9.162 Y10.256 F1999.800
G1 X10.056 Y9.162 F1999.800
G1 X10.631 Y8.619 F1999.800
G1 X11.600 Y7.912 F1999.800
G1 X12.475 Y7.456 F1999.800
G1 X12.850 Y7.312 F1999.800
G1 X14.069 Y7.075 F1999.800
G1 X15.194 Y7.031 F1999.800
G1 X16.225 Y7.125 F1999.800
G1 X17.163 Y7.331 F1999.800
G1 X18.419 Y7.800 F1999.800
G1 X19.262 Y8.262 F1999.800
G1 X20.244 Y9.000 F1999.800
G1 X21.000 Y9.756 F1999.800
G1 X21.531 Y10.431 F1999.800
G1 X22.163 Y11.512 F1999.800
G1 X22.594 Y12.569 F1999.800
G1 X22.856 Y13.600 F1999.800
G1 X22.962 Y15.194 F1999.800
G1 X22.856 Y16.319 F1999.800
G1 X22.700 Y17.069 F1999.800
G1 X22.212 Y18.381 F1999.800
G1 X21.688 Y19.337 F1999.800
G1 X21.156 Y20.062 F1999.800
G1 X20.256 Y20.988 F1999.800
G1 X19.625 Y21.488 F1999.800
G1 X18.306 Y22.238 F1999.800
G1 X17.081 Y22.688 F1999.800
G1 X15.881 Y22.919 F1999.800
G1 X14.681 Y22.962 F1999.800
G1 X13.881 Y22.894 F1999.800
G1 X12.881 Y22.681 F1999.800
G1 X11.494 Y22.156 F1999.800
G1 X10.850 Y21.806 F1999.800
G1 X10.081 Y21.256 F1999.800
G1 X9.363 Y20.637 F1999.800
G1 X8.537 Y19.663 F1999.800
G1 X7.888 Y18.594 F1999.800
G1 X7.450 Y17.556 F1999.800
G1 X7.138 Y16.356 F1999.800
G1 X7.037 Y15.356 F1999.800
G1 X7.050 Y14.356 F1999.800
G1 X7.250 Y13.156 F1999.800
G1 X7.513 Y12.256 F1999.800
G1 X7.975 Y11.225 F1999.800
G1 X8.394 Y10.537 F1999.800
G1 X8.806 Y9.969 F1999.800
G1 X9.769 Y8.981 F1999.800
G1 X9.769 Y8.981 F1999.800
G1 X9.806 Y8.950 F1999.800
G1 X9.819 Y8.950 F1999.800
G1 X9.838 Y8.925 F1999.800
G1 X9.838 Y8.925 F1999.800
G1 X10.456 Y8.444 F1999.800
G1 X10.456 Y8.444 F1999.800
G1 X10.644 Y8.287 F1999.800
G1 X10.869 Y8.188 F1999.800
G1 X10.869 Y8.188 F1999.800
G1 X11.125 Y7.975 F1999.800
G1 X11.125 Y7.975 F1999.800
G1 X11.300 Y7.806 F1999.800
G1 X11.519 Y7.688 F1999.800
G1 X11.519 Y7.688 F1999.800
G1 X12.200 Y7.400 F1999.800
G1 X12.425 Y7.319 F1999.800
G1 X12.969 Y7.162 F1999.800
G1 X13.994 Y6.963 F1999.800
G1 X15.069 Y6.912 F1999.800
G1 X16.188 Y7.000 F1999.800
G1 X17.206 Y7.213 F1999.800
G1 X18.456 Y7.688 F1999.800
G1 X19.294 Y8.137 F1999.800
G1 X20.344 Y8.931 F1999.800
G1 X21.038 Y9.619 F1999.800
G1 X21.681 Y10.444 F1999.800
G1 X22.244 Y11.406 F1999.800
G1 X22.706 Y12.537 F1999.800
G1 X22.975 Y13.594 F1999.800
G1 X23.081 Y14.931 F1999.800
G1 X23.069 Y15.344 F1999.800
G1 X22.981 Y16.281 F1999.800
G1 X22.781 Y17.219 F1999.800
G1 X22.337 Y18.394 F1999.800
G1 X21.775 Y19.425 F1999.800
G1 X21.244 Y20.137 F1999.800
G1 X20.469 Y20.950 F1999.800
G1 X20.312 Y21.094 F1999.800
G1 X19.731 Y21.556 F1999.800
G1 X18.419 Y22.319 F1999.800
G1 X17.100 Y22.812 F1999.800
G1 X15.950 Y23.038 F1999.800
G1 X14.794 Y23.081 F1999.800
G1 X13.869 Y23.006 F1999.800
G1 X12.850 Y22.794 F1999.800
G1 X11.619 Y22.350 F1999.800
G1 X10.850 Y21.950 F1999.800
G1 X10.069 Y21.400 F1999.800
G1 X9.225 Y20.663 F1999.800
G1 X8.419 Y19.706 F1999.800
G1 X7.787 Y18.675 F1999.800
G1 X7.331 Y17.556 F1999.800
G1 X7.013 Y16.331 F1999.800
G1 X6.919 Y15.238 F1999.800
G1 X6.944 Y14.287 F1999.800
G1 X7.131 Y13.088 F1999.800
G1 X7.400 Y12.225 F1999.800
G1 X7.900 Y11.106 F1999.800
G1 X8.094 Y10.775 F1999.800
G1 X8.769 Y9.831 F1999.800
G1 X9.644 Y8.944 F1999.800
G1 X10.456 Y8.306 F1999.800
G1 X11.312 Y7.794 F1999.800
G1 X11.519 Y7.688 F1999.800
G1 X11.519 Y7.688 F1999.800
G0 Z6.000
G0 Z6.000
(finish operation: Adaptive)
(begin operation: Adaptive001)
(machine: not set, mm/min)
(Adaptive001)
(helix to depth: -1.000000)
G0 X-33.094 Y13.790 Z6.000
G0 X-33.094 Y13.790 Z4.000
G1 X-33.094 Y13.790 Z0.000 F300.000
G1 X-33.094 Y13.790 Z0.000 F300.000
G1 X-32.897 Y14.182 Z-0.039 F300.000
G1 X-32.780 Y14.606 Z-0.077 F300.000
G1 X-32.748 Y15.044 Z-0.116 F300.000
G1 X-32.802 Y15.479 Z-0.155 F300.000
G1 X-32.940 Y15.896 Z-0.193 F300.000
G1 X-33.157 Y16.278 Z-0.232 F300.000
G1 X-33.444 Y16.611 Z-0.271 F300.000
G1 X-33.790 Y16.881 Z-0.309 F300.000
G1 X-34.182 Y17.078 Z-0.348 F300.000
G1 X-34.606 Y17.195 Z-0.387 F300.000
G1 X-35.044 Y17.227 Z-0.425 F300.000
G1 X-35.479 Y17.173 Z-0.464 F300.000
G1 X-35.896 Y17.035 Z-0.502 F300.000
G1 X-36.278 Y16.818 Z-0.541 F300.000
G1 X-36.611 Y16.531 Z-0.580 F300.000
G1 X-36.881 Y16.185 Z-0.618 F300.000
G1 X-37.078 Y15.793 Z-0.657 F300.000
G1 X-37.195 Y15.369 Z-0.696 F300.000
G1 X-37.227 Y14.931 Z-0.734 F300.000
G1 X-37.173 Y14.496 Z-0.773 F300.000
G1 X-37.035 Y14.079 Z-0.812 F300.000
G1 X-36.818 Y13.697 Z-0.850 F300.000
G1 X-36.531 Y13.364 Z-0.889 F300.000
G1 X-36.185 Y13.094 Z-0.928 F300.000
G1 X-35.793 Y12.897 Z-0.966 F300.000
G1 X-35.369 Y12.780 Z-1.000 F1999.800
G1 X-34.931 Y12.748 Z-1.000 F1999.800
G1 X-34.496 Y12.802 Z-1.000 F1999.800
G1 X-34.079 Y12.940 Z-1.000 F1999.800
G1 X-33.697 Y13.157 Z-1.000 F1999.800
G1 X-33.364 Y13.444 Z-1.000 F1999.800
G1 X-33.094 Y13.790 Z-1.000 F1999.800
G1 X-32.897 Y14.182 Z-1.000 F1999.800
G1 X-32.780 Y14.606 Z-1.000 F1999.800
G1 X-32.748 Y15.044 Z-1.000 F1999.800
G1 X-32.802 Y15.479 Z-1.000 F1999.800
G1 X-32.940 Y15.896 Z-1.000 F1999.800
G1 X-33.157 Y16.278 Z-1.000 F1999.800
G1 X-33.444 Y16.611 Z-1.000 F1999.800
G1 X-33.790 Y16.881 Z-1.000 F1999.800
G1 X-34.182 Y17.078 Z-1.000 F1999.800
G1 X-34.606 Y17.195 Z-1.000 F1999.800
G1 X-35.044 Y17.227 Z-1.000 F1999.800
G1 X-35.479 Y17.173 Z-1.000 F1999.800
G1 X-35.896 Y17.035 Z-1.000 F1999.800
G1 X-36.278 Y16.818 Z-1.000 F1999.800
G1 X-36.611 Y16.531 Z-1.000 F1999.800
G1 X-36.881 Y16.185 Z-1.000 F1999.800
G1 X-37.078 Y15.793 Z-1.000 F1999.800
G1 X-37.195 Y15.369 Z-1.000 F1999.800
G1 X-37.227 Y14.931 Z-1.000 F1999.800
G1 X-37.173 Y14.496 Z-1.000 F1999.800
G1 X-37.035 Y14.079 Z-1.000 F1999.800
G1 X-36.818 Y13.697 Z-1.000 F1999.800
G1 X-36.531 Y13.364 Z-1.000 F1999.800
G1 X-36.185 Y13.094 Z-1.000 F1999.800
G1 X-35.793 Y12.897 Z-1.000 F1999.800
(Adaptive - depth: -1.000000)
G1 X-34.987 Y12.738 F1999.800
G1 X-34.913 Y12.662 F1999.800
G1 X-34.788 Y12.500 F1999.800
G1 X-34.612 Y12.387 F1999.800
G1 X-34.325 Y12.275 F1999.800
G1 X-34.025 Y12.219 F1999.800
G1 X-33.831 Y12.281 F1999.800
G1 X-33.381 Y12.512 F1999.800
G1 X-32.981 Y12.831 F1999.800
G1 X-32.581 Y13.287 F1999.800
G1 X-32.275 Y13.806 F1999.800
G1 X-32.119 Y14.275 F1999.800
G1 X-32.031 Y15.025 F1999.800
G1 X-32.119 Y15.681 F1999.800
G1 X-32.294 Y16.238 F1999.800
G1 X-32.781 Y16.956 F1999.800
G1 X-33.188 Y17.350 F1999.800
G1 X-33.844 Y17.731 F1999.800
G1 X-34.306 Y17.881 F1999.800
G1 X-34.775 Y17.950 F1999.800
G1 X-35.337 Y17.938 F1999.800
G1 X-35.806 Y17.844 F1999.800
G1 X-36.438 Y17.575 F1999.800
G1 X-37.087 Y17.094 F1999.800
G1 X-37.413 Y16.719 F1999.800
G1 X-37.625 Y16.375 F1999.800
G1 X-37.900 Y15.619 F1999.800
G1 X-37.950 Y15.219 F1999.800
G1 X-37.925 Y14.619 F1999.800
G1 X-37.794 Y14.019 F1999.800
G1 X-37.675 Y13.725 F1999.800
G1 X-37.275 Y13.119 F1999.800
G1 X-36.756 Y12.613 F1999.800
G1 X-36.675 Y12.550 F1999.800
G1 X-35.925 Y12.181 F1999.800
G1 X-35.525 Y12.081 F1999.800
G1 X-34.925 Y12.037 F1999.800
G1 X-34.925 Y12.037 F1999.800
G1 X-34.888 Y12.025 F1999.800
G1 X-34.894 Y12.012 F1999.800
G1 X-34.906 Y11.988 F1999.800
G1 X-34.900 Y11.963 F1999.800
G1 X-34.831 Y11.919 F1999.800
G1 X-34.831 Y11.919 F1999.800
G1 X-34.462 Y11.963 F1999.800
G1 X-33.956 Y12.106 F1999.800
G1 X-33.706 Y12.206 F1999.800
G1 X-33.288 Y12.431 F1999.800
G1 X-32.913 Y12.725 F1999.800
G1 X-32.538 Y13.144 F1999.800
G1 X-32.181 Y13.719 F1999.800
G1 X-32.050 Y14.088 F1999.800
G1 X-31.988 Y14.319 F1999.800
G1 X-31.913 Y14.994 F1999.800
G1 X-31.981 Y15.637 F1999.800
G1 X-32.150 Y16.194 F1999.800
G1 X-32.231 Y16.375 F1999.800
G1 X-32.656 Y16.994 F1999.800
G1 X-32.825 Y17.175 F1999.800
G1 X-33.081 Y17.419 F1999.800
G1 X-33.419 Y17.656 F1999.800
G1 X-33.731 Y17.819 F1999.800
G1 X-34.225 Y17.988 F1999.800
G1 X-34.781 Y18.069 F1999.800
G1 X-35.288 Y18.069 F1999.800
G1 X-35.850 Y17.950 F1999.800
G1 X-36.394 Y17.731 F1999.800
G1 X-36.500 Y17.669 F1999.800
G1 X-37.156 Y17.188 F1999.800
G1 X-37.506 Y16.800 F1999.800
G1 X-37.750 Y16.406 F1999.800
G1 X-38.038 Y15.556 F1999.800
G1 X-38.069 Y15.269 F1999.800
G1 X-38.056 Y14.725 F1999.800
G1 X-38.025 Y14.512 F1999.800
G1 X-37.906 Y13.994 F1999.800
G1 X-37.806 Y13.738 F1999.800
G1 X-37.737 Y13.600 F1999.800
G1 X-37.406 Y13.100 F1999.800
G1 X-37.212 Y12.881 F1999.800
G1 X-36.812 Y12.500 F1999.800
G1 X-36.694 Y12.419 F1999.800
G1 X-36.019 Y12.094 F1999.800
G1 X-35.606 Y11.969 F1999.800
G1 X-34.894 Y11.912 F1999.800
G1 X-34.831 Y11.919 F1999.800
G1 X-34.831 Y11.919 F1999.800
G0 Z6.000
(helix to depth: -1.000000)
G0 X66.893 Y13.790 Z6.000
G0 X66.893 Y13.790 Z4.000
G1 X66.893 Y13.790 Z0.000 F300.000
G1 X66.893 Y13.790 Z0.000 F300.000
G1 X67.090 Y14.182 Z-0.039 F300.000
G1 X67.207 Y14.606 Z-0.077 F300.000
G1 X67.239 Y15.044 Z-0.116 F300.000
G1 X67.185 Y15.479 Z-0.155 F300.000
G1 X67.047 Y15.896 Z-0.193 F300.000
G1 X66.831 Y16.278 Z-0.232 F300.000
G1 X66.544 Y16.611 Z-0.271 F300.000
G1 X66.197 Y16.881 Z-0.309 F300.000
G1 X65.805 Y17.078 Z-0.348 F300.000
G1 X65.382 Y17.195 Z-0.387 F300.000
G1 X64.944 Y17.227 Z-0.425 F300.000
G1 X64.508 Y17.173 Z-0.464 F300.000
G1 X64.091 Y17.035 Z-0.502 F300.000
G1 X63.709 Y16.818 Z-0.541 F300.000
G1 X63.377 Y16.531 Z-0.580 F300.000
G1 X63.107 Y16.185 Z-0.618 F300.000
G1 X62.910 Y15.793 Z-0.657 F300.000
G1 X62.793 Y15.369 Z-0.696 F300.000
G1 X62.761 Y14.931 Z-0.734 F300.000
G1 X62.815 Y14.496 Z-0.773 F300.000
G1 X62.953 Y14.079 Z-0.812 F300.000
G1 X63.169 Y13.697 Z-0.850 F300.000
G1 X63.456 Y13.364 Z-0.889 F300.000
G1 X63.803 Y13.094 Z-0.928 F300.000
G1 X64.195 Y12.897 Z-0.966 F300.000
G1 X64.618 Y12.780 Z-1.000 F1999.800
G1 X65.056 Y12.748 Z-1.000 F1999.800
G1 X65.492 Y12.802 Z-1.000 F1999.800
G1 X65.909 Y12.940 Z-1.000 F1999.800
G1 X66.291 Y13.157 Z-1.000 F1999.800
G1 X66.623 Y13.444 Z-1.000 F1999.800
G1 X66.893 Y13.790 Z-1.000 F1999.800
G1 X67.090 Y14.182 Z-1.000 F1999.800
G1 X67.207 Y14.606 Z-1.000 F1999.800
G1 X67.239 Y15.044 Z-1.000 F1999.800
G1 X67.185 Y15.479 Z-1.000 F1999.800
G1 X67.047 Y15.896 Z-1.000 F1999.800
G1 X66.831 Y16.278 Z-1.000 F1999.800
G1 X66.544 Y16.611 Z-1.000 F1999.800
G1 X66.197 Y16.881 Z-1.000 F1999.800
G1 X65.805 Y17.078 Z-1.000 F1999.800
G1 X65.382 Y17.195 Z-1.000 F1999.800
G1 X64.944 Y17.227 Z-1.000 F1999.800
G1 X64.508 Y17.173 Z-1.000 F1999.800
G1 X64.091 Y17.035 Z-1.000 F1999.800
G1 X63.709 Y16.818 Z-1.000 F1999.800
G1 X63.377 Y16.531 Z-1.000 F1999.800
G1 X63.107 Y16.185 Z-1.000 F1999.800
G1 X62.910 Y15.793 Z-1.000 F1999.800
G1 X62.793 Y15.369 Z-1.000 F1999.800
G1 X62.761 Y14.931 Z-1.000 F1999.800
G1 X62.815 Y14.496 Z-1.000 F1999.800
G1 X62.953 Y14.079 Z-1.000 F1999.800
G1 X63.169 Y13.697 Z-1.000 F1999.800
G1 X63.456 Y13.364 Z-1.000 F1999.800
G1 X63.803 Y13.094 Z-1.000 F1999.800
G1 X64.195 Y12.897 Z-1.000 F1999.800
(Adaptive - depth: -1.000000)
G1 X65.000 Y12.738 F1999.800
G1 X65.069 Y12.662 F1999.800
G1 X65.119 Y12.575 F1999.800
G1 X65.188 Y12.500 F1999.800
G1 X65.444 Y12.344 F1999.800
G1 X65.906 Y12.206 F1999.800
G1 X66.094 Y12.250 F1999.800
G1 X66.619 Y12.512 F1999.800
G1 X66.987 Y12.806 F1999.800
G1 X67.419 Y13.294 F1999.800
G1 X67.706 Y13.787 F1999.800
G1 X67.894 Y14.325 F1999.800
G1 X67.956 Y15.075 F1999.800
G1 X67.888 Y15.637 F1999.800
G1 X67.719 Y16.200 F1999.800
G1 X67.513 Y16.538 F1999.800
G1 X67.162 Y17.012 F1999.800
G1 X66.719 Y17.419 F1999.800
G1 X66.194 Y17.712 F1999.800
G1 X65.719 Y17.875 F1999.800
G1 X65.219 Y17.950 F1999.800
G1 X64.719 Y17.944 F1999.800
G1 X64.219 Y17.850 F1999.800
G1 X63.550 Y17.569 F1999.800
G1 X62.950 Y17.131 F1999.800
G1 X62.600 Y16.744 F1999.800
G1 X62.375 Y16.387 F1999.800
G1 X62.087 Y15.613 F1999.800
G1 X62.044 Y15.113 F1999.800
G1 X62.069 Y14.613 F1999.800
G1 X62.200 Y14.012 F1999.800
G1 X62.319 Y13.731 F1999.800
G1 X62.706 Y13.131 F1999.800
G1 X63.275 Y12.575 F1999.800
G1 X64.062 Y12.188 F1999.800
G1 X64.531 Y12.069 F1999.800
G1 X64.531 Y12.069 F1999.800
G1 X64.775 Y12.037 F1999.800
G1 X64.775 Y12.037 F1999.800
G1 X64.906 Y11.931 F1999.800
G1 X64.906 Y11.931 F1999.800
G1 X65.156 Y11.919 F1999.800
G1 X65.156 Y11.919 F1999.800
G1 X65.531 Y11.963 F1999.800
G1 X66.037 Y12.106 F1999.800
G1 X66.287 Y12.206 F1999.800
G1 X66.706 Y12.431 F1999.800
G1 X67.081 Y12.725 F1999.800
G1 X67.456 Y13.144 F1999.800
G1 X67.806 Y13.713 F1999.800
G1 X67.944 Y14.088 F1999.800
G1 X68.006 Y14.312 F1999.800
G1 X68.075 Y14.919 F1999.800
G1 X68.069 Y15.125 F1999.800
G1 X67.987 Y15.750 F1999.800
G1 X67.838 Y16.212 F1999.800
G1 X67.763 Y16.375 F1999.800
G1 X67.338 Y16.994 F1999.800
G1 X67.169 Y17.175 F1999.800
G1 X66.912 Y17.419 F1999.800
G1 X66.575 Y17.656 F1999.800
G1 X66.263 Y17.819 F1999.800
G1 X65.769 Y17.988 F1999.800
G1 X65.213 Y18.069 F1999.800
G1 X64.706 Y18.069 F1999.800
G1 X64.144 Y17.950 F1999.800
G1 X63.600 Y17.731 F1999.800
G1 X63.494 Y17.669 F1999.800
G1 X62.837 Y17.188 F1999.800
G1 X62.487 Y16.800 F1999.800
G1 X62.244 Y16.406 F1999.800
G1 X61.956 Y15.556 F1999.800
G1 X61.925 Y15.312 F1999.800
G1 X61.938 Y14.725 F1999.800
G1 X61.969 Y14.525 F1999.800
G1 X62.087 Y13.994 F1999.800
G1 X62.188 Y13.738 F1999.800
G1 X62.256 Y13.600 F1999.800
G1 X62.587 Y13.100 F1999.800
G1 X62.781 Y12.881 F1999.800
G1 X63.181 Y12.500 F1999.800
G1 X63.300 Y12.419 F1999.800
G1 X63.975 Y12.094 F1999.800
G1 X64.388 Y11.969 F1999.800
G1 X65.100 Y11.912 F1999.800
G1 X65.162 Y11.919 F1999.800
G1 X65.156 Y11.919 F1999.800
G0 Z6.000
(helix to depth: -2.000000)
G0 X-33.094 Y13.790 Z6.000
G0 X-33.094 Y13.790 Z4.000
G1 X-33.094 Y13.790 Z-1.000 F300.000
G1 X-33.094 Y13.790 Z-1.000 F300.000
G1 X-32.897 Y14.182 Z-1.039 F300.000
G1 X-32.780 Y14.606 Z-1.077 F300.000
G1 X-32.748 Y15.044 Z-1.116 F300.000
G1 X-32.802 Y15.479 Z-1.155 F300.000
G1 X-32.940 Y15.896 Z-1.193 F300.000
G1 X-33.157 Y16.278 Z-1.232 F300.000
G1 X-33.444 Y16.611 Z-1.271 F300.000
G1 X-33.790 Y16.881 Z-1.309 F300.000
G1 X-34.182 Y17.078 Z-1.348 F300.000
G1 X-34.606 Y17.195 Z-1.387 F300.000
G1 X-35.044 Y17.227 Z-1.425 F300.000
G1 X-35.479 Y17.173 Z-1.464 F300.000
G1 X-35.896 Y17.035 Z-1.502 F300.000
G1 X-36.278 Y16.818 Z-1.541 F300.000
G1 X-36.611 Y16.531 Z-1.580 F300.000
G1 X-36.881 Y16.185 Z-1.618 F300.000
G1 X-37.078 Y15.793 Z-1.657 F300.000
G1 X-37.195 Y15.369 Z-1.696 F300.000
G1 X-37.227 Y14.931 Z-1.734 F300.000
G1 X-37.173 Y14.496 Z-1.773 F300.000
G1 X-37.035 Y14.079 Z-1.812 F300.000
G1 X-36.818 Y13.697 Z-1.850 F300.000
G1 X-36.531 Y13.364 Z-1.889 F300.000
G1 X-36.185 Y13.094 Z-1.928 F300.000
G1 X-35.793 Y12.897 Z-1.966 F300.000
G1 X-35.369 Y12.780 Z-2.000 F1999.800
G1 X-34.931 Y12.748 Z-2.000 F1999.800
G1 X-34.496 Y12.802 Z-2.000 F1999.800
G1 X-34.079 Y12.940 Z-2.000 F1999.800
G1 X-33.697 Y13.157 Z-2.000 F1999.800
G1 X-33.364 Y13.444 Z-2.000 F1999.800
G1 X-33.094 Y13.790 Z-2.000 F1999.800
G1 X-32.897 Y14.182 Z-2.000 F1999.800
G1 X-32.780 Y14.606 Z-2.000 F1999.800
G1 X-32.748 Y15.044 Z-2.000 F1999.800
G1 X-32.802 Y15.479 Z-2.000 F1999.800
G1 X-32.940 Y15.896 Z-2.000 F1999.800
G1 X-33.157 Y16.278 Z-2.000 F1999.800
G1 X-33.444 Y16.611 Z-2.000 F1999.800
G1 X-33.790 Y16.881 Z-2.000 F1999.800
G1 X-34.182 Y17.078 Z-2.000 F1999.800
G1 X-34.606 Y17.195 Z-2.000 F1999.800
G1 X-35.044 Y17.227 Z-2.000 F1999.800
G1 X-35.479 Y17.173 Z-2.000 F1999.800
G1 X-35.896 Y17.035 Z-2.000 F1999.800
G1 X-36.278 Y16.818 Z-2.000 F1999.800
G1 X-36.611 Y16.531 Z-2.000 F1999.800
G1 X-36.881 Y16.185 Z-2.000 F1999.800
G1 X-37.078 Y15.793 Z-2.000 F1999.800
G1 X-37.195 Y15.369 Z-2.000 F1999.800
G1 X-37.227 Y14.931 Z-2.000 F1999.800
G1 X-37.173 Y14.496 Z-2.000 F1999.800
G1 X-37.035 Y14.079 Z-2.000 F1999.800
G1 X-36.818 Y13.697 Z-2.000 F1999.800
G1 X-36.531 Y13.364 Z-2.000 F1999.800
G1 X-36.185 Y13.094 Z-2.000 F1999.800
G1 X-35.793 Y12.897 Z-2.000 F1999.800
(Adaptive - depth: -2.000000)
G1 X-34.987 Y12.738 F1999.800
G1 X-34.913 Y12.662 F1999.800
G1 X-34.788 Y12.500 F1999.800
G1 X-34.612 Y12.387 F1999.800
G1 X-34.325 Y12.275 F1999.800
G1 X-34.025 Y12.219 F1999.800
G1 X-33.831 Y12.281 F1999.800
G1 X-33.381 Y12.512 F1999.800
G1 X-32.981 Y12.831 F1999.800
G1 X-32.581 Y13.287 F1999.800
G1 X-32.275 Y13.806 F1999.800
G1 X-32.119 Y14.275 F1999.800
G1 X-32.031 Y15.025 F1999.800
G1 X-32.119 Y15.681 F1999.800
G1 X-32.294 Y16.238 F1999.800
G1 X-32.781 Y16.956 F1999.800
G1 X-33.188 Y17.350 F1999.800
G1 X-33.844 Y17.731 F1999.800
G1 X-34.306 Y17.881 F1999.800
G1 X-34.775 Y17.950 F1999.800
G1 X-35.337 Y17.938 F1999.800
G1 X-35.806 Y17.844 F1999.800
G1 X-36.438 Y17.575 F1999.800
G1 X-37.087 Y17.094 F1999.800
G1 X-37.413 Y16.719 F1999.800
G1 X-37.625 Y16.375 F1999.800
G1 X-37.900 Y15.619 F1999.800
G1 X-37.950 Y15.219 F1999.800
G1 X-37.925 Y14.619 F1999.800
G1 X-37.794 Y14.019 F1999.800
G1 X-37.675 Y13.725 F1999.800
G1 X-37.275 Y13.119 F1999.800
G1 X-36.756 Y12.613 F1999.800
G1 X-36.675 Y12.550 F1999.800
G1 X-35.925 Y12.181 F1999.800
G1 X-35.525 Y12.081 F1999.800
G1 X-34.925 Y12.037 F1999.800
G1 X-34.925 Y12.037 F1999.800
G1 X-34.888 Y12.025 F1999.800
G1 X-34.894 Y12.012 F1999.800
G1 X-34.906 Y11.988 F1999.800
G1 X-34.900 Y11.963 F1999.800
G1 X-34.831 Y11.919 F1999.800
G1 X-34.831 Y11.919 F1999.800
G1 X-34.462 Y11.963 F1999.800
G1 X-33.956 Y12.106 F1999.800
G1 X-33.706 Y12.206 F1999.800
G1 X-33.288 Y12.431 F1999.800
G1 X-32.913 Y12.725 F1999.800
G1 X-32.538 Y13.144 F1999.800
G1 X-32.181 Y13.719 F1999.800
G1 X-32.050 Y14.088 F1999.800
G1 X-31.988 Y14.319 F1999.800
G1 X-31.913 Y14.994 F1999.800
G1 X-31.981 Y15.637 F1999.800
G1 X-32.150 Y16.194 F1999.800
G1 X-32.231 Y16.375 F1999.800
G1 X-32.656 Y16.994 F1999.800
G1 X-32.825 Y17.175 F1999.800
G1 X-33.081 Y17.419 F1999.800
G1 X-33.419 Y17.656 F1999.800
G1 X-33.731 Y17.819 F1999.800
G1 X-34.225 Y17.988 F1999.800
G1 X-34.781 Y18.069 F1999.800
G1 X-35.288 Y18.069 F1999.800
G1 X-35.850 Y17.950 F1999.800
G1 X-36.394 Y17.731 F1999.800
G1 X-36.500 Y17.669 F1999.800
G1 X-37.156 Y17.188 F1999.800
G1 X-37.506 Y16.800 F1999.800
G1 X-37.750 Y16.406 F1999.800
G1 X-38.038 Y15.556 F1999.800
G1 X-38.069 Y15.269 F1999.800
G1 X-38.056 Y14.725 F1999.800
G1 X-38.025 Y14.512 F1999.800
G1 X-37.906 Y13.994 F1999.800
G1 X-37.806 Y13.738 F1999.800
G1 X-37.737 Y13.600 F1999.800
G1 X-37.406 Y13.100 F1999.800
G1 X-37.212 Y12.881 F1999.800
G1 X-36.812 Y12.500 F1999.800
G1 X-36.694 Y12.419 F1999.800
G1 X-36.019 Y12.094 F1999.800
G1 X-35.606 Y11.969 F1999.800
G1 X-34.894 Y11.912 F1999.800
G1 X-34.831 Y11.919 F1999.800
G1 X-34.831 Y11.919 F1999.800
G0 Z6.000
(helix to depth: -2.000000)
G0 X66.893 Y13.790 Z6.000
G0 X66.893 Y13.790 Z4.000
G1 X66.893 Y13.790 Z-1.000 F300.000
G1 X66.893 Y13.790 Z-1.000 F300.000
G1 X67.090 Y14.182 Z-1.039 F300.000
G1 X67.207 Y14.606 Z-1.077 F300.000
G1 X67.239 Y15.044 Z-1.116 F300.000
G1 X67.185 Y15.479 Z-1.155 F300.000
G1 X67.047 Y15.896 Z-1.193 F300.000
G1 X66.831 Y16.278 Z-1.232 F300.000
G1 X66.544 Y16.611 Z-1.271 F300.000
G1 X66.197 Y16.881 Z-1.309 F300.000
G1 X65.805 Y17.078 Z-1.348 F300.000
G1 X65.382 Y17.195 Z-1.387 F300.000
G1 X64.944 Y17.227 Z-1.425 F300.000
G1 X64.508 Y17.173 Z-1.464 F300.000
G1 X64.091 Y17.035 Z-1.502 F300.000
G1 X63.709 Y16.818 Z-1.541 F300.000
G1 X63.377 Y16.531 Z-1.580 F300.000
G1 X63.107 Y16.185 Z-1.618 F300.000
G1 X62.910 Y15.793 Z-1.657 F300.000
G1 X62.793 Y15.369 Z-1.696 F300.000
G1 X62.761 Y14.931 Z-1.734 F300.000
G1 X62.815 Y14.496 Z-1.773 F300.000
G1 X62.953 Y14.079 Z-1.812 F300.000
G1 X63.169 Y13.697 Z-1.850 F300.000
G1 X63.456 Y13.364 Z-1.889 F300.000
G1 X63.803 Y13.094 Z-1.928 F300.000
G1 X64.195 Y12.897 Z-1.966 F300.000
G1 X64.618 Y12.780 Z-2.000 F1999.800
G1 X65.056 Y12.748 Z-2.000 F1999.800
G1 X65.492 Y12.802 Z-2.000 F1999.800
G1 X65.909 Y12.940 Z-2.000 F1999.800
G1 X66.291 Y13.157 Z-2.000 F1999.800
G1 X66.623 Y13.444 Z-2.000 F1999.800
G1 X66.893 Y13.790 Z-2.000 F1999.800
G1 X67.090 Y14.182 Z-2.000 F1999.800
G1 X67.207 Y14.606 Z-2.000 F1999.800
G1 X67.239 Y15.044 Z-2.000 F1999.800
G1 X67.185 Y15.479 Z-2.000 F1999.800
G1 X67.047 Y15.896 Z-2.000 F1999.800
G1 X66.831 Y16.278 Z-2.000 F1999.800
G1 X66.544 Y16.611 Z-2.000 F1999.800
G1 X66.197 Y16.881 Z-2.000 F1999.800
G1 X65.805 Y17.078 Z-2.000 F1999.800
G1 X65.382 Y17.195 Z-2.000 F1999.800
G1 X64.944 Y17.227 Z-2.000 F1999.800
G1 X64.508 Y17.173 Z-2.000 F1999.800
G1 X64.091 Y17.035 Z-2.000 F1999.800
G1 X63.709 Y16.818 Z-2.000 F1999.800
G1 X63.377 Y16.531 Z-2.000 F1999.800
G1 X63.107 Y16.185 Z-2.000 F1999.800
G1 X62.910 Y15.793 Z-2.000 F1999.800
G1 X62.793 Y15.369 Z-2.000 F1999.800
G1 X62.761 Y14.931 Z-2.000 F1999.800
G1 X62.815 Y14.496 Z-2.000 F1999.800
G1 X62.953 Y14.079 Z-2.000 F1999.800
G1 X63.169 Y13.697 Z-2.000 F1999.800
G1 X63.456 Y13.364 Z-2.000 F1999.800
G1 X63.803 Y13.094 Z-2.000 F1999.800
G1 X64.195 Y12.897 Z-2.000 F1999.800
(Adaptive - depth: -2.000000)
G1 X65.000 Y12.738 F1999.800
G1 X65.069 Y12.662 F1999.800
G1 X65.119 Y12.575 F1999.800
G1 X65.188 Y12.500 F1999.800
G1 X65.444 Y12.344 F1999.800
G1 X65.906 Y12.206 F1999.800
G1 X66.094 Y12.250 F1999.800
G1 X66.619 Y12.512 F1999.800
G1 X66.987 Y12.806 F1999.800
G1 X67.419 Y13.294 F1999.800
G1 X67.706 Y13.787 F1999.800
G1 X67.894 Y14.325 F1999.800
G1 X67.956 Y15.075 F1999.800
G1 X67.888 Y15.637 F1999.800
G1 X67.719 Y16.200 F1999.800
G1 X67.513 Y16.538 F1999.800
G1 X67.162 Y17.012 F1999.800
G1 X66.719 Y17.419 F1999.800
G1 X66.194 Y17.712 F1999.800
G1 X65.719 Y17.875 F1999.800
G1 X65.219 Y17.950 F1999.800
G1 X64.719 Y17.944 F1999.800
G1 X64.219 Y17.850 F1999.800
G1 X63.550 Y17.569 F1999.800
G1 X62.950 Y17.131 F1999.800
G1 X62.600 Y16.744 F1999.800
G1 X62.375 Y16.387 F1999.800
G1 X62.087 Y15.613 F1999.800
G1 X62.044 Y15.113 F1999.800
G1 X62.069 Y14.613 F1999.800
G1 X62.200 Y14.012 F1999.800
G1 X62.319 Y13.731 F1999.800
G1 X62.706 Y13.131 F1999.800
G1 X63.275 Y12.575 F1999.800
G1 X64.062 Y12.188 F1999.800
G1 X64.531 Y12.069 F1999.800
G1 X64.531 Y12.069 F1999.800
G1 X64.775 Y12.037 F1999.800
G1 X64.775 Y12.037 F1999.800
G1 X64.906 Y11.931 F1999.800
G1 X64.906 Y11.931 F1999.800
G1 X65.156 Y11.919 F1999.800
G1 X65.156 Y11.919 F1999.800
G1 X65.531 Y11.963 F1999.800
G1 X66.037 Y12.106 F1999.800
G1 X66.287 Y12.206 F1999.800
G1 X66.706 Y12.431 F1999.800
G1 X67.081 Y12.725 F1999.800
G1 X67.456 Y13.144 F1999.800
G1 X67.806 Y13.713 F1999.800
G1 X67.944 Y14.088 F1999.800
G1 X68.006 Y14.312 F1999.800
G1 X68.075 Y14.919 F1999.800
G1 X68.069 Y15.125 F1999.800
G1 X67.987 Y15.750 F1999.800
G1 X67.838 Y16.212 F1999.800
G1 X67.763 Y16.375 F1999.800
G1 X67.338 Y16.994 F1999.800
G1 X67.169 Y17.175 F1999.800
G1 X66.912 Y17.419 F1999.800
G1 X66.575 Y17.656 F1999.800
G1 X66.263 Y17.819 F1999.800
G1 X65.769 Y17.988 F1999.800
G1 X65.213 Y18.069 F1999.800
G1 X64.706 Y18.069 F1999.800
G1 X64.144 Y17.950 F1999.800
G1 X63.600 Y17.731 F1999.800
G1 X63.494 Y17.669 F1999.800
G1 X62.837 Y17.188 F1999.800
G1 X62.487 Y16.800 F1999.800
G1 X62.244 Y16.406 F1999.800
G1 X61.956 Y15.556 F1999.800
G1 X61.925 Y15.312 F1999.800
G1 X61.938 Y14.725 F1999.800
G1 X61.969 Y14.525 F1999.800
G1 X62.087 Y13.994 F1999.800
G1 X62.188 Y13.738 F1999.800
G1 X62.256 Y13.600 F1999.800
G1 X62.587 Y13.100 F1999.800
G1 X62.781 Y12.881 F1999.800
G1 X63.181 Y12.500 F1999.800
G1 X63.300 Y12.419 F1999.800
G1 X63.975 Y12.094 F1999.800
G1 X64.388 Y11.969 F1999.800
G1 X65.100 Y11.912 F1999.800
G1 X65.162 Y11.919 F1999.800
G1 X65.156 Y11.919 F1999.800
G0 Z6.000
(helix to depth: -3.000000)
G0 X-33.094 Y13.790 Z6.000
G0 X-33.094 Y13.790 Z4.000
G1 X-33.094 Y13.790 Z-2.000 F300.000
G1 X-33.094 Y13.790 Z-2.000 F300.000
G1 X-32.897 Y14.182 Z-2.039 F300.000
G1 X-32.780 Y14.606 Z-2.077 F300.000
G1 X-32.748 Y15.044 Z-2.116 F300.000
G1 X-32.802 Y15.479 Z-2.155 F300.000
G1 X-32.940 Y15.896 Z-2.193 F300.000
G1 X-33.157 Y16.278 Z-2.232 F300.000
G1 X-33.444 Y16.611 Z-2.271 F300.000
G1 X-33.790 Y16.881 Z-2.309 F300.000
G1 X-34.182 Y17.078 Z-2.348 F300.000
G1 X-34.606 Y17.195 Z-2.387 F300.000
G1 X-35.044 Y17.227 Z-2.425 F300.000
G1 X-35.479 Y17.173 Z-2.464 F300.000
G1 X-35.896 Y17.035 Z-2.502 F300.000
G1 X-36.278 Y16.818 Z-2.541 F300.000
G1 X-36.611 Y16.531 Z-2.580 F300.000
G1 X-36.881 Y16.185 Z-2.618 F300.000
G1 X-37.078 Y15.793 Z-2.657 F300.000
G1 X-37.195 Y15.369 Z-2.696 F300.000
G1 X-37.227 Y14.931 Z-2.734 F300.000
G1 X-37.173 Y14.496 Z-2.773 F300.000
G1 X-37.035 Y14.079 Z-2.812 F300.000
G1 X-36.818 Y13.697 Z-2.850 F300.000
G1 X-36.531 Y13.364 Z-2.889 F300.000
G1 X-36.185 Y13.094 Z-2.928 F300.000
G1 X-35.793 Y12.897 Z-2.966 F300.000
G1 X-35.369 Y12.780 Z-3.000 F1999.800
G1 X-34.931 Y12.748 Z-3.000 F1999.800
G1 X-34.496 Y12.802 Z-3.000 F1999.800
G1 X-34.079 Y12.940 Z-3.000 F1999.800
G1 X-33.697 Y13.157 Z-3.000 F1999.800
G1 X-33.364 Y13.444 Z-3.000 F1999.800
G1 X-33.094 Y13.790 Z-3.000 F1999.800
G1 X-32.897 Y14.182 Z-3.000 F1999.800
G1 X-32.780 Y14.606 Z-3.000 F1999.800
G1 X-32.748 Y15.044 Z-3.000 F1999.800
G1 X-32.802 Y15.479 Z-3.000 F1999.800
G1 X-32.940 Y15.896 Z-3.000 F1999.800
G1 X-33.157 Y16.278 Z-3.000 F1999.800
G1 X-33.444 Y16.611 Z-3.000 F1999.800
G1 X-33.790 Y16.881 Z-3.000 F1999.800
G1 X-34.182 Y17.078 Z-3.000 F1999.800
G1 X-34.606 Y17.195 Z-3.000 F1999.800
G1 X-35.044 Y17.227 Z-3.000 F1999.800
G1 X-35.479 Y17.173 Z-3.000 F1999.800
G1 X-35.896 Y17.035 Z-3.000 F1999.800
G1 X-36.278 Y16.818 Z-3.000 F1999.800
G1 X-36.611 Y16.531 Z-3.000 F1999.800
G1 X-36.881 Y16.185 Z-3.000 F1999.800
G1 X-37.078 Y15.793 Z-3.000 F1999.800
G1 X-37.195 Y15.369 Z-3.000 F1999.800
G1 X-37.227 Y14.931 Z-3.000 F1999.800
G1 X-37.173 Y14.496 Z-3.000 F1999.800
G1 X-37.035 Y14.079 Z-3.000 F1999.800
G1 X-36.818 Y13.697 Z-3.000 F1999.800
G1 X-36.531 Y13.364 Z-3.000 F1999.800
G1 X-36.185 Y13.094 Z-3.000 F1999.800
G1 X-35.793 Y12.897 Z-3.000 F1999.800
(Adaptive - depth: -3.000000)
G1 X-34.987 Y12.738 F1999.800
G1 X-34.913 Y12.662 F1999.800
G1 X-34.788 Y12.500 F1999.800
G1 X-34.612 Y12.387 F1999.800
G1 X-34.325 Y12.275 F1999.800
G1 X-34.025 Y12.219 F1999.800
G1 X-33.831 Y12.281 F1999.800
G1 X-33.381 Y12.512 F1999.800
G1 X-32.981 Y12.831 F1999.800
G1 X-32.581 Y13.287 F1999.800
G1 X-32.275 Y13.806 F1999.800
G1 X-32.119 Y14.275 F1999.800
G1 X-32.031 Y15.025 F1999.800
G1 X-32.119 Y15.681 F1999.800
G1 X-32.294 Y16.238 F1999.800
G1 X-32.781 Y16.956 F1999.800
G1 X-33.188 Y17.350 F1999.800
G1 X-33.844 Y17.731 F1999.800
G1 X-34.306 Y17.881 F1999.800
G1 X-34.775 Y17.950 F1999.800
G1 X-35.337 Y17.938 F1999.800
G1 X-35.806 Y17.844 F1999.800
G1 X-36.438 Y17.575 F1999.800
G1 X-37.087 Y17.094 F1999.800
G1 X-37.413 Y16.719 F1999.800
G1 X-37.625 Y16.375 F1999.800
G1 X-37.900 Y15.619 F1999.800
G1 X-37.950 Y15.219 F1999.800
G1 X-37.925 Y14.619 F1999.800
G1 X-37.794 Y14.019 F1999.800
G1 X-37.675 Y13.725 F1999.800
G1 X-37.275 Y13.119 F1999.800
G1 X-36.756 Y12.613 F1999.800
G1 X-36.675 Y12.550 F1999.800
G1 X-35.925 Y12.181 F1999.800
G1 X-35.525 Y12.081 F1999.800
G1 X-34.925 Y12.037 F1999.800
G1 X-34.925 Y12.037 F1999.800
G1 X-34.888 Y12.025 F1999.800
G1 X-34.894 Y12.012 F1999.800
G1 X-34.906 Y11.988 F1999.800
G1 X-34.900 Y11.963 F1999.800
G1 X-34.831 Y11.919 F1999.800
G1 X-34.831 Y11.919 F1999.800
G1 X-34.462 Y11.963 F1999.800
G1 X-33.956 Y12.106 F1999.800
G1 X-33.706 Y12.206 F1999.800
G1 X-33.288 Y12.431 F1999.800
G1 X-32.913 Y12.725 F1999.800
G1 X-32.538 Y13.144 F1999.800
G1 X-32.181 Y13.719 F1999.800
G1 X-32.050 Y14.088 F1999.800
G1 X-31.988 Y14.319 F1999.800
G1 X-31.913 Y14.994 F1999.800
G1 X-31.981 Y15.637 F1999.800
G1 X-32.150 Y16.194 F1999.800
G1 X-32.231 Y16.375 F1999.800
G1 X-32.656 Y16.994 F1999.800
G1 X-32.825 Y17.175 F1999.800
G1 X-33.081 Y17.419 F1999.800
G1 X-33.419 Y17.656 F1999.800
G1 X-33.731 Y17.819 F1999.800
G1 X-34.225 Y17.988 F1999.800
G1 X-34.781 Y18.069 F1999.800
G1 X-35.288 Y18.069 F1999.800
G1 X-35.850 Y17.950 F1999.800
G1 X-36.394 Y17.731 F1999.800
G1 X-36.500 Y17.669 F1999.800
G1 X-37.156 Y17.188 F1999.800
G1 X-37.506 Y16.800 F1999.800
G1 X-37.750 Y16.406 F1999.800
G1 X-38.038 Y15.556 F1999.800
G1 X-38.069 Y15.269 F1999.800
G1 X-38.056 Y14.725 F1999.800
G1 X-38.025 Y14.512 F1999.800
G1 X-37.906 Y13.994 F1999.800
G1 X-37.806 Y13.738 F1999.800
G1 X-37.737 Y13.600 F1999.800
G1 X-37.406 Y13.100 F1999.800
G1 X-37.212 Y12.881 F1999.800
G1 X-36.812 Y12.500 F1999.800
G1 X-36.694 Y12.419 F1999.800
G1 X-36.019 Y12.094 F1999.800
G1 X-35.606 Y11.969 F1999.800
G1 X-34.894 Y11.912 F1999.800
G1 X-34.831 Y11.919 F1999.800
G1 X-34.831 Y11.919 F1999.800
G0 Z6.000
(helix to depth: -3.000000)
G0 X66.893 Y13.790 Z6.000
G0 X66.893 Y13.790 Z4.000
G1 X66.893 Y13.790 Z-2.000 F300.000
G1 X66.893 Y13.790 Z-2.000 F300.000
G1 X67.090 Y14.182 Z-2.039 F300.000
G1 X67.207 Y14.606 Z-2.077 F300.000
G1 X67.239 Y15.044 Z-2.116 F300.000
G1 X67.185 Y15.479 Z-2.155 F300.000
G1 X67.047 Y15.896 Z-2.193 F300.000
G1 X66.831 Y16.278 Z-2.232 F300.000
G1 X66.544 Y16.611 Z-2.271 F300.000
G1 X66.197 Y16.881 Z-2.309 F300.000
G1 X65.805 Y17.078 Z-2.348 F300.000
G1 X65.382 Y17.195 Z-2.387 F300.000
G1 X64.944 Y17.227 Z-2.425 F300.000
G1 X64.508 Y17.173 Z-2.464 F300.000
G1 X64.091 Y17.035 Z-2.502 F300.000
G1 X63.709 Y16.818 Z-2.541 F300.000
G1 X63.377 Y16.531 Z-2.580 F300.000
G1 X63.107 Y16.185 Z-2.618 F300.000
G1 X62.910 Y15.793 Z-2.657 F300.000
G1 X62.793 Y15.369 Z-2.696 F300.000
G1 X62.761 Y14.931 Z-2.734 F300.000
G1 X62.815 Y14.496 Z-2.773 F300.000
G1 X62.953 Y14.079 Z-2.812 F300.000
G1 X63.169 Y13.697 Z-2.850 F300.000
G1 X63.456 Y13.364 Z-2.889 F300.000
G1 X63.803 Y13.094 Z-2.928 F300.000
G1 X64.195 Y12.897 Z-2.966 F300.000
G1 X64.618 Y12.780 Z-3.000 F1999.800
G1 X65.056 Y12.748 Z-3.000 F1999.800
G1 X65.492 Y12.802 Z-3.000 F1999.800
G1 X65.909 Y12.940 Z-3.000 F1999.800
G1 X66.291 Y13.157 Z-3.000 F1999.800
G1 X66.623 Y13.444 Z-3.000 F1999.800
G1 X66.893 Y13.790 Z-3.000 F1999.800
G1 X67.090 Y14.182 Z-3.000 F1999.800
G1 X67.207 Y14.606 Z-3.000 F1999.800
G1 X67.239 Y15.044 Z-3.000 F1999.800
G1 X67.185 Y15.479 Z-3.000 F1999.800
